;-- START GCODE --
;Sliced for Type A Machines Series 1
;Sliced at: Wed 25-04-2018 15:06:12
;Basic settings:
; Layer height: 0.3
; Walls: 1
; Fill: 8
; Print Speed: 60
; Support: 0
; Retraction Speed: 35
; Retraction Distance: 0.4
;Print time: 16 minutes
;Filament used: 2.039m 6.0g
;Settings based on: Type A Machines Everyday PLA
G21        ;metric values
G90        ;absolute positioning
G28     ;move to endstops
G29		;allows for auto-levelling
G1 Z15.0 F12000 ;move the platform down 15mm
G1 X150 Y5 F12000 ;center
M140 S50 ;Prep Heat Bed
M109 S220 ;Heat To temp
M190 S50 ;Heat Bed to temp
G1 X150 Y5 Z0.3 ;move the platform to purge extrusion
G92 E0 ;zero the extruded length
G1 F200 X250 E30 ;extrude 30mm of feed stock
G92 E0 ;zero the extruded length again
G1 X150 Y150  Z25 F12000 ;recenter and begin
G1 F12000

;Layer count: 7
;LAYER:0
M107
G0 F12000 X112.562 Y81.362 Z0.200
;TYPE:SKIRT
G1 F1800 X112.297 Y81.746 E0.01940
G1 X112.049 Y82.163 E0.03957
G1 X111.839 Y82.581 E0.05902
G1 X111.653 Y83.025 E0.07903
G1 X111.499 Y83.477 E0.09888
G1 X111.378 Y83.936 E0.11862
G1 X111.289 Y84.399 E0.13822
G1 X111.232 Y84.865 E0.15774
G1 X111.207 Y85.353 E0.17805
G1 X111.215 Y85.829 E0.19785
G1 X111.256 Y86.297 E0.21738
G1 X111.329 Y86.768 E0.23719
G1 X111.437 Y87.239 E0.25728
G1 X111.571 Y87.683 E0.27657
G1 X111.741 Y88.131 E0.29649
G1 X111.947 Y88.578 E0.31695
G1 X112.168 Y88.982 E0.33609
G1 X112.428 Y89.389 E0.35617
G1 X112.703 Y89.759 E0.37534
G1 X113.028 Y90.138 E0.39610
G1 X113.355 Y90.471 E0.41550
G1 X113.711 Y90.786 E0.43526
G1 X114.083 Y91.073 E0.45480
G1 X114.485 Y91.341 E0.47488
G1 X114.898 Y91.576 E0.49464
G1 X115.325 Y91.781 E0.51433
G1 X115.771 Y91.959 E0.53430
G1 X116.227 Y92.106 E0.55422
G1 X116.691 Y92.220 E0.57408
G1 X117.140 Y92.299 E0.59303
G1 X117.634 Y92.350 E0.61368
G1 X118.103 Y92.366 E0.63319
G1 X118.572 Y92.350 E0.65270
G1 X119.066 Y92.299 E0.67335
G1 X119.515 Y92.220 E0.69230
G1 X119.975 Y92.107 E0.71200
G1 X120.443 Y91.957 E0.73243
G1 X120.878 Y91.783 E0.75191
G1 X121.308 Y91.576 E0.77175
G1 X121.721 Y91.341 E0.79150
G1 X122.123 Y91.073 E0.81159
G1 X122.495 Y90.786 E0.83112
G1 X122.853 Y90.470 E0.85098
G1 X123.190 Y90.127 E0.87097
G1 X123.492 Y89.773 E0.89031
G1 X123.775 Y89.393 E0.91001
G1 X124.043 Y88.974 E0.93069
G1 X124.261 Y88.576 E0.94956
G1 X124.463 Y88.137 E0.96965
G1 X124.635 Y87.683 E0.98983
G1 X124.769 Y87.239 E1.00911
G1 X124.877 Y86.768 E1.02920
G1 X124.950 Y86.297 E1.04902
G1 X124.991 Y85.829 E1.06855
G1 X124.999 Y85.353 E1.08834
G1 X124.974 Y84.865 E1.10866
G1 X124.917 Y84.399 E1.12818
G1 X124.828 Y83.936 E1.14778
G1 X124.707 Y83.477 E1.16752
G1 X124.553 Y83.025 E1.18737
G1 X124.367 Y82.581 E1.20738
G1 X124.156 Y82.161 E1.22692
G1 X123.908 Y81.743 E1.24713
G1 X123.648 Y81.366 E1.26617
G1 X123.339 Y80.980 E1.28673
G1 X123.021 Y80.632 E1.30633
G1 X122.685 Y80.314 E1.32556
G1 X122.303 Y79.998 E1.34617
G1 X121.917 Y79.721 E1.36592
G1 X121.521 Y79.477 E1.38526
G1 X121.103 Y79.258 E1.40488
G1 X120.648 Y79.058 E1.42554
G1 X120.222 Y78.904 E1.44438
G1 X119.753 Y78.772 E1.46463
G1 X119.291 Y78.675 E1.48426
G1 X118.801 Y78.607 E1.50483
G1 X118.346 Y78.575 E1.52379
G1 X117.860 Y78.575 E1.54400
G1 X117.405 Y78.607 E1.56296
G1 X116.915 Y78.675 E1.58353
G1 X116.453 Y78.772 E1.60315
G1 X115.984 Y78.904 E1.62341
G1 X115.558 Y79.058 E1.64224
G1 X115.103 Y79.258 E1.66291
G1 X114.696 Y79.472 E1.68202
G1 X114.280 Y79.728 E1.70233
G1 X113.903 Y79.998 E1.72161
G1 X113.521 Y80.314 E1.74222
G1 X113.185 Y80.632 E1.76145
G1 X112.867 Y80.980 E1.78105
G1 X112.562 Y81.362 E1.80138
G0 F12000 X112.158 Y81.066
G1 F1800 X111.875 Y81.476 E1.82209
G1 X111.613 Y81.917 E1.84341
G1 X111.386 Y82.369 E1.86444
G1 X111.186 Y82.846 E1.88595
G1 X111.021 Y83.333 E1.90732
G1 X110.889 Y83.828 E1.92862
G1 X110.795 Y84.317 E1.94933
G1 X110.732 Y84.837 E1.97110
G1 X110.707 Y85.337 E1.99192
G1 X110.715 Y85.852 E2.01333
G1 X110.759 Y86.359 E2.03449
G1 X110.839 Y86.869 E2.05595
G1 X110.949 Y87.354 E2.07663
G1 X111.102 Y87.856 E2.09845
G1 X111.278 Y88.322 E2.11916
G1 X111.495 Y88.793 E2.14072
G1 X111.739 Y89.239 E2.16185
G1 X112.019 Y89.676 E2.18343
G1 X112.316 Y90.075 E2.20411
G1 X112.658 Y90.475 E2.22599
G1 X113.012 Y90.836 E2.24701
G1 X113.389 Y91.170 E2.26795
G1 X113.791 Y91.479 E2.28903
G1 X114.228 Y91.770 E2.31086
G1 X114.669 Y92.021 E2.33195
G1 X115.123 Y92.239 E2.35289
G1 X115.595 Y92.428 E2.37403
G1 X116.085 Y92.585 E2.39542
G1 X116.583 Y92.708 E2.41675
G1 X117.090 Y92.797 E2.43815
G1 X117.595 Y92.849 E2.45926
G1 X118.103 Y92.867 E2.48039
G1 X118.611 Y92.849 E2.50152
G1 X119.116 Y92.797 E2.52263
G1 X119.623 Y92.708 E2.54403
G1 X120.126 Y92.584 E2.56557
G1 X120.597 Y92.433 E2.58613
G1 X121.092 Y92.235 E2.60830
G1 X121.537 Y92.021 E2.62883
G1 X121.978 Y91.770 E2.64992
G1 X122.415 Y91.479 E2.67175
G1 X122.817 Y91.170 E2.69283
G1 X123.196 Y90.834 E2.71389
G1 X123.553 Y90.471 E2.73506
G1 X123.885 Y90.082 E2.75632
G1 X124.198 Y89.661 E2.77813
G1 X124.462 Y89.249 E2.79847
G1 X124.710 Y88.797 E2.81991
G1 X124.928 Y88.323 E2.84160
G1 X125.104 Y87.856 E2.86235
G1 X125.257 Y87.354 E2.88417
G1 X125.367 Y86.869 E2.90484
G1 X125.447 Y86.359 E2.92631
G1 X125.491 Y85.852 E2.94746
G1 X125.499 Y85.337 E2.96888
G1 X125.474 Y84.837 E2.98969
G1 X125.411 Y84.317 E3.01147
G1 X125.317 Y83.828 E3.03217
G1 X125.185 Y83.333 E3.05347
G1 X125.020 Y82.846 E3.07485
G1 X124.820 Y82.369 E3.09635
G1 X124.590 Y81.911 E3.11766
G1 X124.339 Y81.488 E3.13811
G1 X124.044 Y81.061 E3.15968
G1 X123.718 Y80.653 E3.18140
G1 X123.381 Y80.284 E3.20217
G1 X123.010 Y79.933 E3.22341
G1 X122.613 Y79.605 E3.24482
G1 X122.197 Y79.306 E3.26612
G1 X121.774 Y79.046 E3.28676
G1 X121.314 Y78.804 E3.30837
G1 X120.843 Y78.598 E3.32974
G1 X120.356 Y78.422 E3.35127
G1 X119.887 Y78.289 E3.37154
G1 X119.362 Y78.179 E3.39384
G1 X118.876 Y78.112 E3.41424
G1 X118.352 Y78.075 E3.43607
G1 X117.854 Y78.075 E3.45678
G1 X117.330 Y78.112 E3.47862
G1 X116.844 Y78.179 E3.49902
G1 X116.319 Y78.289 E3.52132
G1 X115.850 Y78.422 E3.54158
G1 X115.363 Y78.598 E3.56311
G1 X114.892 Y78.804 E3.58449
G1 X114.442 Y79.041 E3.60563
G1 X114.000 Y79.313 E3.62721
G1 X113.593 Y79.605 E3.64803
G1 X113.196 Y79.933 E3.66944
G1 X112.825 Y80.284 E3.69068
G1 X112.488 Y80.653 E3.71145
G1 X112.158 Y81.066 E3.73343
G0 F12000 X111.762 Y80.760
G1 F1800 X111.451 Y81.211 E3.75621
G1 X111.174 Y81.678 E3.77878
G1 X110.931 Y82.162 E3.80130
G1 X110.721 Y82.662 E3.82384
G1 X110.542 Y83.189 E3.84698
G1 X110.401 Y83.720 E3.86983
G1 X110.302 Y84.237 E3.89171
G1 X110.234 Y84.793 E3.91500
G1 X110.206 Y85.335 E3.93756
G1 X110.216 Y85.874 E3.95998
G1 X110.263 Y86.421 E3.98280
G1 X110.347 Y86.957 E4.00536
G1 X110.469 Y87.495 E4.02829
G1 X110.623 Y88.003 E4.05036
G1 X110.819 Y88.521 E4.07339
G1 X111.051 Y89.024 E4.09642
G1 X111.313 Y89.503 E4.11912
G1 X111.600 Y89.951 E4.14124
G1 X111.928 Y90.391 E4.16405
G1 X112.289 Y90.813 E4.18714
G1 X112.662 Y91.193 E4.20928
G1 X113.075 Y91.559 E4.23222
G1 X113.509 Y91.893 E4.25499
G1 X113.956 Y92.190 E4.27730
G1 X114.428 Y92.459 E4.29989
G1 X114.931 Y92.701 E4.32310
G1 X115.427 Y92.899 E4.34530
G1 X115.957 Y93.069 E4.36844
G1 X116.478 Y93.198 E4.39075
G1 X117.011 Y93.291 E4.41325
G1 X117.554 Y93.347 E4.43594
G1 X118.103 Y93.366 E4.45878
G1 X118.652 Y93.347 E4.48162
G1 X119.195 Y93.291 E4.50432
G1 X119.728 Y93.198 E4.52681
G1 X120.254 Y93.068 E4.54934
G1 X120.778 Y92.900 E4.57221
G1 X121.272 Y92.703 E4.59433
G1 X121.778 Y92.459 E4.61768
G1 X122.250 Y92.190 E4.64027
G1 X122.697 Y91.893 E4.66258
G1 X123.131 Y91.559 E4.68535
G1 X123.546 Y91.192 E4.70838
G1 X123.922 Y90.808 E4.73072
G1 X124.272 Y90.399 E4.75310
G1 X124.610 Y89.945 E4.77664
G1 X124.898 Y89.495 E4.79885
G1 X125.160 Y89.017 E4.82151
G1 X125.382 Y88.533 E4.84365
G1 X125.583 Y88.003 E4.86722
G1 X125.737 Y87.495 E4.88928
G1 X125.859 Y86.957 E4.91222
G1 X125.943 Y86.421 E4.93478
G1 X125.990 Y85.874 E4.95760
G1 X126.000 Y85.335 E4.98001
G1 X125.972 Y84.793 E5.00258
G1 X125.904 Y84.237 E5.02587
G1 X125.805 Y83.720 E5.04775
G1 X125.664 Y83.189 E5.07059
G1 X125.485 Y82.662 E5.09373
G1 X125.275 Y82.162 E5.11628
G1 X125.032 Y81.678 E5.13880
G1 X124.759 Y81.216 E5.16111
G1 X124.439 Y80.755 E5.18444
G1 X124.104 Y80.334 E5.20681
G1 X123.740 Y79.937 E5.22920
G1 X123.342 Y79.559 E5.25202
G1 X122.910 Y79.202 E5.27532
G1 X122.483 Y78.897 E5.29713
G1 X122.012 Y78.606 E5.32015
G1 X121.530 Y78.353 E5.34278
G1 X121.033 Y78.135 E5.36535
G1 X120.509 Y77.946 E5.38851
G1 X119.995 Y77.800 E5.41072
G1 X119.461 Y77.689 E5.43340
G1 X118.921 Y77.613 E5.45607
G1 X118.373 Y77.575 E5.47891
G1 X117.833 Y77.575 E5.50136
G1 X117.285 Y77.613 E5.52420
G1 X116.745 Y77.689 E5.54687
G1 X116.211 Y77.800 E5.56954
G1 X115.697 Y77.946 E5.59176
G1 X115.173 Y78.135 E5.61492
G1 X114.676 Y78.353 E5.63748
G1 X114.187 Y78.610 E5.66045
G1 X113.737 Y78.888 E5.68244
G1 X113.290 Y79.207 E5.70527
G1 X112.864 Y79.559 E5.72824
G1 X112.466 Y79.937 E5.75107
G1 X112.102 Y80.334 E5.77346
G1 X111.762 Y80.760 E5.79612
G0 F12000 X111.364 Y80.457
G1 F1800 X111.029 Y80.942 E5.82062
G1 X110.731 Y81.444 E5.84490
G1 X110.480 Y81.944 E5.86816
G1 X110.249 Y82.495 E5.89300
G1 X110.062 Y83.044 E5.91711
G1 X109.915 Y83.601 E5.94106
G1 X109.806 Y84.167 E5.96502
G1 X109.737 Y84.736 E5.98885
G1 X109.707 Y85.318 E6.01308
G1 X109.717 Y85.911 E6.03774
G1 X109.767 Y86.484 E6.06165
G1 X109.856 Y87.059 E6.08584
G1 X109.981 Y87.607 E6.10921
G1 X110.153 Y88.176 E6.13392
G1 X110.359 Y88.719 E6.15807
G1 X110.596 Y89.233 E6.18160
G1 X110.885 Y89.759 E6.20655
G1 X111.188 Y90.235 E6.23001
G1 X111.536 Y90.703 E6.25426
G1 X111.912 Y91.143 E6.27832
G1 X112.326 Y91.565 E6.30290
G1 X112.745 Y91.936 E6.32617
G1 X113.217 Y92.299 E6.35092
G1 X113.699 Y92.620 E6.37500
G1 X114.198 Y92.904 E6.39887
G1 X114.717 Y93.154 E6.42282
G1 X115.264 Y93.372 E6.44730
G1 X115.815 Y93.549 E6.47136
G1 X116.373 Y93.687 E6.49526
G1 X116.945 Y93.787 E6.51940
G1 X117.529 Y93.847 E6.54381
G1 X118.103 Y93.867 E6.56769
G1 X118.677 Y93.847 E6.59157
G1 X119.261 Y93.787 E6.61597
G1 X119.833 Y93.687 E6.64012
G1 X120.396 Y93.548 E6.66423
G1 X120.941 Y93.373 E6.68802
G1 X121.486 Y93.155 E6.71243
G1 X122.008 Y92.904 E6.73651
G1 X122.507 Y92.620 E6.76038
G1 X122.989 Y92.299 E6.78445
G1 X123.461 Y91.936 E6.80921
G1 X123.881 Y91.564 E6.83254
G1 X124.292 Y91.146 E6.85691
G1 X124.673 Y90.700 E6.88130
G1 X125.015 Y90.240 E6.90513
G1 X125.323 Y89.759 E6.92887
G1 X125.609 Y89.237 E6.95362
G1 X125.847 Y88.719 E6.97732
G1 X126.053 Y88.176 E7.00146
G1 X126.225 Y87.607 E7.02618
G1 X126.350 Y87.059 E7.04955
G1 X126.439 Y86.484 E7.07374
G1 X126.489 Y85.911 E7.09765
G1 X126.499 Y85.318 E7.12231
G1 X126.469 Y84.736 E7.14654
G1 X126.400 Y84.167 E7.17037
G1 X126.291 Y83.601 E7.19433
G1 X126.144 Y83.044 E7.21828
G1 X125.957 Y82.495 E7.24239
G1 X125.726 Y81.944 E7.26723
G1 X125.475 Y81.445 E7.29045
G1 X125.172 Y80.934 E7.31515
G1 X124.848 Y80.464 E7.33889
G1 X124.489 Y80.014 E7.36282
G1 X124.093 Y79.582 E7.38718
G1 X123.666 Y79.178 E7.41162
G1 X123.229 Y78.817 E7.43519
G1 X122.753 Y78.475 E7.45956
G1 X122.254 Y78.168 E7.48392
G1 X121.752 Y77.904 E7.50750
G1 X121.216 Y77.669 E7.53183
G1 X120.669 Y77.472 E7.55600
G1 X120.119 Y77.316 E7.57977
G1 X119.544 Y77.195 E7.60420
G1 X118.967 Y77.115 E7.62842
G1 X118.394 Y77.075 E7.65230
G1 X117.812 Y77.075 E7.67649
G1 X117.239 Y77.115 E7.70037
G1 X116.662 Y77.195 E7.72459
G1 X116.087 Y77.316 E7.74902
G1 X115.537 Y77.472 E7.77279
G1 X114.990 Y77.669 E7.79696
G1 X114.454 Y77.904 E7.82129
G1 X113.949 Y78.170 E7.84502
G1 X113.453 Y78.475 E7.86923
G1 X112.980 Y78.814 E7.89343
G1 X112.540 Y79.178 E7.91717
G1 X112.113 Y79.582 E7.94161
G1 X111.717 Y80.014 E7.96597
G1 X111.364 Y80.457 E7.98952
G0 F12000 X110.968 Y80.152
G1 F1800 X110.601 Y80.683 E8.01636
G1 X110.302 Y81.187 E8.04072
G1 X110.020 Y81.749 E8.06686
G1 X109.784 Y82.311 E8.09220
G1 X109.584 Y82.900 E8.11807
G1 X109.426 Y83.493 E8.14358
G1 X109.312 Y84.085 E8.16864
G1 X109.237 Y84.708 E8.19473
G1 X109.206 Y85.301 E8.21942
G1 X109.217 Y85.934 E8.24574
G1 X109.270 Y86.546 E8.27128
G1 X109.364 Y87.147 E8.29657
G1 X109.501 Y87.749 E8.32224
G1 X109.675 Y88.322 E8.34714
G1 X109.903 Y88.923 E8.37386
G1 X110.150 Y89.460 E8.39843
G1 X110.449 Y90.005 E8.42428
G1 X110.781 Y90.525 E8.44993
G1 X111.148 Y91.019 E8.47551
G1 X111.543 Y91.480 E8.50075
G1 X111.977 Y91.922 E8.52651
G1 X112.440 Y92.333 E8.55225
G1 X112.916 Y92.699 E8.57721
G1 X113.432 Y93.042 E8.60297
G1 X113.969 Y93.348 E8.62867
G1 X114.527 Y93.617 E8.65442
G1 X115.088 Y93.840 E8.67952
G1 X115.674 Y94.029 E8.70512
G1 X116.281 Y94.179 E8.73111
G1 X116.879 Y94.283 E8.75635
G1 X117.489 Y94.346 E8.78184
G1 X118.103 Y94.368 E8.80739
G1 X118.717 Y94.346 E8.83293
G1 X119.327 Y94.283 E8.85843
G1 X119.925 Y94.179 E8.88366
G1 X120.537 Y94.027 E8.90988
G1 X121.109 Y93.844 E8.93485
G1 X121.683 Y93.614 E8.96056
G1 X122.237 Y93.348 E8.98611
G1 X122.774 Y93.042 E9.01180
G1 X123.290 Y92.699 E9.03756
G1 X123.766 Y92.333 E9.06253
G1 X124.230 Y91.921 E9.08832
G1 X124.662 Y91.483 E9.11390
G1 X125.060 Y91.016 E9.13941
G1 X125.426 Y90.524 E9.16491
G1 X125.759 Y90.005 E9.19054
G1 X126.050 Y89.473 E9.21575
G1 X126.308 Y88.911 E9.24146
G1 X126.531 Y88.322 E9.26765
G1 X126.705 Y87.749 E9.29254
G1 X126.842 Y87.147 E9.31821
G1 X126.936 Y86.546 E9.34350
G1 X126.989 Y85.934 E9.36904
G1 X127.000 Y85.301 E9.39536
G1 X126.969 Y84.708 E9.42005
G1 X126.894 Y84.085 E9.44614
G1 X126.780 Y83.493 E9.47120
G1 X126.622 Y82.900 E9.49672
G1 X126.422 Y82.311 E9.52258
G1 X126.186 Y81.749 E9.54792
G1 X125.908 Y81.194 E9.57373
G1 X125.596 Y80.668 E9.59915
G1 X125.244 Y80.158 E9.62492
G1 X124.867 Y79.687 E9.65000
G1 X124.453 Y79.235 E9.67548
G1 X123.998 Y78.803 E9.70157
G1 X123.532 Y78.418 E9.72670
G1 X123.027 Y78.056 E9.75253
G1 X122.520 Y77.744 E9.77728
G1 X121.956 Y77.447 E9.80378
G1 X121.406 Y77.206 E9.82875
G1 X120.821 Y76.995 E9.85460
G1 X120.227 Y76.827 E9.88027
G1 X119.643 Y76.705 E9.90507
G1 X119.014 Y76.617 E9.93148
G1 X118.413 Y76.575 E9.95652
G1 X117.793 Y76.575 E9.98230
G1 X117.192 Y76.617 E10.00735
G1 X116.563 Y76.705 E10.03375
G1 X115.979 Y76.827 E10.05856
G1 X115.385 Y76.995 E10.08422
G1 X114.800 Y77.206 E10.11008
G1 X114.250 Y77.447 E10.13504
G1 X113.689 Y77.742 E10.16139
G1 X113.173 Y78.060 E10.18659
G1 X112.677 Y78.416 E10.21198
G1 X112.208 Y78.803 E10.23726
G1 X111.753 Y79.235 E10.26334
G1 X111.339 Y79.687 E10.28882
G1 X110.968 Y80.152 E10.31356
G0 F12000 X110.553 Y79.872
G1 F1800 X110.191 Y80.396 E10.34003
G1 X109.857 Y80.958 E10.36721
G1 X109.567 Y81.537 E10.39414
G1 X109.311 Y82.145 E10.42156
G1 X109.108 Y82.742 E10.44778
G1 X108.937 Y83.388 E10.47556
G1 X108.819 Y84.002 E10.50156
G1 X108.739 Y84.664 E10.52928
G1 X108.706 Y85.299 E10.55572
G1 X108.718 Y85.956 E10.58304
G1 X108.774 Y86.608 E10.61024
G1 X108.872 Y87.235 E10.63663
G1 X109.018 Y87.873 E10.66384
G1 X109.208 Y88.504 E10.69123
G1 X109.436 Y89.105 E10.71796
G1 X109.701 Y89.680 E10.74428
G1 X110.026 Y90.273 E10.77240
G1 X110.361 Y90.798 E10.79829
G1 X110.756 Y91.330 E10.82584
G1 X111.173 Y91.817 E10.85249
G1 X111.627 Y92.280 E10.87945
G1 X112.126 Y92.722 E10.90716
G1 X112.634 Y93.112 E10.93379
G1 X113.171 Y93.469 E10.96060
G1 X113.733 Y93.790 E10.98751
G1 X114.313 Y94.069 E11.01427
G1 X114.926 Y94.313 E11.04170
G1 X115.545 Y94.513 E11.06874
G1 X116.162 Y94.665 E11.09516
G1 X116.814 Y94.779 E11.12268
G1 X117.449 Y94.845 E11.14922
G1 X118.103 Y94.867 E11.17643
G1 X118.757 Y94.845 E11.20363
G1 X119.392 Y94.779 E11.23017
G1 X120.044 Y94.665 E11.25769
G1 X120.665 Y94.511 E11.28429
G1 X121.285 Y94.312 E11.31136
G1 X121.885 Y94.073 E11.33822
G1 X122.473 Y93.790 E11.36535
G1 X123.035 Y93.469 E11.39225
G1 X123.572 Y93.112 E11.41906
G1 X124.080 Y92.722 E11.44569
G1 X124.580 Y92.279 E11.47346
G1 X125.025 Y91.826 E11.49986
G1 X125.458 Y91.319 E11.52758
G1 X125.837 Y90.809 E11.55400
G1 X126.183 Y90.269 E11.58066
G1 X126.505 Y89.682 E11.60850
G1 X126.770 Y89.105 E11.63490
G1 X126.998 Y88.504 E11.66162
G1 X127.188 Y87.873 E11.68902
G1 X127.334 Y87.235 E11.71623
G1 X127.432 Y86.608 E11.74261
G1 X127.488 Y85.956 E11.76982
G1 X127.500 Y85.299 E11.79714
G1 X127.467 Y84.664 E11.82358
G1 X127.387 Y84.002 E11.85130
G1 X127.269 Y83.388 E11.87729
G1 X127.098 Y82.742 E11.90508
G1 X126.895 Y82.145 E11.93129
G1 X126.639 Y81.537 E11.95872
G1 X126.347 Y80.955 E11.98579
G1 X126.020 Y80.402 E12.01250
G1 X125.651 Y79.869 E12.03945
G1 X125.232 Y79.344 E12.06738
G1 X124.813 Y78.887 E12.09316
G1 X124.338 Y78.436 E12.12039
G1 X123.835 Y78.021 E12.14750
G1 X123.307 Y77.642 E12.17452
G1 X122.752 Y77.300 E12.20162
G1 X122.178 Y76.999 E12.22857
G1 X121.597 Y76.744 E12.25495
G1 X120.974 Y76.519 E12.28249
G1 X120.351 Y76.343 E12.30940
G1 X119.711 Y76.208 E12.33660
G1 X119.088 Y76.122 E12.36274
G1 X118.420 Y76.075 E12.39058
G1 X117.786 Y76.075 E12.41694
G1 X117.118 Y76.122 E12.44478
G1 X116.495 Y76.208 E12.47093
G1 X115.855 Y76.343 E12.49812
G1 X115.232 Y76.519 E12.52504
G1 X114.609 Y76.744 E12.55258
G1 X114.028 Y76.999 E12.57896
G1 X113.451 Y77.302 E12.60605
G1 X112.900 Y77.642 E12.63297
G1 X112.374 Y78.018 E12.65985
G1 X111.868 Y78.436 E12.68714
G1 X111.393 Y78.887 E12.71437
G1 X110.974 Y79.344 E12.74015
G1 X110.553 Y79.872 E12.76822
G0 F12000 X110.149 Y79.575
G1 F1800 X109.773 Y80.121 E12.79578
G1 X109.415 Y80.724 E12.82494
G1 X109.113 Y81.324 E12.85287
G1 X108.846 Y81.961 E12.88158
G1 X108.629 Y82.602 E12.90972
G1 X108.450 Y83.276 E12.93871
G1 X108.323 Y83.935 E12.96661
G1 X108.241 Y84.607 E12.99476
G1 X108.206 Y85.297 E13.02348
G1 X108.218 Y85.979 E13.05184
G1 X108.277 Y86.670 E13.08067
G1 X108.381 Y87.336 E13.10870
G1 X108.533 Y88.002 E13.13710
G1 X108.734 Y88.664 E13.16586
G1 X108.971 Y89.291 E13.19373
G1 X109.261 Y89.918 E13.22245
G1 X109.586 Y90.513 E13.25064
G1 X109.958 Y91.095 E13.27936
G1 X110.368 Y91.646 E13.30791
G1 X110.810 Y92.162 E13.33616
G1 X111.284 Y92.645 E13.36429
G1 X111.796 Y93.098 E13.39271
G1 X112.342 Y93.519 E13.42138
G1 X112.903 Y93.892 E13.44939
G1 X113.504 Y94.234 E13.47814
G1 X114.128 Y94.534 E13.50692
G1 X114.745 Y94.780 E13.53454
G1 X115.404 Y94.992 E13.56332
G1 X116.071 Y95.157 E13.59188
G1 X116.733 Y95.272 E13.61982
G1 X117.425 Y95.344 E13.64875
G1 X118.103 Y95.368 E13.67695
G1 X118.781 Y95.344 E13.70516
G1 X119.473 Y95.272 E13.73408
G1 X120.135 Y95.157 E13.76202
G1 X120.807 Y94.991 E13.79079
G1 X121.453 Y94.784 E13.81900
G1 X122.083 Y94.532 E13.84721
G1 X122.702 Y94.234 E13.87577
G1 X123.303 Y93.892 E13.90452
G1 X123.864 Y93.519 E13.93253
G1 X124.410 Y93.098 E13.96119
G1 X124.915 Y92.651 E13.98923
G1 X125.394 Y92.164 E14.01763
G1 X125.846 Y91.635 E14.04656
G1 X126.253 Y91.087 E14.07494
G1 X126.619 Y90.516 E14.10314
G1 X126.945 Y89.920 E14.13138
G1 X127.235 Y89.291 E14.16018
G1 X127.472 Y88.664 E14.18804
G1 X127.673 Y88.002 E14.21681
G1 X127.825 Y87.336 E14.24521
G1 X127.929 Y86.670 E14.27323
G1 X127.988 Y85.979 E14.30206
G1 X128.000 Y85.297 E14.33042
G1 X127.965 Y84.607 E14.35915
G1 X127.883 Y83.935 E14.38729
G1 X127.756 Y83.276 E14.41520
G1 X127.577 Y82.602 E14.44419
G1 X127.360 Y81.961 E14.47232
G1 X127.093 Y81.324 E14.50104
G1 X126.790 Y80.722 E14.52906
G1 X126.433 Y80.120 E14.55816
G1 X126.060 Y79.579 E14.58548
G1 X125.624 Y79.033 E14.61453
G1 X125.159 Y78.526 E14.64313
G1 X124.662 Y78.054 E14.67162
G1 X124.139 Y77.622 E14.69983
G1 X123.593 Y77.231 E14.72775
G1 X123.000 Y76.866 E14.75670
G1 X122.394 Y76.547 E14.78517
G1 X121.779 Y76.277 E14.81309
G1 X121.130 Y76.043 E14.84178
G1 X120.476 Y75.858 E14.87003
G1 X119.796 Y75.716 E14.89891
G1 X119.134 Y75.623 E14.92671
G1 X118.440 Y75.575 E14.95563
G1 X117.766 Y75.575 E14.98365
G1 X117.072 Y75.623 E15.01257
G1 X116.410 Y75.716 E15.04037
G1 X115.730 Y75.858 E15.06925
G1 X115.076 Y76.043 E15.09750
G1 X114.427 Y76.277 E15.12619
G1 X113.812 Y76.547 E15.15411
G1 X113.202 Y76.868 E15.18277
G1 X112.620 Y77.227 E15.21120
G1 X112.064 Y77.625 E15.23963
G1 X111.544 Y78.054 E15.26765
G1 X111.047 Y78.526 E15.29615
G1 X110.582 Y79.033 E15.32475
G1 X110.149 Y79.575 E15.35359
G0 F12000 X109.753 Y79.270
G1 F1800 X109.345 Y79.861 E15.38345
G1 X108.979 Y80.479 E15.41331
G1 X108.660 Y81.112 E15.44278
G1 X108.379 Y81.782 E15.47299
G1 X108.145 Y82.471 E15.50324
G1 X107.963 Y83.157 E15.53275
G1 X107.830 Y83.850 E15.56208
G1 X107.741 Y84.579 E15.59262
G1 X107.706 Y85.280 E15.62180
G1 X107.718 Y86.016 E15.65240
G1 X107.779 Y86.717 E15.68166
G1 X107.890 Y87.427 E15.71153
G1 X108.053 Y88.140 E15.74194
G1 X108.255 Y88.811 E15.77107
G1 X108.515 Y89.495 E15.80150
G1 X108.814 Y90.144 E15.83121
G1 X109.156 Y90.769 E15.86083
G1 X109.544 Y91.377 E15.89081
G1 X109.969 Y91.947 E15.92037
G1 X110.449 Y92.507 E15.95104
G1 X110.934 Y93.002 E15.97985
G1 X111.482 Y93.488 E16.01030
G1 X112.050 Y93.925 E16.04009
G1 X112.652 Y94.325 E16.07014
G1 X113.268 Y94.676 E16.09962
G1 X113.914 Y94.987 E16.12943
G1 X114.582 Y95.253 E16.15932
G1 X115.276 Y95.476 E16.18963
G1 X115.963 Y95.646 E16.21905
G1 X116.670 Y95.769 E16.24889
G1 X117.384 Y95.843 E16.27873
G1 X118.103 Y95.868 E16.30864
G1 X118.822 Y95.843 E16.33855
G1 X119.536 Y95.769 E16.36840
G1 X120.243 Y95.646 E16.39823
G1 X120.935 Y95.475 E16.42787
G1 X121.616 Y95.256 E16.45761
G1 X122.297 Y94.984 E16.48809
G1 X122.938 Y94.676 E16.51766
G1 X123.554 Y94.325 E16.54714
G1 X124.156 Y93.925 E16.57719
G1 X124.724 Y93.488 E16.60698
G1 X125.265 Y93.009 E16.63702
G1 X125.772 Y92.493 E16.66710
G1 X126.232 Y91.954 E16.69656
G1 X126.660 Y91.379 E16.72636
G1 X127.055 Y90.762 E16.75682
G1 X127.389 Y90.151 E16.78577
G1 X127.694 Y89.489 E16.81607
G1 X127.951 Y88.811 E16.84622
G1 X128.153 Y88.140 E16.87535
G1 X128.316 Y87.427 E16.90576
G1 X128.427 Y86.717 E16.93563
G1 X128.488 Y86.016 E16.96489
G1 X128.500 Y85.280 E16.99549
G1 X128.465 Y84.579 E17.02467
G1 X128.376 Y83.850 E17.05521
G1 X128.243 Y83.157 E17.08454
G1 X128.061 Y82.471 E17.11405
G1 X127.827 Y81.782 E17.14430
G1 X127.546 Y81.112 E17.17451
G1 X127.224 Y80.472 E17.20430
G1 X126.864 Y79.864 E17.23367
G1 X126.455 Y79.273 E17.26355
G1 X126.002 Y78.706 E17.29373
G1 X125.519 Y78.178 E17.32348
G1 X125.002 Y77.687 E17.35312
G1 X124.442 Y77.225 E17.38330
G1 X123.863 Y76.810 E17.41292
G1 X123.254 Y76.434 E17.44268
G1 X122.616 Y76.099 E17.47263
G1 X121.957 Y75.810 E17.50255
G1 X121.283 Y75.567 E17.53234
G1 X120.584 Y75.369 E17.56254
G1 X119.895 Y75.225 E17.59181
G1 X119.179 Y75.125 E17.62186
G1 X118.461 Y75.075 E17.65179
G1 X117.745 Y75.075 E17.68155
G1 X117.027 Y75.125 E17.71148
G1 X116.311 Y75.225 E17.74153
G1 X115.622 Y75.369 E17.77080
G1 X114.923 Y75.567 E17.80100
G1 X114.249 Y75.810 E17.83079
G1 X113.590 Y76.099 E17.86071
G1 X112.953 Y76.434 E17.89063
G1 X112.347 Y76.808 E17.92024
G1 X111.761 Y77.227 E17.95019
G1 X111.204 Y77.687 E17.98022
G1 X110.687 Y78.178 E18.00986
G1 X110.204 Y78.706 E18.03961
G1 X109.753 Y79.270 E18.06964
G0 F12000 X109.350 Y78.973
G1 F1800 X108.928 Y79.585 E18.10054
G1 X108.539 Y80.239 E18.13218
G1 X108.205 Y80.905 E18.16316
G1 X107.909 Y81.610 E18.19495
G1 X107.670 Y82.313 E18.22582
G1 X107.475 Y83.049 E18.25747
G1 X107.336 Y83.770 E18.28800
G1 X107.243 Y84.535 E18.32004
G1 X107.205 Y85.277 E18.35093
G1 X107.219 Y86.039 E18.38261
G1 X107.282 Y86.779 E18.41349
G1 X107.399 Y87.528 E18.44501
G1 X107.565 Y88.255 E18.47601
G1 X107.786 Y88.983 E18.50764
G1 X108.050 Y89.681 E18.53867
G1 X108.365 Y90.365 E18.56997
G1 X108.727 Y91.026 E18.60131
G1 X109.128 Y91.654 E18.63228
G1 X109.582 Y92.264 E18.66390
G1 X110.079 Y92.845 E18.69569
G1 X110.591 Y93.366 E18.72606
G1 X111.169 Y93.879 E18.75819
G1 X111.758 Y94.332 E18.78908
G1 X112.374 Y94.742 E18.81984
G1 X113.039 Y95.120 E18.85164
G1 X113.712 Y95.444 E18.88270
G1 X114.419 Y95.726 E18.91434
G1 X115.134 Y95.956 E18.94557
G1 X115.858 Y96.135 E18.97658
G1 X116.605 Y96.265 E19.00810
G1 X117.344 Y96.342 E19.03899
G1 X118.103 Y96.368 E19.07056
G1 X118.862 Y96.342 E19.10214
G1 X119.601 Y96.265 E19.13303
G1 X120.348 Y96.135 E19.16455
G1 X121.077 Y95.955 E19.19577
G1 X121.797 Y95.723 E19.22722
G1 X122.482 Y95.450 E19.25788
G1 X123.167 Y95.120 E19.28949
G1 X123.832 Y94.742 E19.32129
G1 X124.448 Y94.332 E19.35206
G1 X125.037 Y93.879 E19.38295
G1 X125.608 Y93.373 E19.41467
G1 X126.141 Y92.830 E19.44630
G1 X126.621 Y92.268 E19.47703
G1 X127.078 Y91.654 E19.50885
G1 X127.480 Y91.026 E19.53985
G1 X127.844 Y90.360 E19.57141
G1 X128.154 Y89.687 E19.60221
G1 X128.420 Y88.983 E19.63350
G1 X128.641 Y88.255 E19.66513
G1 X128.807 Y87.528 E19.69613
G1 X128.924 Y86.779 E19.72765
G1 X128.987 Y86.039 E19.75853
G1 X129.001 Y85.277 E19.79021
G1 X128.963 Y84.535 E19.82110
G1 X128.870 Y83.770 E19.85314
G1 X128.731 Y83.049 E19.88367
G1 X128.536 Y82.313 E19.91533
G1 X128.297 Y81.610 E19.94620
G1 X128.001 Y80.905 E19.97798
G1 X127.663 Y80.232 E20.00930
G1 X127.288 Y79.598 E20.03992
G1 X126.851 Y78.967 E20.07183
G1 X126.381 Y78.378 E20.10316
G1 X125.879 Y77.830 E20.13406
G1 X125.333 Y77.312 E20.16535
G1 X124.754 Y76.834 E20.19656
G1 X124.137 Y76.391 E20.22814
G1 X123.498 Y75.998 E20.25933
G1 X122.831 Y75.648 E20.29065
G1 X122.147 Y75.348 E20.32170
G1 X121.435 Y75.091 E20.35317
G1 X120.708 Y74.885 E20.38459
G1 X119.977 Y74.732 E20.41564
G1 X119.225 Y74.627 E20.44720
G1 X118.482 Y74.575 E20.47817
G1 X117.724 Y74.575 E20.50968
G1 X116.981 Y74.627 E20.54065
G1 X116.229 Y74.732 E20.57222
G1 X115.498 Y74.885 E20.60327
G1 X114.771 Y75.091 E20.63468
G1 X114.059 Y75.348 E20.66615
G1 X113.375 Y75.648 E20.69720
G1 X112.704 Y76.000 E20.72871
G1 X112.067 Y76.393 E20.75983
G1 X111.458 Y76.829 E20.79096
G1 X110.873 Y77.312 E20.82250
G1 X110.327 Y77.830 E20.85380
G1 X109.825 Y78.378 E20.88469
G1 X109.350 Y78.973 E20.91635
G0 F12000 X108.955 Y78.666
G1 F1800 X108.504 Y79.320 E20.94937
G1 X108.097 Y80.005 E20.98250
G1 X107.752 Y80.693 E21.01450
G1 X107.441 Y81.434 E21.04791
G1 X107.193 Y82.163 E21.07992
G1 X106.987 Y82.940 E21.11334
G1 X106.841 Y83.696 E21.14536
G1 X106.746 Y84.477 E21.17807
G1 X106.705 Y85.280 E21.21149
G1 X106.719 Y86.061 E21.24397
G1 X106.785 Y86.834 E21.27622
G1 X106.906 Y87.611 E21.30892
G1 X107.085 Y88.395 E21.34235
G1 X107.308 Y89.132 E21.37436
G1 X107.591 Y89.879 E21.40757
G1 X107.922 Y90.597 E21.44044
G1 X108.293 Y91.274 E21.47254
G1 X108.725 Y91.950 E21.50589
G1 X109.185 Y92.569 E21.53796
G1 X109.708 Y93.180 E21.57139
G1 X110.247 Y93.730 E21.60341
G1 X110.847 Y94.261 E21.63672
G1 X111.466 Y94.738 E21.66921
G1 X112.114 Y95.169 E21.70157
G1 X112.810 Y95.565 E21.73486
G1 X113.507 Y95.901 E21.76703
G1 X114.243 Y96.195 E21.79998
G1 X114.992 Y96.436 E21.83269
G1 X115.766 Y96.627 E21.86583
G1 X116.525 Y96.759 E21.89786
G1 X117.319 Y96.841 E21.93105
G1 X118.103 Y96.869 E21.96367
G1 X118.887 Y96.841 E21.99628
G1 X119.681 Y96.759 E22.02947
G1 X120.440 Y96.627 E22.06150
G1 X121.220 Y96.434 E22.09490
G1 X121.960 Y96.196 E22.12722
G1 X122.699 Y95.901 E22.16030
G1 X123.396 Y95.565 E22.19247
G1 X124.092 Y95.169 E22.22576
G1 X124.740 Y94.738 E22.25812
G1 X125.359 Y94.261 E22.29061
G1 X125.959 Y93.730 E22.32392
G1 X126.504 Y93.175 E22.35626
G1 X127.013 Y92.580 E22.38881
G1 X127.481 Y91.950 E22.42144
G1 X127.914 Y91.274 E22.45482
G1 X128.288 Y90.591 E22.48719
G1 X128.613 Y89.884 E22.51954
G1 X128.898 Y89.132 E22.55298
G1 X129.121 Y88.395 E22.58499
G1 X129.300 Y87.611 E22.61842
G1 X129.421 Y86.834 E22.65112
G1 X129.487 Y86.061 E22.68337
G1 X129.501 Y85.280 E22.71585
G1 X129.460 Y84.477 E22.74928
G1 X129.365 Y83.696 E22.78199
G1 X129.219 Y82.940 E22.81400
G1 X129.013 Y82.163 E22.84742
G1 X128.765 Y81.434 E22.87943
G1 X128.454 Y80.693 E22.91284
G1 X128.109 Y80.004 E22.94488
G1 X127.708 Y79.327 E22.97759
G1 X127.251 Y78.666 E23.01100
G1 X126.766 Y78.059 E23.04330
G1 X126.232 Y77.476 E23.07617
G1 X125.669 Y76.941 E23.10846
G1 X125.055 Y76.434 E23.14157
G1 X124.417 Y75.976 E23.17422
G1 X123.739 Y75.559 E23.20731
G1 X123.053 Y75.199 E23.23952
G1 X122.330 Y74.881 E23.27236
G1 X121.597 Y74.617 E23.30475
G1 X120.829 Y74.400 E23.33793
G1 X120.062 Y74.239 E23.37051
G1 X119.273 Y74.129 E23.40363
G1 X118.502 Y74.075 E23.43577
G1 X117.704 Y74.075 E23.46894
G1 X116.933 Y74.129 E23.50108
G1 X116.144 Y74.239 E23.53420
G1 X115.377 Y74.400 E23.56678
G1 X114.609 Y74.617 E23.59996
G1 X113.876 Y74.881 E23.63235
G1 X113.153 Y75.199 E23.66519
G1 X112.467 Y75.559 E23.69740
G1 X111.783 Y75.981 E23.73081
G1 X111.157 Y76.429 E23.76281
G1 X110.537 Y76.941 E23.79624
G1 X109.974 Y77.476 E23.82853
G1 X109.440 Y78.059 E23.86140
G1 X108.955 Y78.666 E23.89371
G0 F12000 X101.916 Y69.766
G1 F1800 X128.021 Y65.214 E24.99540
G1 X134.290 Y101.171 E26.51287
G1 X108.185 Y105.723 E27.61457
G1 X101.916 Y69.766 E29.13204
G0 F12000 X101.337 Y69.359
G1 F1800 X128.428 Y64.635 E30.27534
G1 X134.869 Y101.578 E31.83442
G1 X107.778 Y106.302 E32.97773
G1 X101.337 Y69.359 E34.53681
G0 F12000 X100.759 Y68.952
G1 F1800 X128.835 Y64.057 E35.72169
G1 X135.447 Y101.985 E37.32233
G1 X107.371 Y106.880 E38.50720
G1 X100.759 Y68.952 E40.10785
G0 F12000 X100.180 Y68.546
G1 F1800 X129.241 Y63.478 E41.33430
G1 X136.026 Y102.391 E42.97652
G1 X106.965 Y107.459 E44.20297
G1 X100.180 Y68.546 E45.84520
G0 F12000 X99.602 Y68.139
G1 F1800 X129.648 Y62.900 E47.11321
G1 X136.604 Y102.798 E48.79700
G1 X106.558 Y108.037 E50.06501
G1 X99.602 Y68.139 E51.74880
G0 F12000 X99.022 Y67.732
G1 F1800 X130.055 Y62.322 E53.05846
G1 X136.555 Y99.608 E54.63201
G1 X137.184 Y103.205 E54.78383
G1 X106.151 Y108.615 E56.09349
G1 X99.651 Y71.328 E57.66708
G1 X99.022 Y67.732 E57.81885
G0 F12000 X98.444 Y67.326
G1 F1800 X126.619 Y62.413 E59.00791
G1 X126.619 Y62.414 E59.00795
G1 X130.461 Y61.742 E59.17011
G1 X137.048 Y99.523 E60.76455
G1 X137.047 Y99.523 E60.76460
G1 X137.762 Y103.611 E60.93714
G1 X109.587 Y108.524 E62.12619
G1 X109.587 Y108.523 E62.12623
G1 X105.745 Y109.195 E62.28839
G1 X99.158 Y71.414 E63.88284
G1 X99.159 Y71.414 E63.88288
G1 X98.444 Y67.326 E64.05542
G0 F12000 X97.865 Y66.919
G1 F1800 X126.532 Y61.921 E65.26523
G1 X130.868 Y61.163 E65.44823
G1 X137.540 Y99.435 E67.06340
G1 X138.341 Y104.018 E67.25682
G1 X109.674 Y109.016 E68.46664
G1 X105.338 Y109.774 E68.64964
G1 X98.666 Y71.500 E70.26489
G1 X97.865 Y66.919 E70.45823
G0 F12000 X97.287 Y66.512
G1 F1800 X126.445 Y61.428 E71.68877
G1 X131.275 Y60.585 E71.89261
G1 X138.033 Y99.349 E73.52854
G1 X138.919 Y104.425 E73.74277
G1 X109.761 Y109.509 E74.97330
G1 X104.931 Y110.352 E75.17715
G1 X98.173 Y71.586 E76.81316
G1 X97.287 Y66.512 E77.02730
G0 F12000 X96.708 Y66.106
G1 F1800 X126.359 Y60.936 E78.27865
G1 X131.681 Y60.006 E78.50326
G1 X138.525 Y99.263 E80.16000
G1 X139.498 Y104.831 E80.39499
G1 X109.847 Y110.001 E81.64634
G1 X104.525 Y110.931 E81.87095
G1 X97.681 Y71.672 E83.52777
G1 X96.708 Y66.106 E83.76269
G0 F12000 X174.082 Y62.613
G1 F1800 X233.582 Y62.613 E86.23641
G1 X233.582 Y112.113 E88.29438
G1 X174.082 Y112.113 E90.76810
G1 X174.082 Y62.613 E92.82607
G0 F12000 X174.582 Y63.113
G1 F1800 X233.082 Y63.113 E95.25822
G1 X233.082 Y111.613 E97.27462
G1 X174.582 Y111.613 E99.70676
G1 X174.582 Y63.113 E101.72316
G0 F12000 X175.082 Y63.613
G1 F1800 X232.582 Y63.613 E104.11373
G1 X232.582 Y111.113 E106.08855
G1 X175.082 Y111.113 E108.47912
G1 X175.082 Y63.613 E110.45395
G0 F12000 X175.582 Y64.113
G1 F1800 X232.082 Y64.113 E112.80294
G1 X232.082 Y110.613 E114.73619
G1 X175.582 Y110.613 E117.08518
G1 X175.582 Y64.113 E119.01843
G0 F12000 X176.082 Y64.613
G1 F1800 X231.582 Y64.613 E121.32585
G1 X231.582 Y110.113 E123.21752
G1 X176.082 Y110.113 E125.52494
G1 X176.082 Y64.613 E127.41661
G0 F12000 X176.582 Y65.113
G1 F1800 X231.082 Y65.113 E129.68246
G1 X231.082 Y109.613 E131.53256
G1 X176.582 Y109.613 E133.79840
G1 X176.582 Y65.113 E135.64850
G0 F12000 X177.082 Y65.613
G1 F1800 X230.582 Y65.613 E137.87277
G1 X230.582 Y109.113 E139.68129
G1 X177.082 Y109.113 E141.90556
G1 X177.082 Y65.613 E143.71408
G0 F12000 X177.582 Y66.113
G1 F1800 X230.082 Y66.113 E145.89678
G1 X230.082 Y108.613 E147.66372
G1 X177.582 Y108.613 E149.84642
G1 X177.582 Y66.113 E151.61336
G0 F12000 X178.082 Y66.613
G1 F1800 X229.582 Y66.613 E153.75448
G1 X229.582 Y108.113 E155.47985
G1 X178.082 Y108.113 E157.62097
G1 X178.082 Y66.613 E159.34634
G0 F12000 X178.582 Y67.113
G1 F1800 X229.082 Y67.113 E161.44589
G1 X229.082 Y107.613 E163.12968
G1 X178.582 Y107.613 E165.22923
G1 X178.582 Y67.113 E166.91302
G1 F2100 E166.51302
G0 F12000 X129.848 Y81.512
;TYPE:WALL-INNER
G1 F2100 E166.91302
G1 F1800 X129.367 Y80.282 E166.96793
G1 X128.983 Y79.517 E167.00352
G1 X128.546 Y78.780 E167.03914
G1 X128.059 Y78.076 E167.07473
G1 X127.525 Y77.407 E167.11032
G1 X126.947 Y76.776 E167.14590
G1 X126.325 Y76.186 E167.18154
G1 X125.666 Y75.641 E167.21709
G1 X124.971 Y75.143 E167.25264
G1 X124.242 Y74.694 E167.28824
G1 X123.483 Y74.296 E167.32387
G1 X122.700 Y73.952 E167.35942
G1 X121.895 Y73.662 E167.39500
G1 X121.070 Y73.428 E167.43065
G1 X120.233 Y73.253 E167.46620
G1 X119.385 Y73.135 E167.50179
G1 X118.531 Y73.075 E167.53739
G1 X117.675 Y73.075 E167.57298
G1 X116.821 Y73.135 E167.60857
G1 X115.973 Y73.253 E167.64416
G1 X115.136 Y73.428 E167.67972
G1 X114.311 Y73.662 E167.71537
G1 X113.506 Y73.952 E167.75094
G1 X112.723 Y74.296 E167.78650
G1 X111.964 Y74.694 E167.82213
G1 X111.236 Y75.143 E167.85769
G1 X110.540 Y75.641 E167.89327
G1 X109.881 Y76.186 E167.92882
G1 X109.259 Y76.776 E167.96447
G1 X108.681 Y77.407 E168.00004
G1 X108.146 Y78.077 E168.03569
G1 X107.661 Y78.780 E168.07120
G1 X107.224 Y79.517 E168.10682
G1 X106.839 Y80.282 E168.14242
G1 X106.508 Y81.071 E168.17800
G1 X106.233 Y81.882 E168.21360
G1 X106.013 Y82.709 E168.24918
G1 X105.852 Y83.550 E168.28478
G1 X105.748 Y84.400 E168.32038
G1 X105.705 Y85.254 E168.35593
G1 X105.713 Y85.724 E168.37547
G1 X103.073 Y70.579 E169.01462
G1 X127.208 Y66.371 E170.03318
G1 X129.848 Y81.512 E170.67217
G1 F2100 E170.27217
G0 F12000 X130.486 Y86.111
G1 F2100 E170.67217
G1 F1800 X130.501 Y85.260 E170.70755
G1 X133.133 Y100.358 E171.34472
G1 X108.998 Y104.566 E172.36327
G1 X106.366 Y89.468 E173.00044
G1 X106.667 Y90.263 E173.03578
G1 X107.026 Y91.041 E173.07141
G1 X107.436 Y91.791 E173.10694
G1 X107.898 Y92.514 E173.14262
G1 X108.409 Y93.200 E173.17818
G1 X108.965 Y93.850 E173.21374
G1 X109.564 Y94.461 E173.24931
G1 X110.205 Y95.029 E173.28492
G1 X110.884 Y95.551 E173.32053
G1 X111.596 Y96.025 E173.35609
G1 X112.340 Y96.449 E173.39169
G1 X113.112 Y96.820 E173.42730
G1 X113.907 Y97.137 E173.46289
G1 X114.721 Y97.399 E173.49844
G1 X115.552 Y97.604 E173.53402
G1 X116.396 Y97.751 E173.56964
G1 X117.247 Y97.840 E173.60521
G1 X118.103 Y97.869 E173.64082
G1 X118.959 Y97.840 E173.67643
G1 X119.810 Y97.751 E173.71200
G1 X120.654 Y97.604 E173.74762
G1 X121.485 Y97.399 E173.78321
G1 X122.300 Y97.137 E173.81880
G1 X123.094 Y96.820 E173.85434
G1 X123.866 Y96.449 E173.88995
G1 X124.610 Y96.025 E173.92555
G1 X125.322 Y95.551 E173.96112
G1 X126.001 Y95.029 E173.99672
G1 X126.642 Y94.461 E174.03233
G1 X127.242 Y93.850 E174.06793
G1 X127.797 Y93.201 E174.10344
G1 X128.308 Y92.514 E174.13903
G1 X128.771 Y91.792 E174.17469
G1 X129.181 Y91.041 E174.21026
G1 X129.539 Y90.263 E174.24587
G1 X129.842 Y89.463 E174.28144
G1 X130.090 Y88.643 E174.31705
G1 X130.281 Y87.809 E174.35262
G1 X130.413 Y86.963 E174.38822
G1 X130.486 Y86.111 E174.42377
G0 F12000 X129.987 Y86.085
;TYPE:WALL-OUTER
G1 F1800 X130.001 Y85.263 E174.45795
G1 X129.959 Y84.443 E174.49209
G1 X129.860 Y83.627 E174.52626
G1 X129.705 Y82.820 E174.56043
G1 X129.494 Y82.027 E174.59454
G1 X129.230 Y81.248 E174.62874
G1 X128.912 Y80.491 E174.66288
G1 X128.544 Y79.757 E174.69701
G1 X128.125 Y79.050 E174.73118
G1 X127.658 Y78.375 E174.76531
G1 X127.145 Y77.732 E174.79951
G1 X126.590 Y77.127 E174.83364
G1 X125.994 Y76.561 E174.86781
G1 X125.361 Y76.038 E174.90195
G1 X124.694 Y75.560 E174.93607
G1 X123.994 Y75.129 E174.97024
G1 X123.266 Y74.747 E175.00442
G1 X122.515 Y74.417 E175.03853
G1 X121.742 Y74.138 E175.07269
G1 X120.951 Y73.914 E175.10687
G1 X120.147 Y73.746 E175.14102
G1 X119.333 Y73.632 E175.17519
G1 X118.514 Y73.575 E175.20933
G1 X117.692 Y73.575 E175.24350
G1 X116.873 Y73.632 E175.27763
G1 X116.059 Y73.746 E175.31181
G1 X115.255 Y73.914 E175.34595
G1 X114.464 Y74.138 E175.38013
G1 X113.691 Y74.417 E175.41430
G1 X112.940 Y74.747 E175.44840
G1 X112.212 Y75.129 E175.48258
G1 X111.513 Y75.560 E175.51673
G1 X110.845 Y76.038 E175.55088
G1 X110.212 Y76.561 E175.58501
G1 X109.616 Y77.127 E175.61919
G1 X109.061 Y77.732 E175.65332
G1 X108.548 Y78.375 E175.68752
G1 X108.082 Y79.050 E175.72162
G1 X107.663 Y79.757 E175.75579
G1 X107.294 Y80.491 E175.78994
G1 X106.976 Y81.248 E175.82408
G1 X106.712 Y82.027 E175.85828
G1 X106.501 Y82.820 E175.89239
G1 X106.346 Y83.627 E175.92656
G1 X106.247 Y84.443 E175.96073
G1 X106.205 Y85.263 E175.99487
G1 X106.219 Y86.085 E176.02905
G1 X106.290 Y86.903 E176.06318
G1 X106.416 Y87.714 E176.09730
G1 X106.599 Y88.515 E176.13146
G1 X106.837 Y89.302 E176.16565
G1 X107.128 Y90.070 E176.19979
G1 X107.473 Y90.816 E176.23396
G1 X107.867 Y91.536 E176.26809
G1 X108.309 Y92.229 E176.30226
G1 X108.800 Y92.888 E176.33643
G1 X109.334 Y93.512 E176.37057
G1 X109.909 Y94.098 E176.40470
G1 X110.524 Y94.643 E176.43887
G1 X111.175 Y95.144 E176.47302
G1 X111.859 Y95.599 E176.50718
G1 X112.573 Y96.006 E176.54134
G1 X113.313 Y96.362 E176.57548
G1 X114.076 Y96.666 E176.60963
G1 X114.858 Y96.918 E176.64379
G1 X115.655 Y97.115 E176.67792
G1 X116.465 Y97.256 E176.71210
G1 X117.282 Y97.341 E176.74625
G1 X118.103 Y97.369 E176.78041
G1 X118.924 Y97.341 E176.81456
G1 X119.741 Y97.256 E176.84871
G1 X120.551 Y97.115 E176.88289
G1 X121.348 Y96.918 E176.91703
G1 X122.131 Y96.666 E176.95122
G1 X122.893 Y96.362 E176.98533
G1 X123.633 Y96.006 E177.01947
G1 X124.347 Y95.599 E177.05364
G1 X125.031 Y95.144 E177.08780
G1 X125.682 Y94.643 E177.12195
G1 X126.297 Y94.098 E177.15611
G1 X126.873 Y93.512 E177.19027
G1 X127.406 Y92.888 E177.22439
G1 X127.897 Y92.230 E177.25853
G1 X128.340 Y91.537 E177.29272
G1 X128.734 Y90.816 E177.32688
G1 X129.078 Y90.070 E177.36103
G1 X129.369 Y89.302 E177.39518
G1 X129.607 Y88.515 E177.42936
G1 X129.790 Y87.714 E177.46352
G1 X129.916 Y86.903 E177.49764
G1 X129.987 Y86.085 E177.53178
G1 F2100 E177.13178
G0 F12000 X133.712 Y100.765
G1 F2100 E177.53178
G1 F1800 X108.591 Y105.145 E178.59195
G1 X102.494 Y70.172 E180.06789
G1 X127.615 Y65.792 E181.12805
G1 X133.712 Y100.765 E182.60399
G0 F12000 X132.500 Y100.292
;TYPE:SKIN
G1 F1800 X132.500 Y97.744 E182.70992
G1 F2100 E182.30992
G0 F12000 X132.000 Y100.379
G1 F2100 E182.70992
G1 F1800 X132.000 Y94.875 E182.93875
G1 F2100 E182.53875
G0 F12000 X131.500 Y92.006
G1 F2100 E182.93875
G1 F1800 X131.500 Y100.466 E183.29048
G0 F12000 X131.000 Y100.553
G1 F1800 X131.000 Y89.137 E183.76510
G0 F12000 X130.000 Y89.540
G1 F1800 X130.000 Y100.728 E184.23024
G0 F12000 X129.500 Y100.815
G1 F1800 X129.500 Y90.767 E184.64799
G0 F12000 X129.000 Y91.737
G1 F1800 X129.000 Y100.902 E185.02903
G0 F12000 X128.500 Y100.989
G1 F1800 X128.500 Y92.539 E185.38034
G0 F12000 X128.000 Y93.221
G1 F1800 X128.000 Y101.076 E185.70691
G0 F12000 X127.500 Y101.163
G1 F1800 X127.500 Y93.816 E186.01236
G0 F12000 X127.000 Y94.344
G1 F1800 X127.000 Y101.251 E186.29952
G0 F12000 X126.500 Y101.338
G1 F1800 X126.500 Y94.819 E186.57055
G0 F12000 X126.000 Y95.250
G1 F1800 X126.000 Y101.425 E186.82728
G0 F12000 X125.500 Y101.512
G1 F1800 X125.500 Y95.635 E187.07162
G0 F12000 X125.000 Y95.975
G1 F1800 X125.000 Y101.599 E187.30543
G0 F12000 X124.500 Y101.686
G1 F1800 X124.500 Y96.289 E187.52982
G0 F12000 X124.000 Y96.574
G1 F1800 X124.000 Y101.774 E187.74601
G0 F12000 X123.500 Y101.861
G1 F1800 X123.500 Y96.819 E187.95563
G0 F12000 X123.000 Y97.045
G1 F1800 X123.000 Y101.948 E188.15947
G0 F12000 X122.500 Y102.035
G1 F1800 X122.500 Y97.244 E188.35866
G0 F12000 X122.000 Y97.417
G1 F1800 X122.000 Y102.122 E188.55427
G0 F12000 X121.500 Y102.210
G1 F1800 X121.500 Y97.575 E188.74697
G0 F12000 X121.000 Y97.699
G1 F1800 X121.000 Y102.297 E188.93813
G0 F12000 X120.500 Y102.384
G1 F1800 X120.500 Y97.808 E189.12838
G0 F12000 X120.000 Y97.895
G1 F1800 X120.000 Y102.471 E189.31863
G1 F2100 E188.91863
G0 F12000 X130.500 Y100.640
G1 F2100 E189.31863
G1 F1800 X130.500 Y87.544 E189.86310
G1 F2100 E189.46310
G0 F12000 X130.500 Y85.035
G1 F2100 E189.86310
G1 F1800 X130.500 Y83.797 E189.91457
G0 F12000 X130.000 Y83.032
G1 F1800 X130.000 Y81.703 E189.96982
G1 F2100 E189.56982
G0 F12000 X129.000 Y79.201
G1 F2100 E189.96982
G1 F1800 X129.000 Y77.665 E190.03368
G0 F12000 X128.500 Y78.405
G1 F1800 X128.500 Y74.798 E190.18364
G1 F2100 E189.78364
G0 F12000 X127.000 Y76.585
G1 F2100 E190.18364
G1 F1800 X127.000 Y66.584 E190.59944
G0 F12000 X126.500 Y66.671
G1 F1800 X126.500 Y76.111 E190.99191
G0 F12000 X126.000 Y75.690
G1 F1800 X126.000 Y66.758 E191.36325
G0 F12000 X125.500 Y66.846
G1 F1800 X125.500 Y75.306 E191.71498
G0 F12000 X125.000 Y74.955
G1 F1800 X125.000 Y66.933 E192.04850
G0 F12000 X124.500 Y67.020
G1 F1800 X124.500 Y74.647 E192.36559
G0 F12000 X124.000 Y74.369
G1 F1800 X124.000 Y67.107 E192.66751
G0 F12000 X123.500 Y67.194
G1 F1800 X123.500 Y74.113 E192.95517
G0 F12000 X123.000 Y73.893
G1 F1800 X123.000 Y67.281 E193.23006
G0 F12000 X122.500 Y67.369
G1 F1800 X122.500 Y73.694 E193.49303
G0 F12000 X122.000 Y73.514
G1 F1800 X122.000 Y67.456 E193.74489
G0 F12000 X121.500 Y67.543
G1 F1800 X121.500 Y73.367 E193.98702
G0 F12000 X121.000 Y73.234
G1 F1800 X121.000 Y67.630 E194.22001
G0 F12000 X120.500 Y67.717
G1 F1800 X120.500 Y73.129 E194.44501
G0 F12000 X120.000 Y73.043
G1 F1800 X120.000 Y67.804 E194.66283
G1 F2100 E194.26283
G0 F12000 X127.500 Y69.063
G1 F2100 E194.66283
G1 F1800 X127.500 Y77.120 E194.99780
G0 F12000 X128.000 Y77.721
G1 F1800 X128.000 Y71.930 E195.23856
G1 F2100 E194.83856
G0 F12000 X119.500 Y72.974
G1 F2100 E195.23856
G1 F1800 X119.500 Y67.892 E195.44984
G0 F12000 X119.000 Y67.979
G1 F1800 X119.000 Y72.932 E195.65577
G0 F12000 X118.500 Y72.900
G1 F1800 X118.500 Y68.066 E195.85674
G0 F12000 X118.000 Y68.153
G1 F1800 X118.000 Y72.900 E196.05410
G0 F12000 X117.500 Y72.912
G1 F1800 X117.500 Y68.240 E196.24834
G0 F12000 X117.000 Y68.328
G1 F1800 X117.000 Y72.947 E196.44037
G0 F12000 X116.500 Y73.003
G1 F1800 X116.500 Y68.415 E196.63112
G0 F12000 X116.000 Y68.502
G1 F1800 X116.000 Y73.073 E196.82116
G0 F12000 X115.500 Y73.173
G1 F1800 X115.500 Y68.589 E197.01174
G0 F12000 X115.000 Y68.676
G1 F1800 X115.000 Y73.285 E197.20336
G0 F12000 X114.500 Y73.427
G1 F1800 X114.500 Y68.763 E197.39727
G0 F12000 X114.000 Y68.851
G1 F1800 X114.000 Y73.589 E197.59425
G0 F12000 X113.500 Y73.769
G1 F1800 X113.500 Y68.938 E197.79510
G0 F12000 X113.000 Y69.025
G1 F1800 X113.000 Y73.984 E198.00127
G0 F12000 X112.500 Y74.216
G1 F1800 X112.500 Y69.112 E198.21347
G0 F12000 X112.000 Y69.199
G1 F1800 X112.000 Y74.478 E198.43295
G0 F12000 X111.500 Y74.775
G1 F1800 X111.500 Y69.286 E198.66115
G0 F12000 X111.000 Y69.374
G1 F1800 X111.000 Y75.097 E198.89909
G0 F12000 X110.500 Y75.455
G1 F1800 X110.500 Y69.461 E199.14829
G0 F12000 X110.000 Y69.548
G1 F1800 X110.000 Y75.861 E199.41075
G0 F12000 X109.500 Y76.307
G1 F1800 X109.500 Y69.635 E199.68814
G0 F12000 X109.000 Y69.722
G1 F1800 X109.000 Y76.801 E199.98245
G0 F12000 X108.500 Y77.354
G1 F1800 X108.500 Y69.810 E200.29610
G0 F12000 X108.000 Y69.897
G1 F1800 X108.000 Y77.981 E200.63219
G0 F12000 X107.500 Y78.709
G1 F1800 X107.500 Y69.984 E200.99493
G0 F12000 X107.000 Y70.071
G1 F1800 X107.000 Y79.574 E201.39002
G0 F12000 X106.500 Y80.638
G1 F1800 X106.500 Y70.158 E201.82573
G0 F12000 X106.000 Y70.245
G1 F1800 X106.000 Y82.077 E202.31765
G0 F12000 X105.500 Y83.486
G1 F1800 X105.500 Y70.333 E202.86448
G0 F12000 X105.000 Y70.420
G1 F1800 X105.000 Y80.617 E203.28843
G1 F2100 E202.88843
G0 F12000 X106.000 Y86.456
G1 F2100 E203.28843
G1 F1800 X106.000 Y88.829 E203.38708
G0 F12000 X106.500 Y89.051
G1 F1800 X106.500 Y89.199 E203.39324
G1 F2100 E202.99324
G0 F12000 X107.000 Y91.357
G1 F2100 E203.39324
G1 F1800 X107.000 Y92.087 E203.42359
G0 F12000 X107.500 Y92.216
G1 F1800 X107.500 Y94.955 E203.53746
G1 F2100 E203.13746
G0 F12000 X108.500 Y93.575
G1 F2100 E203.53746
G1 F1800 X108.500 Y100.692 E203.83335
G1 F2100 E203.43335
G0 F12000 X109.000 Y103.560
G1 F2100 E203.83335
G1 F1800 X109.000 Y94.135 E204.22520
G0 F12000 X109.500 Y94.637
G1 F1800 X109.500 Y104.302 E204.62702
G0 F12000 X110.000 Y104.215
G1 F1800 X110.000 Y95.081 E205.00677
G0 F12000 X110.500 Y95.477
G1 F1800 X110.500 Y104.127 E205.36639
G0 F12000 X111.000 Y104.040
G1 F1800 X111.000 Y95.839 E205.70735
G0 F12000 X111.500 Y96.172
G1 F1800 X111.500 Y103.953 E206.03085
G0 F12000 X112.000 Y103.866
G1 F1800 X112.000 Y96.458 E206.33884
G0 F12000 X112.500 Y96.721
G1 F1800 X112.500 Y103.779 E206.63228
G0 F12000 X113.000 Y103.692
G1 F1800 X113.000 Y96.961 E206.91212
G0 F12000 X113.500 Y97.163
G1 F1800 X113.500 Y103.604 E207.17990
G0 F12000 X114.000 Y103.517
G1 F1800 X114.000 Y97.352 E207.43621
G0 F12000 X114.500 Y97.513
G1 F1800 X114.500 Y103.430 E207.68221
G0 F12000 X115.000 Y103.343
G1 F1800 X115.000 Y97.649 E207.91894
G0 F12000 X115.500 Y97.772
G1 F1800 X115.500 Y103.256 E208.14694
G0 F12000 X116.000 Y103.168
G1 F1800 X116.000 Y97.860 E208.36762
G0 F12000 X116.500 Y97.938
G1 F1800 X116.500 Y103.081 E208.58144
G0 F12000 X117.000 Y102.994
G1 F1800 X117.000 Y97.991 E208.78944
G0 F12000 X117.500 Y98.024
G1 F1800 X117.500 Y102.907 E208.99246
G0 F12000 X118.000 Y102.820
G1 F1800 X118.000 Y98.041 E209.19114
G0 F12000 X118.500 Y98.030
G1 F1800 X118.500 Y102.733 E209.38667
G0 F12000 X119.000 Y102.645
G1 F1800 X119.000 Y98.011 E209.57933
G0 F12000 X119.500 Y97.959
G1 F1800 X119.500 Y102.558 E209.77054
G1 F2100 E209.37054
G0 F12000 X108.000 Y97.824
G1 F2100 E209.77054
G1 F1800 X108.000 Y92.944 E209.97342
G1 F2100 E209.57342
G0 F12000 X104.500 Y77.749
G1 F2100 E209.97342
G1 F1800 X104.500 Y70.507 E210.27451
G0 F12000 X104.000 Y70.594
G1 F1800 X104.000 Y74.880 E210.45270
G1 F2100 E210.05270
G0 F12000 X103.500 Y72.011
G1 F2100 E210.45270
G1 F1800 X103.500 Y70.681 E210.50800
G1 F2100 E210.10800
G0 F12000 X179.582 Y68.113
;TYPE:WALL-INNER
G1 F2100 E210.50800
G1 F1800 X228.082 Y68.113 E212.52439
G1 X228.082 Y106.613 E214.12504
G1 X179.582 Y106.613 E216.14143
G1 X179.582 Y68.113 E217.74208
G0 F12000 X179.082 Y67.613
;TYPE:WALL-OUTER
G1 F1800 X228.582 Y67.613 E219.80005
G1 X228.582 Y107.113 E221.44227
G1 X179.082 Y107.113 E223.50024
G1 X179.082 Y67.613 E225.14246
G0 F12000 X180.000 Y68.288
;TYPE:SKIN
G1 F1800 X180.000 Y106.438 E226.72855
G0 F12000 X180.500 Y106.438
G1 F1800 X180.500 Y68.288 E228.31464
G0 F12000 X181.000 Y68.288
G1 F1800 X181.000 Y106.438 E229.90073
G0 F12000 X181.500 Y106.438
G1 F1800 X181.500 Y68.288 E231.48683
G0 F12000 X182.000 Y68.288
G1 F1800 X182.000 Y106.438 E233.07292
G0 F12000 X182.500 Y106.438
G1 F1800 X182.500 Y68.288 E234.65901
G0 F12000 X183.000 Y68.288
G1 F1800 X183.000 Y106.438 E236.24510
G0 F12000 X183.500 Y106.438
G1 F1800 X183.500 Y68.288 E237.83120
G0 F12000 X184.000 Y68.288
G1 F1800 X184.000 Y106.438 E239.41729
G0 F12000 X184.500 Y106.438
G1 F1800 X184.500 Y68.288 E241.00338
G0 F12000 X185.000 Y68.288
G1 F1800 X185.000 Y106.438 E242.58948
G0 F12000 X185.500 Y106.438
G1 F1800 X185.500 Y68.288 E244.17557
G0 F12000 X186.000 Y68.288
G1 F1800 X186.000 Y106.438 E245.76166
G0 F12000 X186.500 Y106.438
G1 F1800 X186.500 Y68.288 E247.34775
G0 F12000 X187.000 Y68.288
G1 F1800 X187.000 Y106.438 E248.93385
G0 F12000 X187.500 Y106.438
G1 F1800 X187.500 Y68.288 E250.51994
G0 F12000 X188.000 Y68.288
G1 F1800 X188.000 Y106.438 E252.10603
G0 F12000 X188.500 Y106.438
G1 F1800 X188.500 Y68.288 E253.69212
G0 F12000 X189.000 Y68.288
G1 F1800 X189.000 Y106.438 E255.27822
G0 F12000 X189.500 Y106.438
G1 F1800 X189.500 Y68.288 E256.86431
G0 F12000 X190.000 Y68.288
G1 F1800 X190.000 Y106.438 E258.45040
G0 F12000 X190.500 Y106.438
G1 F1800 X190.500 Y68.288 E260.03649
G0 F12000 X191.000 Y68.288
G1 F1800 X191.000 Y106.438 E261.62259
G0 F12000 X191.500 Y106.438
G1 F1800 X191.500 Y68.288 E263.20868
G0 F12000 X192.000 Y68.288
G1 F1800 X192.000 Y106.438 E264.79477
G0 F12000 X192.500 Y106.438
G1 F1800 X192.500 Y68.288 E266.38087
G0 F12000 X193.000 Y68.288
G1 F1800 X193.000 Y106.438 E267.96696
G0 F12000 X193.500 Y106.438
G1 F1800 X193.500 Y68.288 E269.55305
G0 F12000 X194.000 Y68.288
G1 F1800 X194.000 Y106.438 E271.13914
G0 F12000 X194.500 Y106.438
G1 F1800 X194.500 Y68.288 E272.72524
G0 F12000 X195.000 Y68.288
G1 F1800 X195.000 Y106.438 E274.31133
G0 F12000 X195.500 Y106.438
G1 F1800 X195.500 Y68.288 E275.89742
G0 F12000 X196.000 Y68.288
G1 F1800 X196.000 Y106.438 E277.48351
G0 F12000 X196.500 Y106.438
G1 F1800 X196.500 Y68.288 E279.06961
G0 F12000 X197.000 Y68.288
G1 F1800 X197.000 Y106.438 E280.65570
G0 F12000 X197.500 Y106.438
G1 F1800 X197.500 Y68.288 E282.24179
G0 F12000 X198.000 Y68.288
G1 F1800 X198.000 Y106.438 E283.82788
G0 F12000 X198.500 Y106.438
G1 F1800 X198.500 Y68.288 E285.41398
G0 F12000 X199.000 Y68.288
G1 F1800 X199.000 Y106.438 E287.00007
G0 F12000 X199.500 Y106.438
G1 F1800 X199.500 Y68.288 E288.58616
G0 F12000 X200.000 Y68.288
G1 F1800 X200.000 Y106.438 E290.17226
G0 F12000 X200.500 Y106.438
G1 F1800 X200.500 Y68.288 E291.75835
G0 F12000 X201.000 Y68.288
G1 F1800 X201.000 Y106.438 E293.34444
G0 F12000 X201.500 Y106.438
G1 F1800 X201.500 Y68.288 E294.93053
G0 F12000 X202.000 Y68.288
G1 F1800 X202.000 Y106.438 E296.51663
G0 F12000 X202.500 Y106.438
G1 F1800 X202.500 Y68.288 E298.10272
G0 F12000 X203.000 Y68.288
G1 F1800 X203.000 Y106.438 E299.68881
G0 F12000 X203.500 Y106.438
G1 F1800 X203.500 Y68.288 E301.27490
G0 F12000 X204.000 Y68.288
G1 F1800 X204.000 Y106.438 E302.86100
G0 F12000 X204.500 Y106.438
G1 F1800 X204.500 Y68.288 E304.44709
G0 F12000 X205.000 Y68.288
G1 F1800 X205.000 Y106.438 E306.03318
G0 F12000 X205.500 Y106.438
G1 F1800 X205.500 Y68.288 E307.61928
G0 F12000 X206.000 Y68.288
G1 F1800 X206.000 Y106.438 E309.20537
G0 F12000 X206.500 Y106.438
G1 F1800 X206.500 Y68.288 E310.79146
G0 F12000 X207.000 Y68.288
G1 F1800 X207.000 Y106.438 E312.37755
G0 F12000 X207.500 Y106.438
G1 F1800 X207.500 Y68.288 E313.96365
G0 F12000 X208.000 Y68.288
G1 F1800 X208.000 Y106.438 E315.54974
G0 F12000 X208.500 Y106.438
G1 F1800 X208.500 Y68.288 E317.13583
G0 F12000 X209.000 Y68.288
G1 F1800 X209.000 Y106.438 E318.72192
G0 F12000 X209.500 Y106.438
G1 F1800 X209.500 Y68.288 E320.30802
G0 F12000 X210.000 Y68.288
G1 F1800 X210.000 Y106.438 E321.89411
G0 F12000 X210.500 Y106.438
G1 F1800 X210.500 Y68.288 E323.48020
G0 F12000 X211.000 Y68.288
G1 F1800 X211.000 Y106.438 E325.06629
G0 F12000 X211.500 Y106.438
G1 F1800 X211.500 Y68.288 E326.65239
G0 F12000 X212.000 Y68.288
G1 F1800 X212.000 Y106.438 E328.23848
G0 F12000 X212.500 Y106.438
G1 F1800 X212.500 Y68.288 E329.82457
G0 F12000 X213.000 Y68.288
G1 F1800 X213.000 Y106.438 E331.41067
G0 F12000 X213.500 Y106.438
G1 F1800 X213.500 Y68.288 E332.99676
G0 F12000 X214.000 Y68.288
G1 F1800 X214.000 Y106.438 E334.58285
G0 F12000 X214.500 Y106.438
G1 F1800 X214.500 Y68.288 E336.16894
G0 F12000 X215.000 Y68.288
G1 F1800 X215.000 Y106.438 E337.75504
G0 F12000 X215.500 Y106.438
G1 F1800 X215.500 Y68.288 E339.34113
G0 F12000 X216.000 Y68.288
G1 F1800 X216.000 Y106.438 E340.92722
G0 F12000 X216.500 Y106.438
G1 F1800 X216.500 Y68.288 E342.51331
G0 F12000 X217.000 Y68.288
G1 F1800 X217.000 Y106.438 E344.09941
G0 F12000 X217.500 Y106.438
G1 F1800 X217.500 Y68.288 E345.68550
G0 F12000 X218.000 Y68.288
G1 F1800 X218.000 Y106.438 E347.27159
G0 F12000 X218.500 Y106.438
G1 F1800 X218.500 Y68.288 E348.85769
G0 F12000 X219.000 Y68.288
G1 F1800 X219.000 Y106.438 E350.44378
G0 F12000 X219.500 Y106.438
G1 F1800 X219.500 Y68.288 E352.02987
G0 F12000 X220.000 Y68.288
G1 F1800 X220.000 Y106.438 E353.61596
G0 F12000 X220.500 Y106.438
G1 F1800 X220.500 Y68.288 E355.20206
G0 F12000 X221.000 Y68.288
G1 F1800 X221.000 Y106.438 E356.78815
G0 F12000 X221.500 Y106.438
G1 F1800 X221.500 Y68.288 E358.37424
G0 F12000 X222.000 Y68.288
G1 F1800 X222.000 Y106.438 E359.96033
G0 F12000 X222.500 Y106.438
G1 F1800 X222.500 Y68.288 E361.54643
G0 F12000 X223.000 Y68.288
G1 F1800 X223.000 Y106.438 E363.13252
G0 F12000 X223.500 Y106.438
G1 F1800 X223.500 Y68.288 E364.71861
G0 F12000 X224.000 Y68.288
G1 F1800 X224.000 Y106.438 E366.30470
G0 F12000 X224.500 Y106.438
G1 F1800 X224.500 Y68.288 E367.89080
G0 F12000 X225.000 Y68.288
G1 F1800 X225.000 Y106.438 E369.47689
G0 F12000 X225.500 Y106.438
G1 F1800 X225.500 Y68.288 E371.06298
G0 F12000 X226.000 Y68.288
G1 F1800 X226.000 Y106.438 E372.64908
G0 F12000 X226.500 Y106.438
G1 F1800 X226.500 Y68.288 E374.23517
G0 F12000 X227.000 Y68.288
G1 F1800 X227.000 Y106.438 E375.82126
G0 F12000 X227.500 Y106.438
G1 F1800 X227.500 Y68.288 E377.40735
;LAYER:1
M106 S15
G1 F2100 E377.00735
G0 F12000 X130.501 Y85.260 Z0.500
;TYPE:WALL-INNER
G1 F2100 E377.40735
G1 F2220 X133.133 Y100.358 E378.36311
G1 X108.998 Y104.566 E379.89094
G1 X106.366 Y89.468 E380.84669
G1 X106.667 Y90.263 E380.89970
G1 X107.026 Y91.041 E380.95314
G1 X107.436 Y91.791 E381.00644
G1 X107.898 Y92.514 E381.05995
G1 X108.408 Y93.200 E381.11326
G1 X108.965 Y93.850 E381.16664
G1 X109.564 Y94.461 E381.22000
G1 X110.205 Y95.029 E381.27341
G1 X110.884 Y95.551 E381.32682
G1 X111.596 Y96.025 E381.38016
G1 X112.340 Y96.449 E381.43357
G1 X113.112 Y96.820 E381.48698
G1 X113.907 Y97.137 E381.54036
G1 X114.721 Y97.399 E381.59369
G1 X115.552 Y97.604 E381.64706
G1 X116.396 Y97.751 E381.70049
G1 X117.247 Y97.840 E381.75385
G1 X118.103 Y97.869 E381.80726
G1 X118.959 Y97.840 E381.86068
G1 X119.810 Y97.751 E381.91404
G1 X120.654 Y97.604 E381.96746
G1 X121.485 Y97.399 E382.02084
G1 X122.300 Y97.137 E382.07423
G1 X123.094 Y96.820 E382.12754
G1 X123.866 Y96.449 E382.18096
G1 X124.610 Y96.025 E382.23436
G1 X125.322 Y95.551 E382.28770
G1 X126.001 Y95.029 E382.34111
G1 X126.642 Y94.461 E382.39453
G1 X127.242 Y93.850 E382.44793
G1 X127.797 Y93.201 E382.50118
G1 X128.309 Y92.513 E382.55467
G1 X128.771 Y91.792 E382.60807
G1 X129.181 Y91.041 E382.66143
G1 X129.539 Y90.263 E382.71484
G1 X129.842 Y89.463 E382.76819
G1 X130.090 Y88.643 E382.82161
G1 X130.281 Y87.809 E382.87497
G1 X130.413 Y86.963 E382.92836
G1 X130.486 Y86.111 E382.98169
G1 X130.501 Y85.260 E383.03477
G1 F2100 E382.63477
G0 F12000 X129.848 Y81.512
G1 F2100 E383.03477
G1 F2220 X129.367 Y80.282 E383.11713
G1 X128.983 Y79.517 E383.17051
G1 X128.546 Y78.780 E383.22395
G1 X128.059 Y78.076 E383.27733
G1 X127.525 Y77.407 E383.33071
G1 X126.947 Y76.776 E383.38408
G1 X126.325 Y76.186 E383.43754
G1 X125.666 Y75.641 E383.49087
G1 X124.971 Y75.143 E383.54419
G1 X124.242 Y74.694 E383.59759
G1 X123.483 Y74.296 E383.65103
G1 X122.700 Y73.952 E383.70437
G1 X121.895 Y73.662 E383.75773
G1 X121.070 Y73.428 E383.81121
G1 X120.233 Y73.253 E383.86453
G1 X119.385 Y73.135 E383.91793
G1 X118.531 Y73.075 E383.97132
G1 X117.675 Y73.075 E384.02470
G1 X116.821 Y73.135 E384.07809
G1 X115.973 Y73.253 E384.13148
G1 X115.136 Y73.428 E384.18481
G1 X114.311 Y73.662 E384.23829
G1 X113.506 Y73.952 E384.29165
G1 X112.723 Y74.296 E384.34498
G1 X111.964 Y74.694 E384.39843
G1 X111.236 Y75.143 E384.45177
G1 X110.540 Y75.641 E384.50514
G1 X109.881 Y76.186 E384.55847
G1 X109.259 Y76.776 E384.61193
G1 X108.681 Y77.407 E384.66530
G1 X108.146 Y78.077 E384.71877
G1 X107.661 Y78.780 E384.77203
G1 X107.224 Y79.517 E384.82546
G1 X106.839 Y80.282 E384.87887
G1 X106.508 Y81.071 E384.93223
G1 X106.233 Y81.882 E384.98564
G1 X106.013 Y82.709 E385.03900
G1 X105.852 Y83.550 E385.09240
G1 X105.748 Y84.400 E385.14581
G1 X105.705 Y85.254 E385.19913
G1 X105.713 Y85.724 E385.22845
G1 X103.073 Y70.579 E386.18717
G1 X127.208 Y66.371 E387.71500
G1 X129.848 Y81.512 E388.67348
G0 F12000 X129.494 Y82.027
;TYPE:WALL-OUTER
G1 F2220 X129.230 Y81.248 E388.72478
G1 X128.912 Y80.491 E388.77598
G1 X128.544 Y79.757 E388.82719
G1 X128.125 Y79.050 E388.87844
G1 X127.658 Y78.375 E388.92963
G1 X127.145 Y77.732 E388.98092
G1 X126.590 Y77.127 E389.03212
G1 X125.994 Y76.561 E389.08338
G1 X125.361 Y76.038 E389.13459
G1 X124.694 Y75.560 E389.18576
G1 X123.994 Y75.129 E389.23703
G1 X123.266 Y74.747 E389.28830
G1 X122.515 Y74.417 E389.33946
G1 X121.742 Y74.138 E389.39071
G1 X120.951 Y73.914 E389.44197
G1 X120.147 Y73.746 E389.49320
G1 X119.333 Y73.632 E389.54446
G1 X118.514 Y73.575 E389.59565
G1 X117.692 Y73.575 E389.64692
G1 X116.873 Y73.632 E389.69812
G1 X116.059 Y73.746 E389.74937
G1 X115.255 Y73.914 E389.80060
G1 X114.464 Y74.138 E389.85187
G1 X113.691 Y74.417 E389.90312
G1 X112.940 Y74.747 E389.95427
G1 X112.212 Y75.129 E390.00554
G1 X111.513 Y75.560 E390.05675
G1 X110.845 Y76.038 E390.10798
G1 X110.212 Y76.561 E390.15919
G1 X109.616 Y77.127 E390.21044
G1 X109.061 Y77.732 E390.26164
G1 X108.548 Y78.375 E390.31294
G1 X108.082 Y79.050 E390.36409
G1 X107.663 Y79.757 E390.41535
G1 X107.294 Y80.491 E390.46658
G1 X106.976 Y81.248 E390.51778
G1 X106.712 Y82.027 E390.56908
G1 X106.501 Y82.820 E390.62025
G1 X106.346 Y83.627 E390.67150
G1 X106.247 Y84.443 E390.72276
G1 X106.205 Y85.263 E390.77396
G1 X106.219 Y86.085 E390.82523
G1 X106.290 Y86.903 E390.87644
G1 X106.416 Y87.714 E390.92762
G1 X106.599 Y88.515 E390.97886
G1 X106.837 Y89.302 E391.03014
G1 X107.128 Y90.070 E391.08135
G1 X107.473 Y90.816 E391.13261
G1 X107.867 Y91.536 E391.18379
G1 X108.309 Y92.229 E391.23505
G1 X108.799 Y92.888 E391.28627
G1 X109.334 Y93.512 E391.33753
G1 X109.909 Y94.098 E391.38873
G1 X110.524 Y94.643 E391.43997
G1 X111.175 Y95.144 E391.49120
G1 X111.859 Y95.599 E391.54243
G1 X112.573 Y96.006 E391.59368
G1 X113.313 Y96.362 E391.64490
G1 X114.076 Y96.666 E391.69612
G1 X114.858 Y96.918 E391.74735
G1 X115.655 Y97.115 E391.79855
G1 X116.465 Y97.256 E391.84983
G1 X117.282 Y97.341 E391.90105
G1 X118.103 Y97.369 E391.95228
G1 X118.924 Y97.341 E392.00351
G1 X119.741 Y97.256 E392.05474
G1 X120.551 Y97.115 E392.10601
G1 X121.348 Y96.918 E392.15721
G1 X122.131 Y96.666 E392.20850
G1 X122.893 Y96.362 E392.25967
G1 X123.633 Y96.006 E392.31088
G1 X124.347 Y95.599 E392.36213
G1 X125.031 Y95.144 E392.41336
G1 X125.682 Y94.643 E392.46459
G1 X126.297 Y94.098 E392.51584
G1 X126.873 Y93.512 E392.56708
G1 X127.406 Y92.888 E392.61826
G1 X127.897 Y92.229 E392.66951
G1 X128.340 Y91.537 E392.72075
G1 X128.734 Y90.816 E392.77199
G1 X129.078 Y90.070 E392.82322
G1 X129.369 Y89.302 E392.87444
G1 X129.607 Y88.515 E392.92571
G1 X129.790 Y87.714 E392.97695
G1 X129.916 Y86.903 E393.02813
G1 X129.987 Y86.085 E393.07934
G1 X130.001 Y85.263 E393.13061
G1 X129.959 Y84.443 E393.18181
G1 X129.860 Y83.627 E393.23307
G1 X129.705 Y82.820 E393.28432
G1 X129.494 Y82.027 E393.33549
G1 F2100 E392.93549
G0 F12000 X127.615 Y65.792
G1 F2100 E393.33549
G1 F2220 X133.712 Y100.765 E395.54940
G1 X108.591 Y105.145 E397.13965
G1 X102.494 Y70.172 E399.35356
G1 X127.615 Y65.792 E400.94381
G0 F12000 X127.140 Y67.000
;TYPE:SKIN
G1 F2220 X124.611 Y67.000 E401.10152
G1 F2100 E400.70152
G0 F12000 X127.227 Y67.500
G1 F2100 E401.10152
G1 F2220 X121.743 Y67.500 E401.44352
G1 F2100 E401.04352
G0 F12000 X118.875 Y68.000
G1 F2100 E401.44352
G1 F2220 X127.314 Y68.000 E401.96980
G0 F12000 X127.402 Y68.500
G1 F2220 X116.007 Y68.500 E402.68042
G1 F2100 E402.28042
G0 F12000 X113.140 Y69.000
G1 F2100 E402.68042
G1 F2220 X127.489 Y69.000 E403.57527
G0 F12000 X127.576 Y69.500
G1 F2220 X110.272 Y69.500 E404.65439
G1 F2100 E404.25439
G0 F12000 X107.404 Y70.000
G1 F2100 E404.65439
G1 F2220 X127.663 Y70.000 E405.91780
G0 F12000 X127.750 Y70.500
G1 F2220 X104.536 Y70.500 E407.36549
G0 F12000 X103.322 Y71.000
G1 F2220 X127.838 Y71.000 E408.89437
G0 F12000 X127.925 Y71.500
G1 F2220 X103.409 Y71.500 E410.42326
G0 F12000 X103.497 Y72.000
G1 F2220 X128.012 Y72.000 E411.95208
G0 F12000 X128.099 Y72.500
G1 F2220 X103.584 Y72.500 E413.48090
G0 F12000 X103.671 Y73.000
G1 F2220 X116.512 Y73.000 E414.28170
G1 F2100 E413.88170
G0 F12000 X114.241 Y73.500
G1 F2100 E414.28170
G1 F2220 X103.758 Y73.500 E414.93545
G0 F12000 X103.845 Y74.000
G1 F2220 X112.959 Y74.000 E415.50383
G0 F12000 X111.954 Y74.500
G1 F2220 X103.932 Y74.500 E416.00410
G0 F12000 X104.020 Y75.000
G1 F2220 X111.133 Y75.000 E416.44769
G0 F12000 X110.434 Y75.500
G1 F2220 X104.107 Y75.500 E416.84226
G0 F12000 X104.194 Y76.000
G1 F2220 X109.829 Y76.000 E417.19367
G0 F12000 X109.294 Y76.500
G1 F2220 X104.281 Y76.500 E417.50629
G0 F12000 X104.368 Y77.000
G1 F2220 X108.814 Y77.000 E417.78356
G0 F12000 X108.381 Y77.500
G1 F2220 X104.455 Y77.500 E418.02840
G0 F12000 X104.542 Y78.000
G1 F2220 X107.985 Y78.000 E418.24311
G0 F12000 X107.640 Y78.500
G1 F2220 X104.630 Y78.500 E418.43082
G0 F12000 X104.717 Y79.000
G1 F2220 X107.325 Y79.000 E418.59346
G0 F12000 X107.035 Y79.500
G1 F2220 X104.804 Y79.500 E418.73260
G1 F2100 E418.33260
G0 F12000 X119.691 Y73.000
G1 F2100 E418.73260
G1 F2220 X128.186 Y73.000 E419.26237
G0 F12000 X128.274 Y73.500
G1 F2220 X121.962 Y73.500 E419.65600
G0 F12000 X123.244 Y74.000
G1 F2220 X128.361 Y74.000 E419.97511
G0 F12000 X128.448 Y74.500
G1 F2220 X124.249 Y74.500 E420.23697
G0 F12000 X125.071 Y75.000
G1 F2220 X128.535 Y75.000 E420.45300
G0 F12000 X128.622 Y75.500
G1 F2220 X125.770 Y75.500 E420.63086
G0 F12000 X126.374 Y76.000
G1 F2220 X128.709 Y76.000 E420.77647
G0 F12000 X128.797 Y76.500
G1 F2220 X126.909 Y76.500 E420.89421
G0 F12000 X127.389 Y77.000
G1 F2220 X128.884 Y77.000 E420.98745
G0 F12000 X128.971 Y77.500
G1 F2220 X127.822 Y77.500 E421.05910
G0 F12000 X128.218 Y78.000
G1 F2220 X129.101 Y78.250 E421.11152
G1 X128.721 Y78.750 E421.14771
G1 X129.201 Y79.250 E421.16976
G1 X129.320 Y79.500 E421.18702
G1 F2100 E420.78702
G0 F12000 X129.744 Y82.000
G1 F2100 E421.18702
G1 F2220 X130.230 Y82.250 E421.21463
G1 X129.935 Y82.750 E421.23932
G1 X130.404 Y83.250 E421.26232
G1 X130.122 Y83.750 E421.28473
G1 X130.578 Y84.250 E421.30837
G1 X130.224 Y84.750 E421.33396
G1 X130.710 Y85.000 E421.36805
G1 F2100 E420.96805
G0 F12000 X130.714 Y87.500
G1 F2100 E421.36805
G1 F2220 X130.461 Y87.750 E421.38100
G1 X130.845 Y88.250 E421.40506
G1 X130.233 Y88.750 E421.44163
G1 X130.976 Y89.000 E421.49052
G0 F12000 X131.063 Y89.500
G1 F2220 X130.013 Y89.500 E421.55600
G0 F12000 X129.826 Y90.000
G1 F2220 X131.150 Y90.000 E421.63857
G0 F12000 X131.237 Y90.500
G1 F2220 X129.622 Y90.500 E421.73928
G0 F12000 X129.392 Y91.000
G1 F2220 X131.324 Y91.000 E421.85977
G0 F12000 X131.412 Y91.500
G1 F2220 X129.129 Y91.500 E422.00214
G0 F12000 X128.844 Y92.000
G1 F2220 X131.499 Y92.000 E422.16772
G0 F12000 X131.586 Y92.500
G1 F2220 X128.524 Y92.500 E422.35867
G0 F12000 X128.164 Y93.000
G1 F2220 X131.673 Y93.000 E422.57750
G0 F12000 X131.760 Y93.500
G1 F2220 X127.770 Y93.500 E422.82633
G0 F12000 X127.337 Y94.000
G1 F2220 X131.847 Y94.000 E423.10758
G0 F12000 X131.934 Y94.500
G1 F2220 X126.846 Y94.500 E423.42489
G0 F12000 X126.295 Y95.000
G1 F2220 X132.022 Y95.000 E423.78204
G0 F12000 X132.109 Y95.500
G1 F2220 X125.674 Y95.500 E424.18334
G0 F12000 X124.962 Y96.000
G1 F2220 X132.196 Y96.000 E424.63447
G0 F12000 X132.283 Y96.500
G1 F2220 X124.128 Y96.500 E425.14304
G0 F12000 X123.111 Y97.000
G1 F2220 X132.370 Y97.000 E425.72046
G0 F12000 X132.457 Y97.500
G1 F2220 X121.740 Y97.500 E426.38880
G1 F2100 E425.98880
G0 F12000 X119.101 Y98.000
G1 F2100 E426.38880
G1 F2220 X132.544 Y98.000 E427.22714
G0 F12000 X132.632 Y98.500
G1 F2220 X108.116 Y98.500 E428.75603
G0 F12000 X108.029 Y98.000
G1 F2220 X117.104 Y98.000 E429.32197
G1 F2100 E428.92197
G0 F12000 X114.465 Y97.500
G1 F2100 E429.32197
G1 F2220 X107.942 Y97.500 E429.72876
G0 F12000 X107.855 Y97.000
G1 F2220 X113.094 Y97.000 E430.05548
G0 F12000 X112.077 Y96.500
G1 F2220 X107.768 Y96.500 E430.32420
G0 F12000 X107.681 Y96.000
G1 F2220 X111.243 Y96.000 E430.54634
G0 F12000 X110.531 Y95.500
G1 F2220 X107.594 Y95.500 E430.72950
G0 F12000 X107.506 Y95.000
G1 F2220 X109.910 Y95.000 E430.87942
G0 F12000 X109.359 Y94.500
G1 F2220 X107.419 Y94.500 E431.00040
G0 F12000 X107.332 Y94.000
G1 F2220 X108.869 Y94.000 E431.09625
G0 F12000 X108.436 Y93.500
G1 F2220 X107.245 Y93.500 E431.17053
G0 F12000 X107.158 Y93.000
G1 F2220 X107.861 Y92.750 E431.22562
G1 X107.027 Y92.250 E431.26358
G1 X107.220 Y91.750 E431.28724
G1 X106.896 Y91.500 E431.31277
G1 F2100 E430.91277
G0 F12000 X106.484 Y89.000
G1 F2100 E431.31277
G1 F2220 X105.984 Y88.750 E431.34114
G1 X106.282 Y88.250 E431.36590
G1 X105.810 Y87.750 E431.38905
G1 X106.090 Y87.250 E431.41157
G1 X105.636 Y86.750 E431.43473
G1 X105.984 Y86.250 E431.46026
G1 X105.506 Y86.000 E431.49390
G1 F2100 E431.09390
G0 F12000 X105.501 Y83.500
G1 F2100 E431.49390
G1 F2220 X105.730 Y83.250 E431.50515
G1 X105.370 Y82.750 E431.52782
G1 X105.952 Y82.250 E431.56256
G1 X105.240 Y82.000 E431.60962
G0 F12000 X105.152 Y81.500
G1 F2220 X106.176 Y81.500 E431.67348
G0 F12000 X106.346 Y81.000
G1 F2220 X105.065 Y81.000 E431.75337
G0 F12000 X104.978 Y80.500
G1 F2220 X106.556 Y80.500 E431.85178
G0 F12000 X106.783 Y80.000
G1 F2220 X104.891 Y80.000 E431.96977
G1 F2100 E431.56977
G0 F12000 X108.204 Y99.000
G1 F2100 E431.96977
G1 F2220 X132.719 Y99.000 E433.49859
G0 F12000 X132.806 Y99.500
G1 F2220 X108.291 Y99.500 E435.02741
G0 F12000 X108.378 Y100.000
G1 F2220 X132.893 Y100.000 E436.55623
G1 F2100 E436.15623
G0 F12000 X131.295 Y100.500
G1 F2100 E436.55623
G1 F2220 X108.465 Y100.500 E437.97998
G0 F12000 X108.552 Y101.000
G1 F2220 X128.427 Y101.000 E439.21944
G1 F2100 E438.81944
G0 F12000 X125.559 Y101.500
G1 F2100 E439.21944
G1 F2220 X108.639 Y101.500 E440.27461
G0 F12000 X108.727 Y102.000
G1 F2220 X122.692 Y102.000 E441.14551
G1 F2100 E440.74551
G0 F12000 X119.824 Y102.500
G1 F2100 E441.14551
G1 F2220 X108.814 Y102.500 E441.83212
G0 F12000 X108.901 Y103.000
G1 F2220 X116.956 Y103.000 E442.33445
G1 F2100 E441.93445
G0 F12000 X114.088 Y103.500
G1 F2100 E442.33445
G1 F2220 X108.988 Y103.500 E442.65251
G0 F12000 X109.075 Y104.000
G1 F2220 X111.220 Y104.000 E442.78627
G1 F2100 E442.38627
G0 F12000 X179.582 Y106.613
;TYPE:WALL-INNER
G1 F2100 E442.78627
G1 F2220 X179.582 Y68.113 E445.18724
G1 X228.082 Y68.113 E448.21183
G1 X228.082 Y106.613 E450.61280
G1 X179.582 Y106.613 E453.63739
G0 F12000 X179.082 Y107.113
;TYPE:WALL-OUTER
G1 F2220 X179.082 Y67.613 E456.10072
G1 X228.582 Y67.613 E459.18768
G1 X228.582 Y107.113 E461.65101
G1 X179.082 Y107.113 E464.73796
G0 F12000 X179.756 Y106.000
;TYPE:SKIN
G1 F2220 X227.906 Y106.000 E467.74073
G0 F12000 X227.906 Y105.500
G1 F2220 X179.756 Y105.500 E470.74350
G0 F12000 X179.756 Y105.000
G1 F2220 X227.906 Y105.000 E473.74626
G0 F12000 X227.906 Y104.500
G1 F2220 X179.756 Y104.500 E476.74903
G0 F12000 X179.756 Y104.000
G1 F2220 X227.906 Y104.000 E479.75180
G0 F12000 X227.906 Y103.500
G1 F2220 X179.756 Y103.500 E482.75456
G0 F12000 X179.756 Y103.000
G1 F2220 X227.906 Y103.000 E485.75733
G0 F12000 X227.906 Y102.500
G1 F2220 X179.756 Y102.500 E488.76009
G0 F12000 X179.756 Y102.000
G1 F2220 X227.906 Y102.000 E491.76286
G0 F12000 X227.906 Y101.500
G1 F2220 X179.756 Y101.500 E494.76563
G0 F12000 X179.756 Y101.000
G1 F2220 X227.906 Y101.000 E497.76839
G0 F12000 X227.906 Y100.500
G1 F2220 X179.756 Y100.500 E500.77116
G0 F12000 X179.756 Y100.000
G1 F2220 X227.906 Y100.000 E503.77393
G0 F12000 X227.906 Y99.500
G1 F2220 X179.756 Y99.500 E506.77669
G0 F12000 X179.756 Y99.000
G1 F2220 X227.906 Y99.000 E509.77946
G0 F12000 X227.906 Y98.500
G1 F2220 X179.756 Y98.500 E512.78223
G0 F12000 X179.756 Y98.000
G1 F2220 X227.906 Y98.000 E515.78499
G0 F12000 X227.906 Y97.500
G1 F2220 X179.756 Y97.500 E518.78776
G0 F12000 X179.756 Y97.000
G1 F2220 X227.906 Y97.000 E521.79053
G0 F12000 X227.906 Y96.500
G1 F2220 X179.756 Y96.500 E524.79329
G0 F12000 X179.756 Y96.000
G1 F2220 X227.906 Y96.000 E527.79606
G0 F12000 X227.906 Y95.500
G1 F2220 X179.756 Y95.500 E530.79883
G0 F12000 X179.756 Y95.000
G1 F2220 X227.906 Y95.000 E533.80159
G0 F12000 X227.906 Y94.500
G1 F2220 X179.756 Y94.500 E536.80436
G0 F12000 X179.756 Y94.000
G1 F2220 X227.906 Y94.000 E539.80713
G0 F12000 X227.906 Y93.500
G1 F2220 X179.756 Y93.500 E542.80989
G0 F12000 X179.756 Y93.000
G1 F2220 X227.906 Y93.000 E545.81266
G0 F12000 X227.906 Y92.500
G1 F2220 X179.756 Y92.500 E548.81543
G0 F12000 X179.756 Y92.000
G1 F2220 X227.906 Y92.000 E551.81819
G0 F12000 X227.906 Y91.500
G1 F2220 X179.756 Y91.500 E554.82096
G0 F12000 X179.756 Y91.000
G1 F2220 X227.906 Y91.000 E557.82373
G0 F12000 X227.906 Y90.500
G1 F2220 X179.756 Y90.500 E560.82649
G0 F12000 X179.756 Y90.000
G1 F2220 X227.906 Y90.000 E563.82926
G0 F12000 X227.906 Y89.500
G1 F2220 X179.756 Y89.500 E566.83203
G0 F12000 X179.756 Y89.000
G1 F2220 X227.906 Y89.000 E569.83479
G0 F12000 X227.906 Y88.500
G1 F2220 X179.756 Y88.500 E572.83756
G0 F12000 X179.756 Y88.000
G1 F2220 X227.906 Y88.000 E575.84033
G0 F12000 X227.906 Y87.500
G1 F2220 X179.756 Y87.500 E578.84309
G0 F12000 X179.756 Y87.000
G1 F2220 X227.906 Y87.000 E581.84586
G0 F12000 X227.906 Y86.500
G1 F2220 X179.756 Y86.500 E584.84862
G0 F12000 X179.756 Y86.000
G1 F2220 X227.906 Y86.000 E587.85139
G0 F12000 X227.906 Y85.500
G1 F2220 X179.756 Y85.500 E590.85416
G0 F12000 X179.756 Y85.000
G1 F2220 X227.906 Y85.000 E593.85692
G0 F12000 X227.906 Y84.500
G1 F2220 X179.756 Y84.500 E596.85969
G0 F12000 X179.756 Y84.000
G1 F2220 X227.906 Y84.000 E599.86246
G0 F12000 X227.906 Y83.500
G1 F2220 X179.756 Y83.500 E602.86522
G0 F12000 X179.756 Y83.000
G1 F2220 X227.906 Y83.000 E605.86799
G0 F12000 X227.906 Y82.500
G1 F2220 X179.756 Y82.500 E608.87076
G0 F12000 X179.756 Y82.000
G1 F2220 X227.906 Y82.000 E611.87352
G0 F12000 X227.906 Y81.500
G1 F2220 X179.756 Y81.500 E614.87629
G0 F12000 X179.756 Y81.000
G1 F2220 X227.906 Y81.000 E617.87906
G0 F12000 X227.906 Y80.500
G1 F2220 X179.756 Y80.500 E620.88182
G0 F12000 X179.756 Y80.000
G1 F2220 X227.906 Y80.000 E623.88459
G0 F12000 X227.906 Y79.500
G1 F2220 X179.756 Y79.500 E626.88736
G0 F12000 X179.756 Y79.000
G1 F2220 X227.906 Y79.000 E629.89012
G0 F12000 X227.906 Y78.500
G1 F2220 X179.756 Y78.500 E632.89289
G0 F12000 X179.756 Y78.000
G1 F2220 X227.906 Y78.000 E635.89566
G0 F12000 X227.906 Y77.500
G1 F2220 X179.756 Y77.500 E638.89842
G0 F12000 X179.756 Y77.000
G1 F2220 X227.906 Y77.000 E641.90119
G0 F12000 X227.906 Y76.500
G1 F2220 X179.756 Y76.500 E644.90396
G0 F12000 X179.756 Y76.000
G1 F2220 X227.906 Y76.000 E647.90672
G0 F12000 X227.906 Y75.500
G1 F2220 X179.756 Y75.500 E650.90949
G0 F12000 X179.756 Y75.000
G1 F2220 X227.906 Y75.000 E653.91226
G0 F12000 X227.906 Y74.500
G1 F2220 X179.756 Y74.500 E656.91502
G0 F12000 X179.756 Y74.000
G1 F2220 X227.906 Y74.000 E659.91779
G0 F12000 X227.906 Y73.500
G1 F2220 X179.756 Y73.500 E662.92056
G0 F12000 X179.756 Y73.000
G1 F2220 X227.906 Y73.000 E665.92332
G0 F12000 X227.906 Y72.500
G1 F2220 X179.756 Y72.500 E668.92609
G0 F12000 X179.756 Y72.000
G1 F2220 X227.906 Y72.000 E671.92886
G0 F12000 X227.906 Y71.500
G1 F2220 X179.756 Y71.500 E674.93162
G0 F12000 X179.756 Y71.000
G1 F2220 X227.906 Y71.000 E677.93439
G0 F12000 X227.906 Y70.500
G1 F2220 X179.756 Y70.500 E680.93716
G0 F12000 X179.756 Y70.000
G1 F2220 X227.906 Y70.000 E683.93992
G0 F12000 X227.906 Y69.500
G1 F2220 X179.756 Y69.500 E686.94269
G0 F12000 X179.756 Y69.000
G1 F2220 X227.906 Y69.000 E689.94545
G0 F12000 X227.906 Y68.500
G1 F2220 X179.756 Y68.500 E692.94822
;LAYER:2
M106 S30
G1 F2100 E692.54822
G0 F12000 X129.848 Y81.512 Z0.800
;TYPE:WALL-INNER
G1 F2100 E692.94822
G1 F2700 X129.367 Y80.282 E693.03058
G1 X128.983 Y79.517 E693.08396
G1 X128.546 Y78.780 E693.13740
G1 X128.059 Y78.076 E693.19078
G1 X127.525 Y77.407 E693.24416
G1 X126.947 Y76.776 E693.29753
G1 X126.325 Y76.186 E693.35099
G1 X125.666 Y75.641 E693.40432
G1 X124.971 Y75.143 E693.45764
G1 X124.242 Y74.694 E693.51104
G1 X123.483 Y74.296 E693.56448
G1 X122.700 Y73.952 E693.61782
G1 X121.895 Y73.662 E693.67118
G1 X121.070 Y73.428 E693.72466
G1 X120.233 Y73.253 E693.77798
G1 X119.385 Y73.135 E693.83138
G1 X118.531 Y73.075 E693.88477
G1 X117.675 Y73.075 E693.93815
G1 X116.821 Y73.135 E693.99154
G1 X115.973 Y73.253 E694.04493
G1 X115.136 Y73.428 E694.09826
G1 X114.311 Y73.662 E694.15174
G1 X113.506 Y73.952 E694.20510
G1 X112.723 Y74.296 E694.25843
G1 X111.964 Y74.694 E694.31188
G1 X111.236 Y75.143 E694.36522
G1 X110.540 Y75.641 E694.41859
G1 X109.881 Y76.186 E694.47192
G1 X109.259 Y76.776 E694.52538
G1 X108.681 Y77.407 E694.57875
G1 X108.146 Y78.077 E694.63222
G1 X107.661 Y78.780 E694.68548
G1 X107.224 Y79.517 E694.73891
G1 X106.839 Y80.282 E694.79232
G1 X106.508 Y81.071 E694.84568
G1 X106.233 Y81.882 E694.89909
G1 X106.013 Y82.709 E694.95245
G1 X105.852 Y83.550 E695.00585
G1 X105.748 Y84.400 E695.05926
G1 X105.705 Y85.254 E695.11258
G1 X105.713 Y85.724 E695.14190
G1 X103.073 Y70.579 E696.10062
G1 X127.208 Y66.371 E697.62845
G1 X129.848 Y81.512 E698.58693
G1 F2100 E698.18693
G0 F12000 X130.486 Y86.111
G1 F2100 E698.58693
G1 F2700 X130.501 Y85.260 E698.64001
G1 X133.133 Y100.358 E699.59576
G1 X108.998 Y104.566 E701.12360
G1 X106.366 Y89.468 E702.07935
G1 X106.667 Y90.263 E702.13236
G1 X107.026 Y91.041 E702.18580
G1 X107.436 Y91.791 E702.23910
G1 X107.897 Y92.513 E702.29252
G1 X108.409 Y93.200 E702.34595
G1 X108.965 Y93.850 E702.39930
G1 X109.564 Y94.461 E702.45266
G1 X110.205 Y95.029 E702.50607
G1 X110.884 Y95.551 E702.55948
G1 X111.596 Y96.025 E702.61282
G1 X112.340 Y96.449 E702.66622
G1 X113.112 Y96.820 E702.71964
G1 X113.907 Y97.137 E702.77301
G1 X114.721 Y97.399 E702.82634
G1 X115.552 Y97.604 E702.87972
G1 X116.396 Y97.751 E702.93315
G1 X117.247 Y97.840 E702.98651
G1 X118.103 Y97.869 E703.03992
G1 X118.959 Y97.840 E703.09333
G1 X119.810 Y97.751 E703.14669
G1 X120.654 Y97.604 E703.20012
G1 X121.485 Y97.399 E703.25350
G1 X122.300 Y97.137 E703.30688
G1 X123.094 Y96.820 E703.36020
G1 X123.866 Y96.449 E703.41361
G1 X124.610 Y96.025 E703.46702
G1 X125.322 Y95.551 E703.52036
G1 X126.001 Y95.029 E703.57377
G1 X126.642 Y94.461 E703.62718
G1 X127.242 Y93.850 E703.68058
G1 X127.798 Y93.200 E703.73393
G1 X128.308 Y92.514 E703.78724
G1 X128.771 Y91.792 E703.84072
G1 X129.181 Y91.041 E703.89408
G1 X129.539 Y90.263 E703.94749
G1 X129.842 Y89.463 E704.00084
G1 X130.090 Y88.643 E704.05427
G1 X130.281 Y87.809 E704.10762
G1 X130.413 Y86.963 E704.16102
G1 X130.486 Y86.111 E704.21435
G0 F12000 X129.987 Y86.085
;TYPE:WALL-OUTER
G1 F2700 X130.001 Y85.263 E704.26562
G1 X129.959 Y84.443 E704.31682
G1 X129.860 Y83.627 E704.36808
G1 X129.705 Y82.820 E704.41933
G1 X129.494 Y82.027 E704.47050
G1 X129.230 Y81.248 E704.52180
G1 X128.912 Y80.491 E704.57300
G1 X128.544 Y79.757 E704.62421
G1 X128.125 Y79.050 E704.67546
G1 X127.658 Y78.375 E704.72665
G1 X127.145 Y77.732 E704.77795
G1 X126.590 Y77.127 E704.82915
G1 X125.994 Y76.561 E704.88040
G1 X125.361 Y76.038 E704.93161
G1 X124.694 Y75.560 E704.98278
G1 X123.994 Y75.129 E705.03405
G1 X123.266 Y74.747 E705.08532
G1 X122.515 Y74.417 E705.13648
G1 X121.742 Y74.138 E705.18773
G1 X120.951 Y73.914 E705.23900
G1 X120.147 Y73.746 E705.29022
G1 X119.333 Y73.632 E705.34148
G1 X118.514 Y73.575 E705.39268
G1 X117.692 Y73.575 E705.44394
G1 X116.873 Y73.632 E705.49514
G1 X116.059 Y73.746 E705.54640
G1 X115.255 Y73.914 E705.59762
G1 X114.464 Y74.138 E705.64889
G1 X113.691 Y74.417 E705.70014
G1 X112.940 Y74.747 E705.75129
G1 X112.212 Y75.129 E705.80256
G1 X111.513 Y75.560 E705.85378
G1 X110.845 Y76.038 E705.90500
G1 X110.212 Y76.561 E705.95621
G1 X109.616 Y77.127 E706.00747
G1 X109.061 Y77.732 E706.05867
G1 X108.548 Y78.375 E706.10996
G1 X108.082 Y79.050 E706.16112
G1 X107.663 Y79.757 E706.21237
G1 X107.294 Y80.491 E706.26360
G1 X106.976 Y81.248 E706.31480
G1 X106.712 Y82.027 E706.36610
G1 X106.501 Y82.820 E706.41727
G1 X106.346 Y83.627 E706.46852
G1 X106.247 Y84.443 E706.51978
G1 X106.205 Y85.263 E706.57099
G1 X106.219 Y86.085 E706.62226
G1 X106.290 Y86.903 E706.67346
G1 X106.416 Y87.714 E706.72464
G1 X106.599 Y88.515 E706.77588
G1 X106.837 Y89.302 E706.82716
G1 X107.128 Y90.070 E706.87837
G1 X107.473 Y90.816 E706.92963
G1 X107.867 Y91.536 E706.98082
G1 X108.309 Y92.229 E707.03208
G1 X108.800 Y92.888 E707.08333
G1 X109.334 Y93.512 E707.13454
G1 X109.909 Y94.098 E707.18574
G1 X110.524 Y94.643 E707.23699
G1 X111.175 Y95.144 E707.28822
G1 X111.859 Y95.599 E707.33945
G1 X112.573 Y96.006 E707.39070
G1 X113.313 Y96.362 E707.44191
G1 X114.076 Y96.666 E707.49313
G1 X114.858 Y96.918 E707.54437
G1 X115.655 Y97.115 E707.59557
G1 X116.465 Y97.256 E707.64684
G1 X117.282 Y97.341 E707.69807
G1 X118.103 Y97.369 E707.74930
G1 X118.924 Y97.341 E707.80053
G1 X119.741 Y97.256 E707.85175
G1 X120.551 Y97.115 E707.90303
G1 X121.348 Y96.918 E707.95423
G1 X122.131 Y96.666 E708.00552
G1 X122.893 Y96.362 E708.05669
G1 X123.633 Y96.006 E708.10790
G1 X124.347 Y95.599 E708.15915
G1 X125.031 Y95.144 E708.21038
G1 X125.682 Y94.643 E708.26161
G1 X126.297 Y94.098 E708.31286
G1 X126.873 Y93.512 E708.36410
G1 X127.407 Y92.888 E708.41532
G1 X127.897 Y92.229 E708.46653
G1 X128.340 Y91.537 E708.51777
G1 X128.734 Y90.816 E708.56901
G1 X129.078 Y90.070 E708.62024
G1 X129.369 Y89.302 E708.67146
G1 X129.607 Y88.515 E708.72273
G1 X129.790 Y87.714 E708.77397
G1 X129.916 Y86.903 E708.82515
G1 X129.987 Y86.085 E708.87636
G1 F2100 E708.47636
G0 F12000 X133.712 Y100.765
G1 F2100 E708.87636
G1 F2700 X108.591 Y105.145 E710.46661
G1 X102.494 Y70.172 E712.68052
G1 X127.615 Y65.792 E714.27076
G1 X133.712 Y100.765 E716.48467
G0 F12000 X132.500 Y100.292
;TYPE:SKIN
G1 F2700 X132.500 Y97.744 E716.64357
G1 F2100 E716.24357
G0 F12000 X132.000 Y100.379
G1 F2100 E716.64357
G1 F2700 X132.000 Y94.875 E716.98682
G1 F2100 E716.58682
G0 F12000 X131.500 Y92.006
G1 F2100 E716.98682
G1 F2700 X131.500 Y100.466 E717.51441
G0 F12000 X131.000 Y100.553
G1 F2700 X131.000 Y89.137 E718.22634
G0 F12000 X130.000 Y89.540
G1 F2700 X130.000 Y100.728 E718.92405
G0 F12000 X129.500 Y100.815
G1 F2700 X129.500 Y90.767 E719.55067
G0 F12000 X129.000 Y91.737
G1 F2700 X129.000 Y100.902 E720.12223
G0 F12000 X128.500 Y100.989
G1 F2700 X128.500 Y92.539 E720.64919
G0 F12000 X128.000 Y93.222
G1 F2700 X128.000 Y101.076 E721.13899
G0 F12000 X127.500 Y101.163
G1 F2700 X127.500 Y93.816 E721.59717
G0 F12000 X127.000 Y94.344
G1 F2700 X127.000 Y101.251 E722.02791
G0 F12000 X126.500 Y101.338
G1 F2700 X126.500 Y94.819 E722.43445
G0 F12000 X126.000 Y95.250
G1 F2700 X126.000 Y101.425 E722.81954
G0 F12000 X125.500 Y101.512
G1 F2700 X125.500 Y95.635 E723.18605
G0 F12000 X125.000 Y95.975
G1 F2700 X125.000 Y101.599 E723.53678
G0 F12000 X124.500 Y101.686
G1 F2700 X124.500 Y96.289 E723.87335
G0 F12000 X124.000 Y96.574
G1 F2700 X124.000 Y101.774 E724.19764
G0 F12000 X123.500 Y101.861
G1 F2700 X123.500 Y96.819 E724.51207
G0 F12000 X123.000 Y97.045
G1 F2700 X123.000 Y101.948 E724.81783
G0 F12000 X122.500 Y102.035
G1 F2700 X122.500 Y97.244 E725.11661
G0 F12000 X122.000 Y97.417
G1 F2700 X122.000 Y102.122 E725.41003
G0 F12000 X121.500 Y102.210
G1 F2700 X121.500 Y97.575 E725.69908
G0 F12000 X121.000 Y97.699
G1 F2700 X121.000 Y102.297 E725.98582
G0 F12000 X120.500 Y102.384
G1 F2700 X120.500 Y97.808 E726.27120
G0 F12000 X120.000 Y97.895
G1 F2700 X120.000 Y102.471 E726.55657
G1 F2100 E726.15657
G0 F12000 X130.500 Y100.640
G1 F2100 E726.55657
G1 F2700 X130.500 Y87.544 E727.37327
G1 F2100 E726.97327
G0 F12000 X130.500 Y85.035
G1 F2100 E727.37327
G1 F2700 X130.500 Y83.797 E727.45048
G0 F12000 X130.000 Y83.032
G1 F2700 X130.000 Y81.703 E727.53336
G1 F2100 E727.13336
G0 F12000 X129.000 Y79.201
G1 F2100 E727.53336
G1 F2700 X129.000 Y77.665 E727.62915
G0 F12000 X128.500 Y78.405
G1 F2700 X128.500 Y74.798 E727.85409
G1 F2100 E727.45409
G0 F12000 X127.000 Y76.585
G1 F2100 E727.85409
G1 F2700 X127.000 Y66.584 E728.47778
G0 F12000 X126.500 Y66.671
G1 F2700 X126.500 Y76.111 E729.06648
G0 F12000 X126.000 Y75.690
G1 F2700 X126.000 Y66.758 E729.62351
G0 F12000 X125.500 Y66.846
G1 F2700 X125.500 Y75.306 E730.15110
G0 F12000 X125.000 Y74.955
G1 F2700 X125.000 Y66.933 E730.65137
G0 F12000 X124.500 Y67.020
G1 F2700 X124.500 Y74.647 E731.12701
G0 F12000 X124.000 Y74.369
G1 F2700 X124.000 Y67.107 E731.57989
G0 F12000 X123.500 Y67.194
G1 F2700 X123.500 Y74.113 E732.01138
G0 F12000 X123.000 Y73.893
G1 F2700 X123.000 Y67.281 E732.42372
G0 F12000 X122.500 Y67.369
G1 F2700 X122.500 Y73.694 E732.81816
G0 F12000 X122.000 Y73.514
G1 F2700 X122.000 Y67.456 E733.19596
G0 F12000 X121.500 Y67.543
G1 F2700 X121.500 Y73.367 E733.55916
G0 F12000 X121.000 Y73.234
G1 F2700 X121.000 Y67.630 E733.90864
G0 F12000 X120.500 Y67.717
G1 F2700 X120.500 Y73.129 E734.24615
G0 F12000 X120.000 Y73.043
G1 F2700 X120.000 Y67.804 E734.57286
G1 F2100 E734.17286
G0 F12000 X127.500 Y69.063
G1 F2100 E734.57286
G1 F2700 X127.500 Y77.120 E735.07532
G0 F12000 X128.000 Y77.721
G1 F2700 X128.000 Y71.930 E735.43646
G1 F2100 E735.03646
G0 F12000 X119.500 Y72.974
G1 F2100 E735.43646
G1 F2700 X119.500 Y67.892 E735.75339
G0 F12000 X119.000 Y67.979
G1 F2700 X119.000 Y72.932 E736.06227
G0 F12000 X118.500 Y72.900
G1 F2700 X118.500 Y68.066 E736.36374
G0 F12000 X118.000 Y68.153
G1 F2700 X118.000 Y72.900 E736.65977
G0 F12000 X117.500 Y72.912
G1 F2700 X117.500 Y68.240 E736.95113
G0 F12000 X117.000 Y68.328
G1 F2700 X117.000 Y72.947 E737.23918
G0 F12000 X116.500 Y73.003
G1 F2700 X116.500 Y68.415 E737.52530
G0 F12000 X116.000 Y68.502
G1 F2700 X116.000 Y73.073 E737.81036
G0 F12000 X115.500 Y73.173
G1 F2700 X115.500 Y68.589 E738.09623
G0 F12000 X115.000 Y68.676
G1 F2700 X115.000 Y73.285 E738.38366
G0 F12000 X114.500 Y73.427
G1 F2700 X114.500 Y68.763 E738.67452
G0 F12000 X114.000 Y68.851
G1 F2700 X114.000 Y73.589 E738.97000
G0 F12000 X113.500 Y73.769
G1 F2700 X113.500 Y68.938 E739.27127
G0 F12000 X113.000 Y69.025
G1 F2700 X113.000 Y73.984 E739.58053
G0 F12000 X112.500 Y74.216
G1 F2700 X112.500 Y69.112 E739.89883
G0 F12000 X112.000 Y69.199
G1 F2700 X112.000 Y74.478 E740.22804
G0 F12000 X111.500 Y74.775
G1 F2700 X111.500 Y69.286 E740.57035
G0 F12000 X111.000 Y69.374
G1 F2700 X111.000 Y75.097 E740.92725
G0 F12000 X110.500 Y75.455
G1 F2700 X110.500 Y69.461 E741.30106
G0 F12000 X110.000 Y69.548
G1 F2700 X110.000 Y75.861 E741.69475
G0 F12000 X109.500 Y76.307
G1 F2700 X109.500 Y69.635 E742.11084
G0 F12000 X109.000 Y69.722
G1 F2700 X109.000 Y76.801 E742.55230
G0 F12000 X108.500 Y77.354
G1 F2700 X108.500 Y69.810 E743.02277
G0 F12000 X108.000 Y69.897
G1 F2700 X108.000 Y77.981 E743.52691
G0 F12000 X107.500 Y78.709
G1 F2700 X107.500 Y69.984 E744.07102
G0 F12000 X107.000 Y70.071
G1 F2700 X107.000 Y79.574 E744.66366
G0 F12000 X106.500 Y80.638
G1 F2700 X106.500 Y70.158 E745.31722
G0 F12000 X106.000 Y70.245
G1 F2700 X106.000 Y82.077 E746.05509
G0 F12000 X105.500 Y83.486
G1 F2700 X105.500 Y70.333 E746.87535
G0 F12000 X105.000 Y70.420
G1 F2700 X105.000 Y80.617 E747.51126
G1 F2100 E747.11126
G0 F12000 X106.000 Y86.456
G1 F2100 E747.51126
G1 F2700 X106.000 Y88.829 E747.65925
G0 F12000 X106.500 Y89.051
G1 F2700 X106.500 Y89.199 E747.66848
G1 F2100 E747.26848
G0 F12000 X107.000 Y91.357
G1 F2100 E747.66848
G1 F2700 X107.000 Y92.087 E747.71401
G0 F12000 X107.500 Y92.217
G1 F2700 X107.500 Y94.955 E747.88476
G1 F2100 E747.48476
G0 F12000 X108.500 Y93.575
G1 F2100 E747.88476
G1 F2700 X108.500 Y100.692 E748.32859
G1 F2100 E747.92859
G0 F12000 X109.000 Y103.560
G1 F2100 E748.32859
G1 F2700 X109.000 Y94.135 E748.91636
G0 F12000 X109.500 Y94.637
G1 F2700 X109.500 Y104.302 E749.51910
G0 F12000 X110.000 Y104.215
G1 F2700 X110.000 Y95.081 E750.08872
G0 F12000 X110.500 Y95.477
G1 F2700 X110.500 Y104.127 E750.62815
G0 F12000 X111.000 Y104.040
G1 F2700 X111.000 Y95.839 E751.13959
G0 F12000 X111.500 Y96.172
G1 F2700 X111.500 Y103.953 E751.62484
G0 F12000 X112.000 Y103.866
G1 F2700 X112.000 Y96.458 E752.08682
G0 F12000 X112.500 Y96.721
G1 F2700 X112.500 Y103.779 E752.52698
G0 F12000 X113.000 Y103.692
G1 F2700 X113.000 Y96.961 E752.94674
G0 F12000 X113.500 Y97.163
G1 F2700 X113.500 Y103.604 E753.34842
G0 F12000 X114.000 Y103.517
G1 F2700 X114.000 Y97.352 E753.73288
G0 F12000 X114.500 Y97.513
G1 F2700 X114.500 Y103.430 E754.10189
G0 F12000 X115.000 Y103.343
G1 F2700 X115.000 Y97.649 E754.45698
G0 F12000 X115.500 Y97.772
G1 F2700 X115.500 Y103.256 E754.79898
G0 F12000 X116.000 Y103.168
G1 F2700 X116.000 Y97.860 E755.13000
G0 F12000 X116.500 Y97.938
G1 F2700 X116.500 Y103.081 E755.45073
G0 F12000 X117.000 Y102.994
G1 F2700 X117.000 Y97.991 E755.76273
G0 F12000 X117.500 Y98.024
G1 F2700 X117.500 Y102.907 E756.06725
G0 F12000 X118.000 Y102.820
G1 F2700 X118.000 Y98.041 E756.36528
G0 F12000 X118.500 Y98.030
G1 F2700 X118.500 Y102.733 E756.65857
G0 F12000 X119.000 Y102.645
G1 F2700 X119.000 Y98.011 E756.94756
G0 F12000 X119.500 Y97.959
G1 F2700 X119.500 Y102.558 E757.23437
G1 F2100 E756.83437
G0 F12000 X108.000 Y97.824
G1 F2100 E757.23437
G1 F2700 X108.000 Y92.944 E757.53870
G1 F2100 E757.13870
G0 F12000 X104.500 Y77.749
G1 F2100 E757.53870
G1 F2700 X104.500 Y70.507 E757.99033
G0 F12000 X104.000 Y70.594
G1 F2700 X104.000 Y74.880 E758.25761
G1 F2100 E757.85761
G0 F12000 X103.500 Y72.011
G1 F2100 E758.25761
G1 F2700 X103.500 Y70.681 E758.34056
G1 F2100 E757.94056
G0 F12000 X179.582 Y68.113
;TYPE:WALL-INNER
G1 F2100 E758.34056
G1 F2700 X228.082 Y68.113 E761.36515
G1 X228.082 Y106.613 E763.76612
G1 X179.582 Y106.613 E766.79071
G1 X179.582 Y68.113 E769.19168
G0 F12000 X179.082 Y67.613
;TYPE:WALL-OUTER
G1 F2700 X228.582 Y67.613 E772.27863
G1 X228.582 Y107.113 E774.74196
G1 X179.082 Y107.113 E777.82892
G1 X179.082 Y67.613 E780.29225
G0 F12000 X180.000 Y68.288
;TYPE:SKIN
G1 F2700 X180.000 Y106.438 E782.67138
G0 F12000 X180.500 Y106.438
G1 F2700 X180.500 Y68.288 E785.05052
G0 F12000 X181.000 Y68.288
G1 F2700 X181.000 Y106.438 E787.42966
G0 F12000 X181.500 Y106.438
G1 F2700 X181.500 Y68.288 E789.80880
G0 F12000 X182.000 Y68.288
G1 F2700 X182.000 Y106.438 E792.18794
G0 F12000 X182.500 Y106.438
G1 F2700 X182.500 Y68.288 E794.56708
G0 F12000 X183.000 Y68.288
G1 F2700 X183.000 Y106.438 E796.94622
G0 F12000 X183.500 Y106.438
G1 F2700 X183.500 Y68.288 E799.32536
G0 F12000 X184.000 Y68.288
G1 F2700 X184.000 Y106.438 E801.70450
G0 F12000 X184.500 Y106.438
G1 F2700 X184.500 Y68.288 E804.08364
G0 F12000 X185.000 Y68.288
G1 F2700 X185.000 Y106.438 E806.46278
G0 F12000 X185.500 Y106.438
G1 F2700 X185.500 Y68.288 E808.84191
G0 F12000 X186.000 Y68.288
G1 F2700 X186.000 Y106.438 E811.22105
G0 F12000 X186.500 Y106.438
G1 F2700 X186.500 Y68.288 E813.60019
G0 F12000 X187.000 Y68.288
G1 F2700 X187.000 Y106.438 E815.97933
G0 F12000 X187.500 Y106.438
G1 F2700 X187.500 Y68.288 E818.35847
G0 F12000 X188.000 Y68.288
G1 F2700 X188.000 Y106.438 E820.73761
G0 F12000 X188.500 Y106.438
G1 F2700 X188.500 Y68.288 E823.11675
G0 F12000 X189.000 Y68.288
G1 F2700 X189.000 Y106.438 E825.49589
G0 F12000 X189.500 Y106.438
G1 F2700 X189.500 Y68.288 E827.87503
G0 F12000 X190.000 Y68.288
G1 F2700 X190.000 Y106.438 E830.25417
G0 F12000 X190.500 Y106.438
G1 F2700 X190.500 Y68.288 E832.63330
G0 F12000 X191.000 Y68.288
G1 F2700 X191.000 Y106.438 E835.01244
G0 F12000 X191.500 Y106.438
G1 F2700 X191.500 Y68.288 E837.39158
G0 F12000 X192.000 Y68.288
G1 F2700 X192.000 Y106.438 E839.77072
G0 F12000 X192.500 Y106.438
G1 F2700 X192.500 Y68.288 E842.14986
G0 F12000 X193.000 Y68.288
G1 F2700 X193.000 Y106.438 E844.52900
G0 F12000 X193.500 Y106.438
G1 F2700 X193.500 Y68.288 E846.90814
G0 F12000 X194.000 Y68.288
G1 F2700 X194.000 Y106.438 E849.28728
G0 F12000 X194.500 Y106.438
G1 F2700 X194.500 Y68.288 E851.66642
G0 F12000 X195.000 Y68.288
G1 F2700 X195.000 Y106.438 E854.04556
G0 F12000 X195.500 Y106.438
G1 F2700 X195.500 Y68.288 E856.42469
G0 F12000 X196.000 Y68.288
G1 F2700 X196.000 Y106.438 E858.80383
G0 F12000 X196.500 Y106.438
G1 F2700 X196.500 Y68.288 E861.18297
G0 F12000 X197.000 Y68.288
G1 F2700 X197.000 Y106.438 E863.56211
G0 F12000 X197.500 Y106.438
G1 F2700 X197.500 Y68.288 E865.94125
G0 F12000 X198.000 Y68.288
G1 F2700 X198.000 Y106.438 E868.32039
G0 F12000 X198.500 Y106.438
G1 F2700 X198.500 Y68.288 E870.69953
G0 F12000 X199.000 Y68.288
G1 F2700 X199.000 Y106.438 E873.07867
G0 F12000 X199.500 Y106.438
G1 F2700 X199.500 Y68.288 E875.45781
G0 F12000 X200.000 Y68.288
G1 F2700 X200.000 Y106.438 E877.83695
G0 F12000 X200.500 Y106.438
G1 F2700 X200.500 Y68.288 E880.21609
G0 F12000 X201.000 Y68.288
G1 F2700 X201.000 Y106.438 E882.59522
G0 F12000 X201.500 Y106.438
G1 F2700 X201.500 Y68.288 E884.97436
G0 F12000 X202.000 Y68.288
G1 F2700 X202.000 Y106.438 E887.35350
G0 F12000 X202.500 Y106.438
G1 F2700 X202.500 Y68.288 E889.73264
G0 F12000 X203.000 Y68.288
G1 F2700 X203.000 Y106.438 E892.11178
G0 F12000 X203.500 Y106.438
G1 F2700 X203.500 Y68.288 E894.49092
G0 F12000 X204.000 Y68.288
G1 F2700 X204.000 Y106.438 E896.87006
G0 F12000 X204.500 Y106.438
G1 F2700 X204.500 Y68.288 E899.24920
G0 F12000 X205.000 Y68.288
G1 F2700 X205.000 Y106.438 E901.62834
G0 F12000 X205.500 Y106.438
G1 F2700 X205.500 Y68.288 E904.00748
G0 F12000 X206.000 Y68.288
G1 F2700 X206.000 Y106.438 E906.38661
G0 F12000 X206.500 Y106.438
G1 F2700 X206.500 Y68.288 E908.76575
G0 F12000 X207.000 Y68.288
G1 F2700 X207.000 Y106.438 E911.14489
G0 F12000 X207.500 Y106.438
G1 F2700 X207.500 Y68.288 E913.52403
G0 F12000 X208.000 Y68.288
G1 F2700 X208.000 Y106.438 E915.90317
G0 F12000 X208.500 Y106.438
G1 F2700 X208.500 Y68.288 E918.28231
G0 F12000 X209.000 Y68.288
G1 F2700 X209.000 Y106.438 E920.66145
G0 F12000 X209.500 Y106.438
G1 F2700 X209.500 Y68.288 E923.04059
G0 F12000 X210.000 Y68.288
G1 F2700 X210.000 Y106.438 E925.41973
G0 F12000 X210.500 Y106.438
G1 F2700 X210.500 Y68.288 E927.79887
G0 F12000 X211.000 Y68.288
G1 F2700 X211.000 Y106.438 E930.17800
G0 F12000 X211.500 Y106.438
G1 F2700 X211.500 Y68.288 E932.55714
G0 F12000 X212.000 Y68.288
G1 F2700 X212.000 Y106.438 E934.93628
G0 F12000 X212.500 Y106.438
G1 F2700 X212.500 Y68.288 E937.31542
G0 F12000 X213.000 Y68.288
G1 F2700 X213.000 Y106.438 E939.69456
G0 F12000 X213.500 Y106.438
G1 F2700 X213.500 Y68.288 E942.07370
G0 F12000 X214.000 Y68.288
G1 F2700 X214.000 Y106.438 E944.45284
G0 F12000 X214.500 Y106.438
G1 F2700 X214.500 Y68.288 E946.83198
G0 F12000 X215.000 Y68.288
G1 F2700 X215.000 Y106.438 E949.21112
G0 F12000 X215.500 Y106.438
G1 F2700 X215.500 Y68.288 E951.59026
G0 F12000 X216.000 Y68.288
G1 F2700 X216.000 Y106.438 E953.96940
G0 F12000 X216.500 Y106.438
G1 F2700 X216.500 Y68.288 E956.34853
G0 F12000 X217.000 Y68.288
G1 F2700 X217.000 Y106.438 E958.72767
G0 F12000 X217.500 Y106.438
G1 F2700 X217.500 Y68.288 E961.10681
G0 F12000 X218.000 Y68.288
G1 F2700 X218.000 Y106.438 E963.48595
G0 F12000 X218.500 Y106.438
G1 F2700 X218.500 Y68.288 E965.86509
G0 F12000 X219.000 Y68.288
G1 F2700 X219.000 Y106.438 E968.24423
G0 F12000 X219.500 Y106.438
G1 F2700 X219.500 Y68.288 E970.62337
G0 F12000 X220.000 Y68.288
G1 F2700 X220.000 Y106.438 E973.00251
G0 F12000 X220.500 Y106.438
G1 F2700 X220.500 Y68.288 E975.38165
G0 F12000 X221.000 Y68.288
G1 F2700 X221.000 Y106.438 E977.76079
G0 F12000 X221.500 Y106.438
G1 F2700 X221.500 Y68.288 E980.13992
G0 F12000 X222.000 Y68.288
G1 F2700 X222.000 Y106.438 E982.51906
G0 F12000 X222.500 Y106.438
G1 F2700 X222.500 Y68.288 E984.89820
G0 F12000 X223.000 Y68.288
G1 F2700 X223.000 Y106.438 E987.27734
G0 F12000 X223.500 Y106.438
G1 F2700 X223.500 Y68.288 E989.65648
G0 F12000 X224.000 Y68.288
G1 F2700 X224.000 Y106.438 E992.03562
G0 F12000 X224.500 Y106.438
G1 F2700 X224.500 Y68.288 E994.41476
G0 F12000 X225.000 Y68.288
G1 F2700 X225.000 Y106.438 E996.79390
G0 F12000 X225.500 Y106.438
G1 F2700 X225.500 Y68.288 E999.17304
G0 F12000 X226.000 Y68.288
G1 F2700 X226.000 Y106.438 E1001.55218
G0 F12000 X226.500 Y106.438
G1 F2700 X226.500 Y68.288 E1003.93132
G0 F12000 X227.000 Y68.288
G1 F2700 X227.000 Y106.438 E1006.31045
G0 F12000 X227.500 Y106.438
G1 F2700 X227.500 Y68.288 E1008.68959
;LAYER:3
M106 S45
G1 F2100 E1008.28959
G0 F12000 X130.501 Y85.260 Z1.100
;TYPE:WALL-INNER
G1 F2100 E1008.68959
G1 F3120 X133.133 Y100.358 E1009.64535
G1 X108.998 Y104.566 E1011.17318
G1 X106.366 Y89.468 E1012.12893
G1 X106.667 Y90.263 E1012.18194
G1 X107.026 Y91.041 E1012.23538
G1 X107.436 Y91.791 E1012.28868
G1 X107.897 Y92.513 E1012.34210
G1 X108.409 Y93.200 E1012.39554
G1 X108.965 Y93.850 E1012.44888
G1 X109.564 Y94.461 E1012.50224
G1 X110.205 Y95.029 E1012.55565
G1 X110.884 Y95.551 E1012.60906
G1 X111.596 Y96.025 E1012.66240
G1 X112.340 Y96.449 E1012.71581
G1 X113.112 Y96.820 E1012.76922
G1 X113.907 Y97.137 E1012.82259
G1 X114.721 Y97.399 E1012.87592
G1 X115.552 Y97.604 E1012.92930
G1 X116.396 Y97.751 E1012.98273
G1 X117.247 Y97.840 E1013.03609
G1 X118.103 Y97.869 E1013.08950
G1 X118.959 Y97.840 E1013.14291
G1 X119.810 Y97.751 E1013.19627
G1 X120.654 Y97.604 E1013.24970
G1 X121.485 Y97.399 E1013.30308
G1 X122.300 Y97.137 E1013.35646
G1 X123.094 Y96.820 E1013.40978
G1 X123.866 Y96.449 E1013.46320
G1 X124.610 Y96.025 E1013.51660
G1 X125.322 Y95.551 E1013.56994
G1 X126.001 Y95.029 E1013.62335
G1 X126.642 Y94.461 E1013.67676
G1 X127.242 Y93.850 E1013.73017
G1 X127.798 Y93.200 E1013.78351
G1 X128.308 Y92.514 E1013.83682
G1 X128.771 Y91.792 E1013.89031
G1 X129.181 Y91.041 E1013.94366
G1 X129.539 Y90.263 E1013.99707
G1 X129.842 Y89.463 E1014.05042
G1 X130.090 Y88.643 E1014.10385
G1 X130.281 Y87.809 E1014.15720
G1 X130.413 Y86.963 E1014.21060
G1 X130.486 Y86.111 E1014.26393
G1 X130.501 Y85.260 E1014.31701
G1 F2100 E1013.91701
G0 F12000 X129.848 Y81.512
G1 F2100 E1014.31701
G1 F3120 X129.367 Y80.282 E1014.39937
G1 X128.983 Y79.517 E1014.45275
G1 X128.546 Y78.780 E1014.50618
G1 X128.059 Y78.076 E1014.55957
G1 X127.525 Y77.407 E1014.61295
G1 X126.947 Y76.776 E1014.66632
G1 X126.325 Y76.186 E1014.71978
G1 X125.666 Y75.641 E1014.77311
G1 X124.971 Y75.143 E1014.82643
G1 X124.242 Y74.694 E1014.87982
G1 X123.483 Y74.296 E1014.93327
G1 X122.700 Y73.952 E1014.98661
G1 X121.895 Y73.662 E1015.03997
G1 X121.070 Y73.428 E1015.09344
G1 X120.233 Y73.253 E1015.14677
G1 X119.385 Y73.135 E1015.20016
G1 X118.531 Y73.075 E1015.25355
G1 X117.675 Y73.075 E1015.30694
G1 X116.821 Y73.135 E1015.36032
G1 X115.973 Y73.253 E1015.41372
G1 X115.136 Y73.428 E1015.46704
G1 X114.311 Y73.662 E1015.52052
G1 X113.506 Y73.952 E1015.57388
G1 X112.723 Y74.296 E1015.62722
G1 X111.964 Y74.694 E1015.68066
G1 X111.236 Y75.143 E1015.73400
G1 X110.540 Y75.641 E1015.78738
G1 X109.881 Y76.186 E1015.84071
G1 X109.259 Y76.776 E1015.89417
G1 X108.681 Y77.407 E1015.94753
G1 X108.146 Y78.077 E1016.00100
G1 X107.661 Y78.780 E1016.05427
G1 X107.224 Y79.517 E1016.10770
G1 X106.839 Y80.282 E1016.16111
G1 X106.508 Y81.071 E1016.21447
G1 X106.233 Y81.882 E1016.26787
G1 X106.013 Y82.709 E1016.32124
G1 X105.852 Y83.550 E1016.37464
G1 X105.748 Y84.400 E1016.42804
G1 X105.705 Y85.254 E1016.48137
G1 X105.713 Y85.724 E1016.51068
G1 X103.073 Y70.579 E1017.46941
G1 X127.208 Y66.371 E1018.99724
G1 X129.848 Y81.512 E1019.95572
G0 F12000 X129.494 Y82.027
;TYPE:WALL-OUTER
G1 F3120 X129.230 Y81.248 E1020.00701
G1 X128.912 Y80.491 E1020.05822
G1 X128.544 Y79.757 E1020.10942
G1 X128.125 Y79.050 E1020.16068
G1 X127.658 Y78.375 E1020.21186
G1 X127.145 Y77.732 E1020.26316
G1 X126.590 Y77.127 E1020.31436
G1 X125.994 Y76.561 E1020.36562
G1 X125.361 Y76.038 E1020.41683
G1 X124.694 Y75.560 E1020.46800
G1 X123.994 Y75.129 E1020.51926
G1 X123.266 Y74.747 E1020.57054
G1 X122.515 Y74.417 E1020.62169
G1 X121.742 Y74.138 E1020.67294
G1 X120.951 Y73.914 E1020.72421
G1 X120.147 Y73.746 E1020.77543
G1 X119.333 Y73.632 E1020.82669
G1 X118.514 Y73.575 E1020.87789
G1 X117.692 Y73.575 E1020.92915
G1 X116.873 Y73.632 E1020.98035
G1 X116.059 Y73.746 E1021.03161
G1 X115.255 Y73.914 E1021.08283
G1 X114.464 Y74.138 E1021.13410
G1 X113.691 Y74.417 E1021.18535
G1 X112.940 Y74.747 E1021.23651
G1 X112.212 Y75.129 E1021.28778
G1 X111.513 Y75.560 E1021.33899
G1 X110.845 Y76.038 E1021.39022
G1 X110.212 Y76.561 E1021.44142
G1 X109.616 Y77.127 E1021.49268
G1 X109.061 Y77.732 E1021.54388
G1 X108.548 Y78.375 E1021.59518
G1 X108.082 Y79.050 E1021.64633
G1 X107.663 Y79.757 E1021.69758
G1 X107.294 Y80.491 E1021.74882
G1 X106.976 Y81.248 E1021.80002
G1 X106.712 Y82.027 E1021.85131
G1 X106.501 Y82.820 E1021.90249
G1 X106.346 Y83.627 E1021.95374
G1 X106.247 Y84.443 E1022.00500
G1 X106.205 Y85.263 E1022.05620
G1 X106.219 Y86.085 E1022.10747
G1 X106.290 Y86.903 E1022.15868
G1 X106.416 Y87.714 E1022.20986
G1 X106.599 Y88.515 E1022.26110
G1 X106.837 Y89.302 E1022.31237
G1 X107.128 Y90.070 E1022.36359
G1 X107.473 Y90.816 E1022.41485
G1 X107.867 Y91.536 E1022.46603
G1 X108.309 Y92.229 E1022.51729
G1 X108.800 Y92.888 E1022.56854
G1 X109.334 Y93.512 E1022.61976
G1 X109.909 Y94.098 E1022.67096
G1 X110.524 Y94.643 E1022.72220
G1 X111.175 Y95.144 E1022.77343
G1 X111.859 Y95.599 E1022.82466
G1 X112.573 Y96.006 E1022.87592
G1 X113.313 Y96.362 E1022.92713
G1 X114.076 Y96.666 E1022.97835
G1 X114.858 Y96.918 E1023.02959
G1 X115.655 Y97.115 E1023.08079
G1 X116.465 Y97.256 E1023.13206
G1 X117.282 Y97.341 E1023.18328
G1 X118.103 Y97.369 E1023.23451
G1 X118.924 Y97.341 E1023.28574
G1 X119.741 Y97.256 E1023.33697
G1 X120.551 Y97.115 E1023.38824
G1 X121.348 Y96.918 E1023.43944
G1 X122.131 Y96.666 E1023.49074
G1 X122.893 Y96.362 E1023.54190
G1 X123.633 Y96.006 E1023.59311
G1 X124.347 Y95.599 E1023.64436
G1 X125.031 Y95.144 E1023.69560
G1 X125.682 Y94.643 E1023.74683
G1 X126.297 Y94.098 E1023.79807
G1 X126.873 Y93.512 E1023.84931
G1 X127.407 Y92.888 E1023.90053
G1 X127.897 Y92.229 E1023.95174
G1 X128.340 Y91.537 E1024.00299
G1 X128.734 Y90.816 E1024.05422
G1 X129.078 Y90.070 E1024.10546
G1 X129.369 Y89.302 E1024.15667
G1 X129.607 Y88.515 E1024.20795
G1 X129.790 Y87.714 E1024.25919
G1 X129.916 Y86.903 E1024.31037
G1 X129.987 Y86.085 E1024.36157
G1 X130.001 Y85.263 E1024.41284
G1 X129.959 Y84.443 E1024.46405
G1 X129.860 Y83.627 E1024.51531
G1 X129.705 Y82.820 E1024.56656
G1 X129.494 Y82.027 E1024.61773
G1 F2100 E1024.21773
G0 F12000 X127.615 Y65.792
G1 F2100 E1024.61773
G1 F3120 X133.712 Y100.765 E1026.83164
G1 X108.591 Y105.145 E1028.42189
G1 X102.494 Y70.172 E1030.63579
G1 X127.615 Y65.792 E1032.22604
G1 F2100 E1031.82604
G0 F12000 X127.707 Y70.257
;TYPE:FILL
G1 F2100 E1032.22604
G1 F3120 X122.039 Y73.529 E1032.63419
G0 F12000 X122.029 Y73.524
G1 F3120 X122.029 Y67.451 E1033.01291
G1 F2100 E1032.61291
G0 F12000 X120.520 Y73.133
G1 F2100 E1033.01291
G1 F3120 X113.311 Y68.971 E1033.53203
G0 F12000 X112.227 Y69.160
G1 F3120 X112.227 Y74.359 E1033.85626
G1 F2100 E1033.45626
G0 F12000 X108.412 Y77.461
G1 F2100 E1033.85626
G1 F3120 X104.005 Y74.916 E1034.17363
G1 F2100 E1033.77363
G0 F12000 X103.642 Y72.832
G1 F2100 E1034.17363
G1 F3120 X109.042 Y69.714 E1034.56249
G1 F2100 E1034.16249
G0 F12000 X105.796 Y82.907
G1 F2100 E1034.56249
G1 F3120 X105.435 Y83.115 E1034.58847
G1 F2100 E1034.18847
G0 F12000 X108.005 Y92.950
G1 F2100 E1034.58847
G1 F3120 X107.228 Y93.398 E1034.64441
G1 F2100 E1034.24441
G0 F12000 X112.227 Y96.587
G1 F2100 E1034.64441
G1 F3120 X112.227 Y103.826 E1035.09585
G1 F2100 E1034.69585
G0 F12000 X114.255 Y103.471
G1 F2100 E1035.09585
G1 F3120 X108.394 Y100.087 E1035.51791
G1 F2100 E1035.11791
G0 F12000 X109.021 Y103.682
G1 F2100 E1035.51791
G1 F3120 X118.829 Y98.019 E1036.22420
G1 F2100 E1035.82420
G0 F12000 X122.029 Y97.408
G1 F2100 E1036.22420
G1 F3120 X122.029 Y102.117 E1036.51786
G1 F2100 E1036.11786
G0 F12000 X122.839 Y97.109
G1 F2100 E1036.51786
G1 F3120 X129.312 Y100.846 E1036.98398
G1 F2100 E1036.58398
G0 F12000 X131.831 Y100.408
G1 F2100 E1036.98398
G1 F3120 X131.831 Y93.905 E1037.38952
G1 F2100 E1036.98952
G0 F12000 X131.292 Y90.823
G1 F2100 E1037.38952
G1 F3120 X128.603 Y92.376 E1037.58318
G1 F2100 E1037.18318
G0 F12000 X129.879 Y89.855
G1 F2100 E1037.58318
G1 F3120 X131.264 Y90.654 E1037.68289
G1 F2100 E1037.28289
G0 F12000 X129.070 Y78.069
G1 F2100 E1037.68289
G1 F3120 X127.583 Y77.211 E1037.78995
G1 F2100 E1037.38995
G0 F12000 X129.744 Y82.000
;TYPE:SKIN
G1 F2100 E1037.78995
G1 F3120 X130.230 Y82.250 E1037.81756
G1 X129.935 Y82.750 E1037.84225
G1 X130.404 Y83.250 E1037.86525
G1 X130.122 Y83.750 E1037.88766
G1 X130.578 Y84.250 E1037.91129
G1 X130.224 Y84.750 E1037.93689
G1 X130.710 Y85.000 E1037.97098
G1 F2100 E1037.57098
G0 F12000 X106.484 Y89.000
G1 F2100 E1037.97098
G1 F3120 X105.984 Y88.750 E1037.99935
G1 X106.282 Y88.250 E1038.02411
G1 X105.810 Y87.750 E1038.04726
G1 X106.090 Y87.250 E1038.06978
G1 X105.636 Y86.750 E1038.09294
G1 X105.984 Y86.250 E1038.11847
G1 X105.506 Y86.000 E1038.15211
G1 F2100 E1037.75211
G0 F12000 X179.582 Y68.113
;TYPE:WALL-INNER
G1 F2100 E1038.15211
G1 F3120 X228.082 Y68.113 E1041.17671
G1 X228.082 Y106.613 E1043.57767
G1 X179.582 Y106.613 E1046.60227
G1 X179.582 Y68.113 E1049.00323
G0 F12000 X179.082 Y67.613
;TYPE:WALL-OUTER
G1 F3120 X228.582 Y67.613 E1052.09019
G1 X228.582 Y107.113 E1054.55352
G1 X179.082 Y107.113 E1057.64047
G1 X179.082 Y67.613 E1060.10380
G1 F2100 E1059.70380
G0 F12000 X179.756 Y73.463
;TYPE:FILL
G1 F2100 E1060.10380
G1 F3120 X227.907 Y101.263 E1063.57117
G1 F2100 E1063.17117
G0 F12000 X227.905 Y96.100
G1 F2100 E1063.57117
G1 F3120 X209.999 Y106.438 E1064.86059
G1 F2100 E1064.46059
G0 F12000 X208.313 Y106.438
G1 F2100 E1064.86059
G1 F3120 X208.313 Y68.288 E1067.23973
G1 F2100 E1066.83973
G0 F12000 X210.000 Y68.288
G1 F2100 E1067.23973
G1 F3120 X227.906 Y78.626 E1068.52914
G1 F2100 E1068.12914
G0 F12000 X227.906 Y73.463
G1 F2100 E1068.52914
G1 F3120 X179.756 Y101.262 E1071.99642
G1 F2100 E1071.59642
