;-- START GCODE --
;Sliced for Type A Machines Series 1
;Sliced at: Wed 25-04-2018 15:40:00
;Basic settings:
; Layer height: 0.3
; Walls: 1
; Fill: 8
; Print Speed: 60
; Support: 0
; Retraction Speed: 35
; Retraction Distance: 0.4
;Print time: 11 minutes
;Filament used: 1.561m 4.0g
;Settings based on: Type A Machines Everyday PLA
G21        ;metric values
G90        ;absolute positioning
G28     ;move to endstops
G29		;allows for auto-levelling
G1 Z15.0 F12000 ;move the platform down 15mm
G1 X150 Y5 F12000 ;center
M140 S55 ;Prep Heat Bed
M109 S220 ;Heat To temp
M190 S55 ;Heat Bed to temp
G1 X150 Y5 Z0.3 ;move the platform to purge extrusion
G92 E0 ;zero the extruded length
G1 F200 X250 E30 ;extrude 30mm of feed stock
G92 E0 ;zero the extruded length again
G1 X150 Y150  Z25 F12000 ;recenter and begin
G1 F12000

;Layer count: 7
;LAYER:0
M107
G0 F12000 X122.412 Y47.299 Z0.200
;TYPE:SKIRT
G1 F1800 X181.911 Y47.299 E2.47368
G1 X181.911 Y96.799 E4.53165
G1 X122.412 Y96.799 E7.00533
G1 X122.412 Y47.299 E9.06330
G0 F12000 X122.912 Y47.799
G1 F1800 X181.411 Y47.799 E11.49541
G1 X181.411 Y96.299 E13.51181
G1 X122.912 Y96.299 E15.94391
G1 X122.912 Y47.799 E17.96031
G0 F12000 X123.412 Y48.299
G1 F1800 X180.911 Y48.299 E20.35084
G1 X180.911 Y95.799 E22.32566
G1 X123.412 Y95.799 E24.71619
G1 X123.412 Y48.299 E26.69101
G0 F12000 X123.912 Y48.799
G1 F1800 X180.411 Y48.799 E29.03996
G1 X180.411 Y95.299 E30.97321
G1 X123.912 Y95.299 E33.32217
G1 X123.912 Y48.799 E35.25541
G0 F12000 X124.412 Y49.299
G1 F1800 X179.911 Y49.299 E37.56279
G1 X179.911 Y94.799 E39.45446
G1 X124.412 Y94.799 E41.76184
G1 X124.412 Y49.299 E43.65351
G0 F12000 X124.912 Y49.799
G1 F1800 X179.411 Y49.799 E45.91932
G1 X179.411 Y94.299 E47.76941
G1 X124.912 Y94.299 E50.03522
G1 X124.912 Y49.799 E51.88531
G0 F12000 X125.412 Y50.299
G1 F1800 X178.911 Y50.299 E54.10954
G1 X178.911 Y93.799 E55.91806
G1 X125.412 Y93.799 E58.14229
G1 X125.412 Y50.299 E59.95081
G0 F12000 X125.912 Y50.799
G1 F1800 X178.411 Y50.799 E62.13347
G1 X178.411 Y93.299 E63.90041
G1 X125.912 Y93.299 E66.08307
G1 X125.912 Y50.799 E67.85001
G0 F12000 X126.412 Y51.299
G1 F1800 X177.911 Y51.299 E69.99109
G1 X177.911 Y92.799 E71.71646
G1 X126.412 Y92.799 E73.85754
G1 X126.412 Y51.299 E75.58291
G0 F12000 X126.912 Y51.799
G1 F1800 X177.411 Y51.799 E77.68241
G1 X177.411 Y92.299 E79.36621
G1 X126.912 Y92.299 E81.46571
G1 X126.912 Y51.799 E83.14951
G0 F12000 X127.912 Y52.799
;TYPE:WALL-INNER
G1 F1800 X176.411 Y52.799 E85.16586
G1 X176.411 Y91.299 E86.76650
G1 X127.912 Y91.299 E88.78286
G1 X127.912 Y52.799 E90.38350
G0 F12000 X127.412 Y52.299
;TYPE:WALL-OUTER
G1 F1800 X176.911 Y52.299 E92.44143
G1 X176.911 Y91.799 E94.08365
G1 X127.412 Y91.799 E96.14158
G1 X127.412 Y52.299 E97.78380
G0 F12000 X128.500 Y52.974
;TYPE:SKIN
G1 F1800 X128.500 Y91.124 E99.36989
G0 F12000 X129.000 Y91.124
G1 F1800 X129.000 Y52.974 E100.95598
G0 F12000 X129.500 Y52.974
G1 F1800 X129.500 Y91.124 E102.54208
G0 F12000 X130.000 Y91.124
G1 F1800 X130.000 Y52.974 E104.12817
G0 F12000 X130.500 Y52.974
G1 F1800 X130.500 Y91.124 E105.71426
G0 F12000 X131.000 Y91.124
G1 F1800 X131.000 Y52.974 E107.30036
G0 F12000 X131.500 Y52.974
G1 F1800 X131.500 Y91.124 E108.88645
G0 F12000 X132.000 Y91.124
G1 F1800 X132.000 Y52.974 E110.47254
G0 F12000 X132.500 Y52.974
G1 F1800 X132.500 Y91.124 E112.05863
G0 F12000 X133.000 Y91.124
G1 F1800 X133.000 Y52.974 E113.64473
G0 F12000 X133.500 Y52.974
G1 F1800 X133.500 Y91.124 E115.23082
G0 F12000 X134.000 Y91.124
G1 F1800 X134.000 Y52.974 E116.81691
G0 F12000 X134.500 Y52.974
G1 F1800 X134.500 Y91.124 E118.40300
G0 F12000 X135.000 Y91.124
G1 F1800 X135.000 Y52.974 E119.98910
G0 F12000 X135.500 Y52.974
G1 F1800 X135.500 Y91.124 E121.57519
G0 F12000 X136.000 Y91.124
G1 F1800 X136.000 Y52.974 E123.16128
G0 F12000 X136.500 Y52.974
G1 F1800 X136.500 Y91.124 E124.74737
G0 F12000 X137.000 Y91.124
G1 F1800 X137.000 Y52.974 E126.33347
G0 F12000 X137.500 Y52.974
G1 F1800 X137.500 Y91.124 E127.91956
G0 F12000 X138.000 Y91.124
G1 F1800 X138.000 Y52.974 E129.50565
G0 F12000 X138.500 Y52.974
G1 F1800 X138.500 Y91.124 E131.09175
G0 F12000 X139.000 Y91.124
G1 F1800 X139.000 Y52.974 E132.67784
G0 F12000 X139.500 Y52.974
G1 F1800 X139.500 Y91.124 E134.26393
G0 F12000 X140.000 Y91.124
G1 F1800 X140.000 Y52.974 E135.85002
G0 F12000 X140.500 Y52.974
G1 F1800 X140.500 Y91.124 E137.43612
G0 F12000 X141.000 Y91.124
G1 F1800 X141.000 Y52.974 E139.02221
G0 F12000 X141.500 Y52.974
G1 F1800 X141.500 Y91.124 E140.60830
G0 F12000 X142.000 Y91.124
G1 F1800 X142.000 Y52.974 E142.19439
G0 F12000 X142.500 Y52.974
G1 F1800 X142.500 Y91.124 E143.78049
G0 F12000 X143.000 Y91.124
G1 F1800 X143.000 Y52.974 E145.36658
G0 F12000 X143.500 Y52.974
G1 F1800 X143.500 Y91.124 E146.95267
G0 F12000 X144.000 Y91.124
G1 F1800 X144.000 Y52.974 E148.53877
G0 F12000 X144.500 Y52.974
G1 F1800 X144.500 Y91.124 E150.12486
G0 F12000 X145.000 Y91.124
G1 F1800 X145.000 Y52.974 E151.71095
G0 F12000 X145.500 Y52.974
G1 F1800 X145.500 Y91.124 E153.29704
G0 F12000 X146.000 Y91.124
G1 F1800 X146.000 Y52.974 E154.88314
G0 F12000 X146.500 Y52.974
G1 F1800 X146.500 Y91.124 E156.46923
G0 F12000 X147.000 Y91.124
G1 F1800 X147.000 Y52.974 E158.05532
G0 F12000 X147.500 Y52.974
G1 F1800 X147.500 Y91.124 E159.64141
G0 F12000 X148.000 Y91.124
G1 F1800 X148.000 Y52.974 E161.22751
G0 F12000 X148.500 Y52.974
G1 F1800 X148.500 Y91.124 E162.81360
G0 F12000 X149.000 Y91.124
G1 F1800 X149.000 Y52.974 E164.39969
G0 F12000 X149.500 Y52.974
G1 F1800 X149.500 Y91.124 E165.98578
G0 F12000 X150.000 Y91.124
G1 F1800 X150.000 Y52.974 E167.57188
G0 F12000 X150.500 Y52.974
G1 F1800 X150.500 Y91.124 E169.15797
G0 F12000 X151.000 Y91.124
G1 F1800 X151.000 Y52.974 E170.74406
G0 F12000 X151.500 Y52.974
G1 F1800 X151.500 Y91.124 E172.33016
G0 F12000 X152.000 Y91.124
G1 F1800 X152.000 Y52.974 E173.91625
G0 F12000 X152.500 Y52.974
G1 F1800 X152.500 Y91.124 E175.50234
G0 F12000 X153.000 Y91.124
G1 F1800 X153.000 Y52.974 E177.08843
G0 F12000 X153.500 Y52.974
G1 F1800 X153.500 Y91.124 E178.67453
G0 F12000 X154.000 Y91.124
G1 F1800 X154.000 Y52.974 E180.26062
G0 F12000 X154.500 Y52.974
G1 F1800 X154.500 Y91.124 E181.84671
G0 F12000 X155.000 Y91.124
G1 F1800 X155.000 Y52.974 E183.43280
G0 F12000 X155.500 Y52.974
G1 F1800 X155.500 Y91.124 E185.01890
G0 F12000 X156.000 Y91.124
G1 F1800 X156.000 Y52.974 E186.60499
G0 F12000 X156.500 Y52.974
G1 F1800 X156.500 Y91.124 E188.19108
G0 F12000 X157.000 Y91.124
G1 F1800 X157.000 Y52.974 E189.77718
G0 F12000 X157.500 Y52.974
G1 F1800 X157.500 Y91.124 E191.36327
G0 F12000 X158.000 Y91.124
G1 F1800 X158.000 Y52.974 E192.94936
G0 F12000 X158.500 Y52.974
G1 F1800 X158.500 Y91.124 E194.53545
G0 F12000 X159.000 Y91.124
G1 F1800 X159.000 Y52.974 E196.12155
G0 F12000 X159.500 Y52.974
G1 F1800 X159.500 Y91.124 E197.70764
G0 F12000 X160.000 Y91.124
G1 F1800 X160.000 Y52.974 E199.29373
G0 F12000 X160.500 Y52.974
G1 F1800 X160.500 Y91.124 E200.87982
G0 F12000 X161.000 Y91.124
G1 F1800 X161.000 Y52.974 E202.46592
G0 F12000 X161.500 Y52.974
G1 F1800 X161.500 Y91.124 E204.05201
G0 F12000 X162.000 Y91.124
G1 F1800 X162.000 Y52.974 E205.63810
G0 F12000 X162.500 Y52.974
G1 F1800 X162.500 Y91.124 E207.22419
G0 F12000 X163.000 Y91.124
G1 F1800 X163.000 Y52.974 E208.81029
G0 F12000 X163.500 Y52.974
G1 F1800 X163.500 Y91.124 E210.39638
G0 F12000 X164.000 Y91.124
G1 F1800 X164.000 Y52.974 E211.98247
G0 F12000 X164.500 Y52.974
G1 F1800 X164.500 Y91.124 E213.56857
G0 F12000 X165.000 Y91.124
G1 F1800 X165.000 Y52.974 E215.15466
G0 F12000 X165.500 Y52.974
G1 F1800 X165.500 Y91.124 E216.74075
G0 F12000 X166.000 Y91.124
G1 F1800 X166.000 Y52.974 E218.32684
G0 F12000 X166.500 Y52.974
G1 F1800 X166.500 Y91.124 E219.91294
G0 F12000 X167.000 Y91.124
G1 F1800 X167.000 Y52.974 E221.49903
G0 F12000 X167.500 Y52.974
G1 F1800 X167.500 Y91.124 E223.08512
G0 F12000 X168.000 Y91.124
G1 F1800 X168.000 Y52.974 E224.67121
G0 F12000 X168.500 Y52.974
G1 F1800 X168.500 Y91.124 E226.25731
G0 F12000 X169.000 Y91.124
G1 F1800 X169.000 Y52.974 E227.84340
G0 F12000 X169.500 Y52.974
G1 F1800 X169.500 Y91.124 E229.42949
G0 F12000 X170.000 Y91.124
G1 F1800 X170.000 Y52.974 E231.01559
G0 F12000 X170.500 Y52.974
G1 F1800 X170.500 Y91.124 E232.60168
G0 F12000 X171.000 Y91.124
G1 F1800 X171.000 Y52.974 E234.18777
G0 F12000 X171.500 Y52.974
G1 F1800 X171.500 Y91.124 E235.77386
G0 F12000 X172.000 Y91.124
G1 F1800 X172.000 Y52.974 E237.35996
G0 F12000 X172.500 Y52.974
G1 F1800 X172.500 Y91.124 E238.94605
G0 F12000 X173.000 Y91.124
G1 F1800 X173.000 Y52.974 E240.53214
G0 F12000 X173.500 Y52.974
G1 F1800 X173.500 Y91.124 E242.11823
G0 F12000 X174.000 Y91.124
G1 F1800 X174.000 Y52.974 E243.70433
G0 F12000 X174.500 Y52.974
G1 F1800 X174.500 Y91.124 E245.29042
G0 F12000 X175.000 Y91.124
G1 F1800 X175.000 Y52.974 E246.87651
G0 F12000 X175.500 Y52.974
G1 F1800 X175.500 Y91.124 E248.46260
G0 F12000 X176.000 Y91.124
G1 F1800 X176.000 Y52.974 E250.04870
;LAYER:1
M106 S15
G0 F12000 X176.411 Y52.799 Z0.500
;TYPE:WALL-INNER
G1 F2220 X176.411 Y91.299 E252.44966
G1 X127.912 Y91.299 E255.47419
G1 X127.912 Y52.799 E257.87516
G1 X176.411 Y52.799 E260.89969
G0 F12000 X176.911 Y52.299
;TYPE:WALL-OUTER
G1 F2220 X176.911 Y91.799 E263.36302
G1 X127.412 Y91.799 E266.44991
G1 X127.412 Y52.299 E268.91324
G1 X176.911 Y52.299 E272.00014
G0 F12000 X176.235 Y53.000
;TYPE:SKIN
G1 F2220 X128.086 Y53.000 E275.00284
G0 F12000 X128.086 Y53.500
G1 F2220 X176.235 Y53.500 E278.00555
G0 F12000 X176.235 Y54.000
G1 F2220 X128.086 Y54.000 E281.00825
G0 F12000 X128.086 Y54.500
G1 F2220 X176.235 Y54.500 E284.01095
G0 F12000 X176.235 Y55.000
G1 F2220 X128.086 Y55.000 E287.01366
G0 F12000 X128.086 Y55.500
G1 F2220 X176.235 Y55.500 E290.01636
G0 F12000 X176.235 Y56.000
G1 F2220 X128.086 Y56.000 E293.01907
G0 F12000 X128.086 Y56.500
G1 F2220 X176.235 Y56.500 E296.02177
G0 F12000 X176.235 Y57.000
G1 F2220 X128.086 Y57.000 E299.02447
G0 F12000 X128.086 Y57.500
G1 F2220 X176.235 Y57.500 E302.02718
G0 F12000 X176.235 Y58.000
G1 F2220 X128.086 Y58.000 E305.02988
G0 F12000 X128.086 Y58.500
G1 F2220 X176.235 Y58.500 E308.03259
G0 F12000 X176.235 Y59.000
G1 F2220 X128.086 Y59.000 E311.03529
G0 F12000 X128.086 Y59.500
G1 F2220 X176.235 Y59.500 E314.03800
G0 F12000 X176.235 Y60.000
G1 F2220 X128.086 Y60.000 E317.04070
G0 F12000 X128.086 Y60.500
G1 F2220 X176.235 Y60.500 E320.04340
G0 F12000 X176.235 Y61.000
G1 F2220 X128.086 Y61.000 E323.04611
G0 F12000 X128.086 Y61.500
G1 F2220 X176.235 Y61.500 E326.04881
G0 F12000 X176.235 Y62.000
G1 F2220 X128.086 Y62.000 E329.05152
G0 F12000 X128.086 Y62.500
G1 F2220 X176.235 Y62.500 E332.05422
G0 F12000 X176.235 Y63.000
G1 F2220 X128.086 Y63.000 E335.05693
G0 F12000 X128.086 Y63.500
G1 F2220 X176.235 Y63.500 E338.05963
G0 F12000 X176.235 Y64.000
G1 F2220 X128.086 Y64.000 E341.06233
G0 F12000 X128.086 Y64.500
G1 F2220 X176.235 Y64.500 E344.06504
G0 F12000 X176.235 Y65.000
G1 F2220 X128.086 Y65.000 E347.06774
G0 F12000 X128.086 Y65.500
G1 F2220 X176.235 Y65.500 E350.07045
G0 F12000 X176.235 Y66.000
G1 F2220 X128.086 Y66.000 E353.07315
G0 F12000 X128.086 Y66.500
G1 F2220 X176.235 Y66.500 E356.07585
G0 F12000 X176.235 Y67.000
G1 F2220 X128.086 Y67.000 E359.07856
G0 F12000 X128.086 Y67.500
G1 F2220 X176.235 Y67.500 E362.08126
G0 F12000 X176.235 Y68.000
G1 F2220 X128.086 Y68.000 E365.08397
G0 F12000 X128.086 Y68.500
G1 F2220 X176.235 Y68.500 E368.08667
G0 F12000 X176.235 Y69.000
G1 F2220 X128.086 Y69.000 E371.08938
G0 F12000 X128.086 Y69.500
G1 F2220 X176.235 Y69.500 E374.09208
G0 F12000 X176.235 Y70.000
G1 F2220 X128.086 Y70.000 E377.09478
G0 F12000 X128.086 Y70.500
G1 F2220 X176.235 Y70.500 E380.09749
G0 F12000 X176.235 Y71.000
G1 F2220 X128.086 Y71.000 E383.10019
G0 F12000 X128.086 Y71.500
G1 F2220 X176.235 Y71.500 E386.10290
G0 F12000 X176.235 Y72.000
G1 F2220 X128.086 Y72.000 E389.10560
G0 F12000 X128.086 Y72.500
G1 F2220 X176.235 Y72.500 E392.10831
G0 F12000 X176.235 Y73.000
G1 F2220 X128.086 Y73.000 E395.11101
G0 F12000 X128.086 Y73.500
G1 F2220 X176.235 Y73.500 E398.11371
G0 F12000 X176.235 Y74.000
G1 F2220 X128.086 Y74.000 E401.11642
G0 F12000 X128.086 Y74.500
G1 F2220 X176.235 Y74.500 E404.11912
G0 F12000 X176.235 Y75.000
G1 F2220 X128.086 Y75.000 E407.12183
G0 F12000 X128.086 Y75.500
G1 F2220 X176.235 Y75.500 E410.12453
G0 F12000 X176.235 Y76.000
G1 F2220 X128.086 Y76.000 E413.12723
G0 F12000 X128.086 Y76.500
G1 F2220 X176.235 Y76.500 E416.12994
G0 F12000 X176.235 Y77.000
G1 F2220 X128.086 Y77.000 E419.13264
G0 F12000 X128.086 Y77.500
G1 F2220 X176.235 Y77.500 E422.13535
G0 F12000 X176.235 Y78.000
G1 F2220 X128.086 Y78.000 E425.13805
G0 F12000 X128.086 Y78.500
G1 F2220 X176.235 Y78.500 E428.14076
G0 F12000 X176.235 Y79.000
G1 F2220 X128.086 Y79.000 E431.14346
G0 F12000 X128.086 Y79.500
G1 F2220 X176.235 Y79.500 E434.14616
G0 F12000 X176.235 Y80.000
G1 F2220 X128.086 Y80.000 E437.14887
G0 F12000 X128.086 Y80.500
G1 F2220 X176.235 Y80.500 E440.15157
G0 F12000 X176.235 Y81.000
G1 F2220 X128.086 Y81.000 E443.15428
G0 F12000 X128.086 Y81.500
G1 F2220 X176.235 Y81.500 E446.15698
G0 F12000 X176.235 Y82.000
G1 F2220 X128.086 Y82.000 E449.15969
G0 F12000 X128.086 Y82.500
G1 F2220 X176.235 Y82.500 E452.16239
G0 F12000 X176.235 Y83.000
G1 F2220 X128.086 Y83.000 E455.16509
G0 F12000 X128.086 Y83.500
G1 F2220 X176.235 Y83.500 E458.16780
G0 F12000 X176.235 Y84.000
G1 F2220 X128.086 Y84.000 E461.17050
G0 F12000 X128.086 Y84.500
G1 F2220 X176.235 Y84.500 E464.17321
G0 F12000 X176.235 Y85.000
G1 F2220 X128.086 Y85.000 E467.17591
G0 F12000 X128.086 Y85.500
G1 F2220 X176.235 Y85.500 E470.17861
G0 F12000 X176.235 Y86.000
G1 F2220 X128.086 Y86.000 E473.18132
G0 F12000 X128.086 Y86.500
G1 F2220 X176.235 Y86.500 E476.18402
G0 F12000 X176.235 Y87.000
G1 F2220 X128.086 Y87.000 E479.18673
G0 F12000 X128.086 Y87.500
G1 F2220 X176.235 Y87.500 E482.18943
G0 F12000 X176.235 Y88.000
G1 F2220 X128.086 Y88.000 E485.19214
G0 F12000 X128.086 Y88.500
G1 F2220 X176.235 Y88.500 E488.19484
G0 F12000 X176.235 Y89.000
G1 F2220 X128.086 Y89.000 E491.19754
G0 F12000 X128.086 Y89.500
G1 F2220 X176.235 Y89.500 E494.20025
G0 F12000 X176.235 Y90.000
G1 F2220 X128.086 Y90.000 E497.20295
G0 F12000 X128.086 Y90.500
G1 F2220 X176.235 Y90.500 E500.20566
G0 F12000 X176.235 Y91.000
G1 F2220 X128.086 Y91.000 E503.20836
;LAYER:2
M106 S30
G0 F12000 X127.912 Y91.299 Z0.800
;TYPE:WALL-INNER
G1 F2700 X127.912 Y52.799 E505.60933
G1 X176.411 Y52.799 E508.63386
G1 X176.411 Y91.299 E511.03482
G1 X127.912 Y91.299 E514.05936
G0 F12000 X127.412 Y91.799
;TYPE:WALL-OUTER
G1 F2700 X127.412 Y52.299 E516.52268
G1 X176.911 Y52.299 E519.60958
G1 X176.911 Y91.799 E522.07291
G1 X127.412 Y91.799 E525.15980
G0 F12000 X128.500 Y91.124
;TYPE:SKIN
G1 F2700 X128.500 Y52.974 E527.53894
G0 F12000 X129.000 Y52.974
G1 F2700 X129.000 Y91.124 E529.91808
G0 F12000 X129.500 Y91.124
G1 F2700 X129.500 Y52.974 E532.29722
G0 F12000 X130.000 Y52.974
G1 F2700 X130.000 Y91.124 E534.67636
G0 F12000 X130.500 Y91.124
G1 F2700 X130.500 Y52.974 E537.05550
G0 F12000 X131.000 Y52.974
G1 F2700 X131.000 Y91.124 E539.43463
G0 F12000 X131.500 Y91.124
G1 F2700 X131.500 Y52.974 E541.81377
G0 F12000 X132.000 Y52.974
G1 F2700 X132.000 Y91.124 E544.19291
G0 F12000 X132.500 Y91.124
G1 F2700 X132.500 Y52.974 E546.57205
G0 F12000 X133.000 Y52.974
G1 F2700 X133.000 Y91.124 E548.95119
G0 F12000 X133.500 Y91.124
G1 F2700 X133.500 Y52.974 E551.33033
G0 F12000 X134.000 Y52.974
G1 F2700 X134.000 Y91.124 E553.70947
G0 F12000 X134.500 Y91.124
G1 F2700 X134.500 Y52.974 E556.08861
G0 F12000 X135.000 Y52.974
G1 F2700 X135.000 Y91.124 E558.46775
G0 F12000 X135.500 Y91.124
G1 F2700 X135.500 Y52.974 E560.84689
G0 F12000 X136.000 Y52.974
G1 F2700 X136.000 Y91.124 E563.22603
G0 F12000 X136.500 Y91.124
G1 F2700 X136.500 Y52.974 E565.60516
G0 F12000 X137.000 Y52.974
G1 F2700 X137.000 Y91.124 E567.98430
G0 F12000 X137.500 Y91.124
G1 F2700 X137.500 Y52.974 E570.36344
G0 F12000 X138.000 Y52.974
G1 F2700 X138.000 Y91.124 E572.74258
G0 F12000 X138.500 Y91.124
G1 F2700 X138.500 Y52.974 E575.12172
G0 F12000 X139.000 Y52.974
G1 F2700 X139.000 Y91.124 E577.50086
G0 F12000 X139.500 Y91.124
G1 F2700 X139.500 Y52.974 E579.88000
G0 F12000 X140.000 Y52.974
G1 F2700 X140.000 Y91.124 E582.25914
G0 F12000 X140.500 Y91.124
G1 F2700 X140.500 Y52.974 E584.63828
G0 F12000 X141.000 Y52.974
G1 F2700 X141.000 Y91.124 E587.01742
G0 F12000 X141.500 Y91.124
G1 F2700 X141.500 Y52.974 E589.39655
G0 F12000 X142.000 Y52.974
G1 F2700 X142.000 Y91.124 E591.77569
G0 F12000 X142.500 Y91.124
G1 F2700 X142.500 Y52.974 E594.15483
G0 F12000 X143.000 Y52.974
G1 F2700 X143.000 Y91.124 E596.53397
G0 F12000 X143.500 Y91.124
G1 F2700 X143.500 Y52.974 E598.91311
G0 F12000 X144.000 Y52.974
G1 F2700 X144.000 Y91.124 E601.29225
G0 F12000 X144.500 Y91.124
G1 F2700 X144.500 Y52.974 E603.67139
G0 F12000 X145.000 Y52.974
G1 F2700 X145.000 Y91.124 E606.05053
G0 F12000 X145.500 Y91.124
G1 F2700 X145.500 Y52.974 E608.42967
G0 F12000 X146.000 Y52.974
G1 F2700 X146.000 Y91.124 E610.80881
G0 F12000 X146.500 Y91.124
G1 F2700 X146.500 Y52.974 E613.18794
G0 F12000 X147.000 Y52.974
G1 F2700 X147.000 Y91.124 E615.56708
G0 F12000 X147.500 Y91.124
G1 F2700 X147.500 Y52.974 E617.94622
G0 F12000 X148.000 Y52.974
G1 F2700 X148.000 Y91.124 E620.32536
G0 F12000 X148.500 Y91.124
G1 F2700 X148.500 Y52.974 E622.70450
G0 F12000 X149.000 Y52.974
G1 F2700 X149.000 Y91.124 E625.08364
G0 F12000 X149.500 Y91.124
G1 F2700 X149.500 Y52.974 E627.46278
G0 F12000 X150.000 Y52.974
G1 F2700 X150.000 Y91.124 E629.84192
G0 F12000 X150.500 Y91.124
G1 F2700 X150.500 Y52.974 E632.22106
G0 F12000 X151.000 Y52.974
G1 F2700 X151.000 Y91.124 E634.60020
G0 F12000 X151.500 Y91.124
G1 F2700 X151.500 Y52.974 E636.97934
G0 F12000 X152.000 Y52.974
G1 F2700 X152.000 Y91.124 E639.35847
G0 F12000 X152.500 Y91.124
G1 F2700 X152.500 Y52.974 E641.73761
G0 F12000 X153.000 Y52.974
G1 F2700 X153.000 Y91.124 E644.11675
G0 F12000 X153.500 Y91.124
G1 F2700 X153.500 Y52.974 E646.49589
G0 F12000 X154.000 Y52.974
G1 F2700 X154.000 Y91.124 E648.87503
G0 F12000 X154.500 Y91.124
G1 F2700 X154.500 Y52.974 E651.25417
G0 F12000 X155.000 Y52.974
G1 F2700 X155.000 Y91.124 E653.63331
G0 F12000 X155.500 Y91.124
G1 F2700 X155.500 Y52.974 E656.01245
G0 F12000 X156.000 Y52.974
G1 F2700 X156.000 Y91.124 E658.39159
G0 F12000 X156.500 Y91.124
G1 F2700 X156.500 Y52.974 E660.77073
G0 F12000 X157.000 Y52.974
G1 F2700 X157.000 Y91.124 E663.14986
G0 F12000 X157.500 Y91.124
G1 F2700 X157.500 Y52.974 E665.52900
G0 F12000 X158.000 Y52.974
G1 F2700 X158.000 Y91.124 E667.90814
G0 F12000 X158.500 Y91.124
G1 F2700 X158.500 Y52.974 E670.28728
G0 F12000 X159.000 Y52.974
G1 F2700 X159.000 Y91.124 E672.66642
G0 F12000 X159.500 Y91.124
G1 F2700 X159.500 Y52.974 E675.04556
G0 F12000 X160.000 Y52.974
G1 F2700 X160.000 Y91.124 E677.42470
G0 F12000 X160.500 Y91.124
G1 F2700 X160.500 Y52.974 E679.80384
G0 F12000 X161.000 Y52.974
G1 F2700 X161.000 Y91.124 E682.18298
G0 F12000 X161.500 Y91.124
G1 F2700 X161.500 Y52.974 E684.56212
G0 F12000 X162.000 Y52.974
G1 F2700 X162.000 Y91.124 E686.94125
G0 F12000 X162.500 Y91.124
G1 F2700 X162.500 Y52.974 E689.32039
G0 F12000 X163.000 Y52.974
G1 F2700 X163.000 Y91.124 E691.69953
G0 F12000 X163.500 Y91.124
G1 F2700 X163.500 Y52.974 E694.07867
G0 F12000 X164.000 Y52.974
G1 F2700 X164.000 Y91.124 E696.45781
G0 F12000 X164.500 Y91.124
G1 F2700 X164.500 Y52.974 E698.83695
G0 F12000 X165.000 Y52.974
G1 F2700 X165.000 Y91.124 E701.21609
G0 F12000 X165.500 Y91.124
G1 F2700 X165.500 Y52.974 E703.59523
G0 F12000 X166.000 Y52.974
G1 F2700 X166.000 Y91.124 E705.97437
G0 F12000 X166.500 Y91.124
G1 F2700 X166.500 Y52.974 E708.35351
G0 F12000 X167.000 Y52.974
G1 F2700 X167.000 Y91.124 E710.73265
G0 F12000 X167.500 Y91.124
G1 F2700 X167.500 Y52.974 E713.11178
G0 F12000 X168.000 Y52.974
G1 F2700 X168.000 Y91.124 E715.49092
G0 F12000 X168.500 Y91.124
G1 F2700 X168.500 Y52.974 E717.87006
G0 F12000 X169.000 Y52.974
G1 F2700 X169.000 Y91.124 E720.24920
G0 F12000 X169.500 Y91.124
G1 F2700 X169.500 Y52.974 E722.62834
G0 F12000 X170.000 Y52.974
G1 F2700 X170.000 Y91.124 E725.00748
G0 F12000 X170.500 Y91.124
G1 F2700 X170.500 Y52.974 E727.38662
G0 F12000 X171.000 Y52.974
G1 F2700 X171.000 Y91.124 E729.76576
G0 F12000 X171.500 Y91.124
G1 F2700 X171.500 Y52.974 E732.14490
G0 F12000 X172.000 Y52.974
G1 F2700 X172.000 Y91.124 E734.52404
G0 F12000 X172.500 Y91.124
G1 F2700 X172.500 Y52.974 E736.90317
G0 F12000 X173.000 Y52.974
G1 F2700 X173.000 Y91.124 E739.28231
G0 F12000 X173.500 Y91.124
G1 F2700 X173.500 Y52.974 E741.66145
G0 F12000 X174.000 Y52.974
G1 F2700 X174.000 Y91.124 E744.04059
G0 F12000 X174.500 Y91.124
G1 F2700 X174.500 Y52.974 E746.41973
G0 F12000 X175.000 Y52.974
G1 F2700 X175.000 Y91.124 E748.79887
G0 F12000 X175.500 Y91.124
G1 F2700 X175.500 Y52.974 E751.17801
G0 F12000 X176.000 Y52.974
G1 F2700 X176.000 Y91.124 E753.55715
;LAYER:3
M106 S45
G0 F12000 X176.411 Y91.299 Z1.100
;TYPE:WALL-INNER
G1 F3120 X127.912 Y91.299 E756.58168
G1 X127.912 Y52.799 E758.98265
G1 X176.411 Y52.799 E762.00718
G1 X176.411 Y91.299 E764.40814
G0 F12000 X176.911 Y91.799
;TYPE:WALL-OUTER
G1 F3120 X127.412 Y91.799 E767.49504
G1 X127.412 Y52.299 E769.95836
G1 X176.911 Y52.299 E773.04526
G1 X176.911 Y91.799 E775.50859
G1 F2100 E775.10859
G0 F12000 X176.235 Y85.948
;TYPE:FILL
G1 F2100 E775.50859
G1 F3120 X128.085 Y58.149 E778.97587
G1 F2100 E778.57587
G0 F12000 X137.038 Y52.974
G1 F2100 E778.97587
G1 F3120 X137.038 Y91.124 E781.35501
G1 F2100 E780.95501
G0 F12000 X138.723 Y91.124
G1 F2100 E781.35501
G1 F3120 X176.234 Y69.467 E784.05619
G1 F2100 E783.65619
G0 F12000 X176.235 Y74.630
G1 F2100 E784.05619
G1 F3120 X138.726 Y52.974 E786.75723
G1 F2100 E786.35723
G0 F12000 X145.990 Y52.973
G1 F2100 E786.75723
G1 F3120 X128.086 Y63.310 E788.04650
G1 F2100 E787.64650
G0 F12000 X128.086 Y69.468
G1 F2100 E788.04650
G1 F3120 X165.594 Y91.123 E790.74746
G0 F12000 X166.444 Y91.124
G1 F3120 X166.444 Y52.974 E793.12660
G0 F12000 X165.595 Y52.973
G1 F3120 X128.086 Y74.628 E795.82761
G1 F2100 E795.42761
G0 F12000 X128.086 Y80.786
G1 F2100 E795.82761
G1 F3120 X145.990 Y91.123 E797.11688
G0 F12000 X146.840 Y91.124
G1 F3120 X146.840 Y52.974 E799.49602
G1 F2100 E799.09602
G0 F12000 X156.642 Y52.974
G1 F2100 E799.49602
G1 F3120 X156.642 Y91.124 E801.87516
G1 F2100 E801.47516
G0 F12000 X158.328 Y91.124
G1 F2100 E801.87516
G1 F3120 X176.234 Y80.786 E803.16458
G1 F2100 E802.76458
G0 F12000 X176.235 Y63.311
G1 F2100 E803.16458
G1 F3120 X158.330 Y52.974 E804.45391
G1 F2100 E804.05391
G0 F12000 X176.234 Y58.149
G1 F2100 E804.45391
G1 F3120 X128.087 Y85.947 E807.92100
;LAYER:4
M106 S63
G1 F2100 E807.52100
G0 F12000 X127.912 Y91.299 Z1.400
;TYPE:WALL-INNER
G1 F2100 E807.92100
G1 F3600 X127.912 Y52.799 E810.32196
G1 X176.411 Y52.799 E813.34649
G1 X176.411 Y91.299 E815.74746
G1 X127.912 Y91.299 E818.77199
G0 F12000 X127.412 Y91.799
;TYPE:WALL-OUTER
G1 F3600 X127.412 Y52.299 E821.23532
G1 X176.911 Y52.299 E824.32221
G1 X176.911 Y91.799 E826.78554
G1 X127.412 Y91.799 E829.87244
G0 F12000 X128.500 Y91.124
;TYPE:SKIN
G1 F3600 X128.500 Y52.974 E832.25158
G0 F12000 X129.000 Y52.974
G1 F3600 X129.000 Y91.124 E834.63071
G0 F12000 X129.500 Y91.124
G1 F3600 X129.500 Y52.974 E837.00985
G0 F12000 X130.000 Y52.974
G1 F3600 X130.000 Y91.124 E839.38899
G0 F12000 X130.500 Y91.124
G1 F3600 X130.500 Y52.974 E841.76813
G0 F12000 X131.000 Y52.974
G1 F3600 X131.000 Y91.124 E844.14727
G0 F12000 X131.500 Y91.124
G1 F3600 X131.500 Y52.974 E846.52641
G0 F12000 X132.000 Y52.974
G1 F3600 X132.000 Y91.124 E848.90555
G0 F12000 X132.500 Y91.124
G1 F3600 X132.500 Y52.974 E851.28469
G0 F12000 X133.000 Y52.974
G1 F3600 X133.000 Y91.124 E853.66383
G0 F12000 X133.500 Y91.124
G1 F3600 X133.500 Y52.974 E856.04297
G0 F12000 X134.000 Y52.974
G1 F3600 X134.000 Y91.124 E858.42211
G0 F12000 X134.500 Y91.124
G1 F3600 X134.500 Y52.974 E860.80124
G0 F12000 X135.000 Y52.974
G1 F3600 X135.000 Y91.124 E863.18038
G0 F12000 X135.500 Y91.124
G1 F3600 X135.500 Y52.974 E865.55952
G0 F12000 X136.000 Y52.974
G1 F3600 X136.000 Y91.124 E867.93866
G0 F12000 X136.500 Y91.124
G1 F3600 X136.500 Y52.974 E870.31780
G0 F12000 X137.000 Y52.974
G1 F3600 X137.000 Y91.124 E872.69694
G0 F12000 X137.500 Y91.124
G1 F3600 X137.500 Y52.974 E875.07608
G0 F12000 X138.000 Y52.974
G1 F3600 X138.000 Y91.124 E877.45522
G0 F12000 X138.500 Y91.124
G1 F3600 X138.500 Y52.974 E879.83436
G0 F12000 X139.000 Y52.974
G1 F3600 X139.000 Y91.124 E882.21350
G0 F12000 X139.500 Y91.124
G1 F3600 X139.500 Y52.974 E884.59263
G0 F12000 X140.000 Y52.974
G1 F3600 X140.000 Y91.124 E886.97177
G0 F12000 X140.500 Y91.124
G1 F3600 X140.500 Y52.974 E889.35091
G0 F12000 X141.000 Y52.974
G1 F3600 X141.000 Y91.124 E891.73005
G0 F12000 X141.500 Y91.124
G1 F3600 X141.500 Y52.974 E894.10919
G0 F12000 X142.000 Y52.974
G1 F3600 X142.000 Y91.124 E896.48833
G0 F12000 X142.500 Y91.124
G1 F3600 X142.500 Y52.974 E898.86747
G0 F12000 X143.000 Y52.974
G1 F3600 X143.000 Y91.124 E901.24661
G0 F12000 X143.500 Y91.124
G1 F3600 X143.500 Y52.974 E903.62575
G0 F12000 X144.000 Y52.974
G1 F3600 X144.000 Y91.124 E906.00489
G0 F12000 X144.500 Y91.124
G1 F3600 X144.500 Y52.974 E908.38403
G0 F12000 X145.000 Y52.974
G1 F3600 X145.000 Y91.124 E910.76316
G0 F12000 X145.500 Y91.124
G1 F3600 X145.500 Y52.974 E913.14230
G0 F12000 X146.000 Y52.974
G1 F3600 X146.000 Y91.124 E915.52144
G0 F12000 X146.500 Y91.124
G1 F3600 X146.500 Y52.974 E917.90058
G0 F12000 X147.000 Y52.974
G1 F3600 X147.000 Y91.124 E920.27972
G0 F12000 X147.500 Y91.124
G1 F3600 X147.500 Y52.974 E922.65886
G0 F12000 X148.000 Y52.974
G1 F3600 X148.000 Y91.124 E925.03800
G0 F12000 X148.500 Y91.124
G1 F3600 X148.500 Y52.974 E927.41714
G0 F12000 X149.000 Y52.974
G1 F3600 X149.000 Y91.124 E929.79628
G0 F12000 X149.500 Y91.124
G1 F3600 X149.500 Y52.974 E932.17542
G0 F12000 X150.000 Y52.974
G1 F3600 X150.000 Y91.124 E934.55455
G0 F12000 X150.500 Y91.124
G1 F3600 X150.500 Y52.974 E936.93369
G0 F12000 X151.000 Y52.974
G1 F3600 X151.000 Y91.124 E939.31283
G0 F12000 X151.500 Y91.124
G1 F3600 X151.500 Y52.974 E941.69197
G0 F12000 X152.000 Y52.974
G1 F3600 X152.000 Y91.124 E944.07111
G0 F12000 X152.500 Y91.124
G1 F3600 X152.500 Y52.974 E946.45025
G0 F12000 X153.000 Y52.974
G1 F3600 X153.000 Y91.124 E948.82939
G0 F12000 X153.500 Y91.124
G1 F3600 X153.500 Y52.974 E951.20853
G0 F12000 X154.000 Y52.974
G1 F3600 X154.000 Y91.124 E953.58767
G0 F12000 X154.500 Y91.124
G1 F3600 X154.500 Y52.974 E955.96681
G0 F12000 X155.000 Y52.974
G1 F3600 X155.000 Y91.124 E958.34594
G0 F12000 X155.500 Y91.124
G1 F3600 X155.500 Y52.974 E960.72508
G0 F12000 X156.000 Y52.974
G1 F3600 X156.000 Y91.124 E963.10422
G0 F12000 X156.500 Y91.124
G1 F3600 X156.500 Y52.974 E965.48336
G0 F12000 X157.000 Y52.974
G1 F3600 X157.000 Y91.124 E967.86250
G0 F12000 X157.500 Y91.124
G1 F3600 X157.500 Y52.974 E970.24164
G0 F12000 X158.000 Y52.974
G1 F3600 X158.000 Y91.124 E972.62078
G0 F12000 X158.500 Y91.124
G1 F3600 X158.500 Y52.974 E974.99992
G0 F12000 X159.000 Y52.974
G1 F3600 X159.000 Y91.124 E977.37906
G0 F12000 X159.500 Y91.124
G1 F3600 X159.500 Y52.974 E979.75820
G0 F12000 X160.000 Y52.974
G1 F3600 X160.000 Y91.124 E982.13734
G0 F12000 X160.500 Y91.124
G1 F3600 X160.500 Y52.974 E984.51647
G0 F12000 X161.000 Y52.974
G1 F3600 X161.000 Y91.124 E986.89561
G0 F12000 X161.500 Y91.124
G1 F3600 X161.500 Y52.974 E989.27475
G0 F12000 X162.000 Y52.974
G1 F3600 X162.000 Y91.124 E991.65389
G0 F12000 X162.500 Y91.124
G1 F3600 X162.500 Y52.974 E994.03303
G0 F12000 X163.000 Y52.974
G1 F3600 X163.000 Y91.124 E996.41217
G0 F12000 X163.500 Y91.124
G1 F3600 X163.500 Y52.974 E998.79131
G0 F12000 X164.000 Y52.974
G1 F3600 X164.000 Y91.124 E1001.17045
G0 F12000 X164.500 Y91.124
G1 F3600 X164.500 Y52.974 E1003.54959
G0 F12000 X165.000 Y52.974
G1 F3600 X165.000 Y91.124 E1005.92873
G0 F12000 X165.500 Y91.124
G1 F3600 X165.500 Y52.974 E1008.30786
G0 F12000 X166.000 Y52.974
G1 F3600 X166.000 Y91.124 E1010.68700
G0 F12000 X166.500 Y91.124
G1 F3600 X166.500 Y52.974 E1013.06614
G0 F12000 X167.000 Y52.974
G1 F3600 X167.000 Y91.124 E1015.44528
G0 F12000 X167.500 Y91.124
G1 F3600 X167.500 Y52.974 E1017.82442
G0 F12000 X168.000 Y52.974
G1 F3600 X168.000 Y91.124 E1020.20356
G0 F12000 X168.500 Y91.124
G1 F3600 X168.500 Y52.974 E1022.58270
G0 F12000 X169.000 Y52.974
G1 F3600 X169.000 Y91.124 E1024.96184
G0 F12000 X169.500 Y91.124
G1 F3600 X169.500 Y52.974 E1027.34098
G0 F12000 X170.000 Y52.974
G1 F3600 X170.000 Y91.124 E1029.72012
G0 F12000 X170.500 Y91.124
G1 F3600 X170.500 Y52.974 E1032.09925
G0 F12000 X171.000 Y52.974
G1 F3600 X171.000 Y91.124 E1034.47839
G0 F12000 X171.500 Y91.124
G1 F3600 X171.500 Y52.974 E1036.85753
G0 F12000 X172.000 Y52.974
G1 F3600 X172.000 Y91.124 E1039.23667
G0 F12000 X172.500 Y91.124
G1 F3600 X172.500 Y52.974 E1041.61581
G0 F12000 X173.000 Y52.974
G1 F3600 X173.000 Y91.124 E1043.99495
G0 F12000 X173.500 Y91.124
G1 F3600 X173.500 Y52.974 E1046.37409
G0 F12000 X174.000 Y52.974
G1 F3600 X174.000 Y91.124 E1048.75323
G0 F12000 X174.500 Y91.124
G1 F3600 X174.500 Y52.974 E1051.13237
G0 F12000 X175.000 Y52.974
G1 F3600 X175.000 Y91.124 E1053.51151
G0 F12000 X175.500 Y91.124
G1 F3600 X175.500 Y52.974 E1055.89065
G0 F12000 X176.000 Y52.974
G1 F3600 X176.000 Y91.124 E1058.26978
;LAYER:5
M106 S79
G0 F12000 X176.411 Y91.299 Z1.700
;TYPE:WALL-INNER
G1 F3600 X127.912 Y91.299 E1061.29432
G1 X127.912 Y52.799 E1063.69528
G1 X176.411 Y52.799 E1066.71981
G1 X176.411 Y91.299 E1069.12078
G0 F12000 X176.911 Y91.799
;TYPE:WALL-OUTER
G1 F3600 X127.412 Y91.799 E1072.20767
G1 X127.412 Y52.299 E1074.67100
G1 X176.911 Y52.299 E1077.75790
G1 X176.911 Y91.799 E1080.22122
G0 F12000 X176.235 Y91.000
;TYPE:SKIN
G1 F3600 X128.086 Y91.000 E1083.22393
G0 F12000 X128.086 Y90.500
G1 F3600 X176.235 Y90.500 E1086.22663
G0 F12000 X176.235 Y90.000
G1 F3600 X128.086 Y90.000 E1089.22934
G0 F12000 X128.086 Y89.500
G1 F3600 X176.235 Y89.500 E1092.23204
G0 F12000 X176.235 Y89.000
G1 F3600 X128.086 Y89.000 E1095.23474
G0 F12000 X128.086 Y88.500
G1 F3600 X176.235 Y88.500 E1098.23745
G0 F12000 X176.235 Y88.000
G1 F3600 X128.086 Y88.000 E1101.24015
G0 F12000 X128.086 Y87.500
G1 F3600 X176.235 Y87.500 E1104.24286
G0 F12000 X176.235 Y87.000
G1 F3600 X128.086 Y87.000 E1107.24556
G0 F12000 X128.086 Y86.500
G1 F3600 X176.235 Y86.500 E1110.24827
G0 F12000 X176.235 Y86.000
G1 F3600 X128.086 Y86.000 E1113.25097
G0 F12000 X128.086 Y85.500
G1 F3600 X176.235 Y85.500 E1116.25367
G0 F12000 X176.235 Y85.000
G1 F3600 X128.086 Y85.000 E1119.25638
G0 F12000 X128.086 Y84.500
G1 F3600 X176.235 Y84.500 E1122.25908
G0 F12000 X176.235 Y84.000
G1 F3600 X128.086 Y84.000 E1125.26179
G0 F12000 X128.086 Y83.500
G1 F3600 X176.235 Y83.500 E1128.26449
G0 F12000 X176.235 Y83.000
G1 F3600 X128.086 Y83.000 E1131.26720
G0 F12000 X128.086 Y82.500
G1 F3600 X176.235 Y82.500 E1134.26990
G0 F12000 X176.235 Y82.000
G1 F3600 X128.086 Y82.000 E1137.27260
G0 F12000 X128.086 Y81.500
G1 F3600 X176.235 Y81.500 E1140.27531
G0 F12000 X176.235 Y81.000
G1 F3600 X128.086 Y81.000 E1143.27801
G0 F12000 X128.086 Y80.500
G1 F3600 X176.235 Y80.500 E1146.28072
G0 F12000 X176.235 Y80.000
G1 F3600 X128.086 Y80.000 E1149.28342
G0 F12000 X128.086 Y79.500
G1 F3600 X176.235 Y79.500 E1152.28612
G0 F12000 X176.235 Y79.000
G1 F3600 X128.086 Y79.000 E1155.28883
G0 F12000 X128.086 Y78.500
G1 F3600 X176.235 Y78.500 E1158.29153
G0 F12000 X176.235 Y78.000
G1 F3600 X128.086 Y78.000 E1161.29424
G0 F12000 X128.086 Y77.500
G1 F3600 X176.235 Y77.500 E1164.29694
G0 F12000 X176.235 Y77.000
G1 F3600 X128.086 Y77.000 E1167.29965
G0 F12000 X128.086 Y76.500
G1 F3600 X176.235 Y76.500 E1170.30235
G0 F12000 X176.235 Y76.000
G1 F3600 X128.086 Y76.000 E1173.30505
G0 F12000 X128.086 Y75.500
G1 F3600 X176.235 Y75.500 E1176.30776
G0 F12000 X176.235 Y75.000
G1 F3600 X128.086 Y75.000 E1179.31046
G0 F12000 X128.086 Y74.500
G1 F3600 X176.235 Y74.500 E1182.31317
G0 F12000 X176.235 Y74.000
G1 F3600 X128.086 Y74.000 E1185.31587
G0 F12000 X128.086 Y73.500
G1 F3600 X176.235 Y73.500 E1188.31858
G0 F12000 X176.235 Y73.000
G1 F3600 X128.086 Y73.000 E1191.32128
G0 F12000 X128.086 Y72.500
G1 F3600 X176.235 Y72.500 E1194.32398
G0 F12000 X176.235 Y72.000
G1 F3600 X128.086 Y72.000 E1197.32669
G0 F12000 X128.086 Y71.500
G1 F3600 X176.235 Y71.500 E1200.32939
G0 F12000 X176.235 Y71.000
G1 F3600 X128.086 Y71.000 E1203.33210
G0 F12000 X128.086 Y70.500
G1 F3600 X176.235 Y70.500 E1206.33480
G0 F12000 X176.235 Y70.000
G1 F3600 X128.086 Y70.000 E1209.33750
G0 F12000 X128.086 Y69.500
G1 F3600 X176.235 Y69.500 E1212.34021
G0 F12000 X176.235 Y69.000
G1 F3600 X128.086 Y69.000 E1215.34291
G0 F12000 X128.086 Y68.500
G1 F3600 X176.235 Y68.500 E1218.34562
G0 F12000 X176.235 Y68.000
G1 F3600 X128.086 Y68.000 E1221.34832
G0 F12000 X128.086 Y67.500
G1 F3600 X176.235 Y67.500 E1224.35103
G0 F12000 X176.235 Y67.000
G1 F3600 X128.086 Y67.000 E1227.35373
G0 F12000 X128.086 Y66.500
G1 F3600 X176.235 Y66.500 E1230.35643
G0 F12000 X176.235 Y66.000
G1 F3600 X128.086 Y66.000 E1233.35914
G0 F12000 X128.086 Y65.500
G1 F3600 X176.235 Y65.500 E1236.36184
G0 F12000 X176.235 Y65.000
G1 F3600 X128.086 Y65.000 E1239.36455
G0 F12000 X128.086 Y64.500
G1 F3600 X176.235 Y64.500 E1242.36725
G0 F12000 X176.235 Y64.000
G1 F3600 X128.086 Y64.000 E1245.36996
G0 F12000 X128.086 Y63.500
G1 F3600 X176.235 Y63.500 E1248.37266
G0 F12000 X176.235 Y63.000
G1 F3600 X128.086 Y63.000 E1251.37536
G0 F12000 X128.086 Y62.500
G1 F3600 X176.235 Y62.500 E1254.37807
G0 F12000 X176.235 Y62.000
G1 F3600 X128.086 Y62.000 E1257.38077
G0 F12000 X128.086 Y61.500
G1 F3600 X176.235 Y61.500 E1260.38348
G0 F12000 X176.235 Y61.000
G1 F3600 X128.086 Y61.000 E1263.38618
G0 F12000 X128.086 Y60.500
G1 F3600 X176.235 Y60.500 E1266.38888
G0 F12000 X176.235 Y60.000
G1 F3600 X128.086 Y60.000 E1269.39159
G0 F12000 X128.086 Y59.500
G1 F3600 X176.235 Y59.500 E1272.39429
G0 F12000 X176.235 Y59.000
G1 F3600 X128.086 Y59.000 E1275.39700
G0 F12000 X128.086 Y58.500
G1 F3600 X176.235 Y58.500 E1278.39970
G0 F12000 X176.235 Y58.000
G1 F3600 X128.086 Y58.000 E1281.40241
G0 F12000 X128.086 Y57.500
G1 F3600 X176.235 Y57.500 E1284.40511
G0 F12000 X176.235 Y57.000
G1 F3600 X128.086 Y57.000 E1287.40781
G0 F12000 X128.086 Y56.500
G1 F3600 X176.235 Y56.500 E1290.41052
G0 F12000 X176.235 Y56.000
G1 F3600 X128.086 Y56.000 E1293.41322
G0 F12000 X128.086 Y55.500
G1 F3600 X176.235 Y55.500 E1296.41593
G0 F12000 X176.235 Y55.000
G1 F3600 X128.086 Y55.000 E1299.41863
G0 F12000 X128.086 Y54.500
G1 F3600 X176.235 Y54.500 E1302.42134
G0 F12000 X176.235 Y54.000
G1 F3600 X128.086 Y54.000 E1305.42404
G0 F12000 X128.086 Y53.500
G1 F3600 X176.235 Y53.500 E1308.42674
G0 F12000 X176.235 Y53.000
G1 F3600 X128.086 Y53.000 E1311.42945
;LAYER:6
M106 S94
G0 F12000 X127.912 Y52.799 Z2.000
;TYPE:WALL-INNER
G1 F3600 X176.411 Y52.799 E1314.45398
G1 X176.411 Y91.299 E1316.85494
G1 X127.912 Y91.299 E1319.87948
G1 X127.912 Y52.799 E1322.28044
G0 F12000 X127.412 Y52.299
;TYPE:WALL-OUTER
G1 F3600 X176.911 Y52.299 E1325.36734
G1 X176.911 Y91.799 E1327.83066
G1 X127.412 Y91.799 E1330.91756
G1 X127.412 Y52.299 E1333.38089
G0 F12000 X128.500 Y52.974
;TYPE:SKIN
G1 F3600 X128.500 Y91.124 E1335.76003
G0 F12000 X129.000 Y91.124
G1 F3600 X129.000 Y52.974 E1338.13917
G0 F12000 X129.500 Y52.974
G1 F3600 X129.500 Y91.124 E1340.51830
G0 F12000 X130.000 Y91.124
G1 F3600 X130.000 Y52.974 E1342.89744
G0 F12000 X130.500 Y52.974
G1 F3600 X130.500 Y91.124 E1345.27658
G0 F12000 X131.000 Y91.124
G1 F3600 X131.000 Y52.974 E1347.65572
G0 F12000 X131.500 Y52.974
G1 F3600 X131.500 Y91.124 E1350.03486
G0 F12000 X132.000 Y91.124
G1 F3600 X132.000 Y52.974 E1352.41400
G0 F12000 X132.500 Y52.974
G1 F3600 X132.500 Y91.124 E1354.79314
G0 F12000 X133.000 Y91.124
G1 F3600 X133.000 Y52.974 E1357.17228
G0 F12000 X133.500 Y52.974
G1 F3600 X133.500 Y91.124 E1359.55142
G0 F12000 X134.000 Y91.124
G1 F3600 X134.000 Y52.974 E1361.93056
G0 F12000 X134.500 Y52.974
G1 F3600 X134.500 Y91.124 E1364.30969
G0 F12000 X135.000 Y91.124
G1 F3600 X135.000 Y52.974 E1366.68883
G0 F12000 X135.500 Y52.974
G1 F3600 X135.500 Y91.124 E1369.06797
G0 F12000 X136.000 Y91.124
G1 F3600 X136.000 Y52.974 E1371.44711
G0 F12000 X136.500 Y52.974
G1 F3600 X136.500 Y91.124 E1373.82625
G0 F12000 X137.000 Y91.124
G1 F3600 X137.000 Y52.974 E1376.20539
G0 F12000 X137.500 Y52.974
G1 F3600 X137.500 Y91.124 E1378.58453
G0 F12000 X138.000 Y91.124
G1 F3600 X138.000 Y52.974 E1380.96367
G0 F12000 X138.500 Y52.974
G1 F3600 X138.500 Y91.124 E1383.34281
G0 F12000 X139.000 Y91.124
G1 F3600 X139.000 Y52.974 E1385.72195
G0 F12000 X139.500 Y52.974
G1 F3600 X139.500 Y91.124 E1388.10109
G0 F12000 X140.000 Y91.124
G1 F3600 X140.000 Y52.974 E1390.48022
G0 F12000 X140.500 Y52.974
G1 F3600 X140.500 Y91.124 E1392.85936
G0 F12000 X141.000 Y91.124
G1 F3600 X141.000 Y52.974 E1395.23850
G0 F12000 X141.500 Y52.974
G1 F3600 X141.500 Y91.124 E1397.61764
G0 F12000 X142.000 Y91.124
G1 F3600 X142.000 Y52.974 E1399.99678
G0 F12000 X142.500 Y52.974
G1 F3600 X142.500 Y91.124 E1402.37592
G0 F12000 X143.000 Y91.124
G1 F3600 X143.000 Y52.974 E1404.75506
G0 F12000 X143.500 Y52.974
G1 F3600 X143.500 Y91.124 E1407.13420
G0 F12000 X144.000 Y91.124
G1 F3600 X144.000 Y52.974 E1409.51334
G0 F12000 X144.500 Y52.974
G1 F3600 X144.500 Y91.124 E1411.89248
G0 F12000 X145.000 Y91.124
G1 F3600 X145.000 Y52.974 E1414.27161
G0 F12000 X145.500 Y52.974
G1 F3600 X145.500 Y91.124 E1416.65075
G0 F12000 X146.000 Y91.124
G1 F3600 X146.000 Y52.974 E1419.02989
G0 F12000 X146.500 Y52.974
G1 F3600 X146.500 Y91.124 E1421.40903
G0 F12000 X147.000 Y91.124
G1 F3600 X147.000 Y52.974 E1423.78817
G0 F12000 X147.500 Y52.974
G1 F3600 X147.500 Y91.124 E1426.16731
G0 F12000 X148.000 Y91.124
G1 F3600 X148.000 Y52.974 E1428.54645
G0 F12000 X148.500 Y52.974
G1 F3600 X148.500 Y91.124 E1430.92559
G0 F12000 X149.000 Y91.124
G1 F3600 X149.000 Y52.974 E1433.30473
G0 F12000 X149.500 Y52.974
G1 F3600 X149.500 Y91.124 E1435.68387
G0 F12000 X150.000 Y91.124
G1 F3600 X150.000 Y52.974 E1438.06300
G0 F12000 X150.500 Y52.974
G1 F3600 X150.500 Y91.124 E1440.44214
G0 F12000 X151.000 Y91.124
G1 F3600 X151.000 Y52.974 E1442.82128
G0 F12000 X151.500 Y52.974
G1 F3600 X151.500 Y91.124 E1445.20042
G0 F12000 X152.000 Y91.124
G1 F3600 X152.000 Y52.974 E1447.57956
G0 F12000 X152.500 Y52.974
G1 F3600 X152.500 Y91.124 E1449.95870
G0 F12000 X153.000 Y91.124
G1 F3600 X153.000 Y52.974 E1452.33784
G0 F12000 X153.500 Y52.974
G1 F3600 X153.500 Y91.124 E1454.71698
G0 F12000 X154.000 Y91.124
G1 F3600 X154.000 Y52.974 E1457.09612
G0 F12000 X154.500 Y52.974
G1 F3600 X154.500 Y91.124 E1459.47526
G0 F12000 X155.000 Y91.124
G1 F3600 X155.000 Y52.974 E1461.85440
G0 F12000 X155.500 Y52.974
G1 F3600 X155.500 Y91.124 E1464.23353
G0 F12000 X156.000 Y91.124
G1 F3600 X156.000 Y52.974 E1466.61267
G0 F12000 X156.500 Y52.974
G1 F3600 X156.500 Y91.124 E1468.99181
G0 F12000 X157.000 Y91.124
G1 F3600 X157.000 Y52.974 E1471.37095
G0 F12000 X157.500 Y52.974
G1 F3600 X157.500 Y91.124 E1473.75009
G0 F12000 X158.000 Y91.124
G1 F3600 X158.000 Y52.974 E1476.12923
G0 F12000 X158.500 Y52.974
G1 F3600 X158.500 Y91.124 E1478.50837
G0 F12000 X159.000 Y91.124
G1 F3600 X159.000 Y52.974 E1480.88751
G0 F12000 X159.500 Y52.974
G1 F3600 X159.500 Y91.124 E1483.26665
G0 F12000 X160.000 Y91.124
G1 F3600 X160.000 Y52.974 E1485.64579
G0 F12000 X160.500 Y52.974
G1 F3600 X160.500 Y91.124 E1488.02492
G0 F12000 X161.000 Y91.124
G1 F3600 X161.000 Y52.974 E1490.40406
G0 F12000 X161.500 Y52.974
G1 F3600 X161.500 Y91.124 E1492.78320
G0 F12000 X162.000 Y91.124
G1 F3600 X162.000 Y52.974 E1495.16234
G0 F12000 X162.500 Y52.974
G1 F3600 X162.500 Y91.124 E1497.54148
G0 F12000 X163.000 Y91.124
G1 F3600 X163.000 Y52.974 E1499.92062
G0 F12000 X163.500 Y52.974
G1 F3600 X163.500 Y91.124 E1502.29976
G0 F12000 X164.000 Y91.124
G1 F3600 X164.000 Y52.974 E1504.67890
G0 F12000 X164.500 Y52.974
G1 F3600 X164.500 Y91.124 E1507.05804
G0 F12000 X165.000 Y91.124
G1 F3600 X165.000 Y52.974 E1509.43718
G0 F12000 X165.500 Y52.974
G1 F3600 X165.500 Y91.124 E1511.81631
G0 F12000 X166.000 Y91.124
G1 F3600 X166.000 Y52.974 E1514.19545
G0 F12000 X166.500 Y52.974
G1 F3600 X166.500 Y91.124 E1516.57459
G0 F12000 X167.000 Y91.124
G1 F3600 X167.000 Y52.974 E1518.95373
G0 F12000 X167.500 Y52.974
G1 F3600 X167.500 Y91.124 E1521.33287
G0 F12000 X168.000 Y91.124
G1 F3600 X168.000 Y52.974 E1523.71201
G0 F12000 X168.500 Y52.974
G1 F3600 X168.500 Y91.124 E1526.09115
G0 F12000 X169.000 Y91.124
G1 F3600 X169.000 Y52.974 E1528.47029
G0 F12000 X169.500 Y52.974
G1 F3600 X169.500 Y91.124 E1530.84943
G0 F12000 X170.000 Y91.124
G1 F3600 X170.000 Y52.974 E1533.22857
G0 F12000 X170.500 Y52.974
G1 F3600 X170.500 Y91.124 E1535.60771
G0 F12000 X171.000 Y91.124
G1 F3600 X171.000 Y52.974 E1537.98684
G0 F12000 X171.500 Y52.974
G1 F3600 X171.500 Y91.124 E1540.36598
G0 F12000 X172.000 Y91.124
G1 F3600 X172.000 Y52.974 E1542.74512
G0 F12000 X172.500 Y52.974
G1 F3600 X172.500 Y91.124 E1545.12426
G0 F12000 X173.000 Y91.124
G1 F3600 X173.000 Y52.974 E1547.50340
G0 F12000 X173.500 Y52.974
G1 F3600 X173.500 Y91.124 E1549.88254
G0 F12000 X174.000 Y91.124
G1 F3600 X174.000 Y52.974 E1552.26168
G0 F12000 X174.500 Y52.974
G1 F3600 X174.500 Y91.124 E1554.64082
G0 F12000 X175.000 Y91.124
G1 F3600 X175.000 Y52.974 E1557.01996
G0 F12000 X175.500 Y52.974
G1 F3600 X175.500 Y91.124 E1559.39910
G0 F12000 X176.000 Y91.124
G1 F3600 X176.000 Y52.974 E1561.77823
M107
G1 F2100 E1561.37823
G0 F12000 X176.000 Y52.974 Z7.000
;-- END GCODE --
M104 S0     ;extruder heater off
M140 S0     ;heated bed heater off (if you have it)
G91         ;relative positioning
G1 E-1 F300   ;retract the filament a bit before lifting the nozzle, to release some of the pressure
G1 Z+0.5 E-5 X-20 Y-20 F12000 ;move Z up a bit and retract filament even more
G28 X0 Y0     ;move X/Y to min endstops, so the head is out of the way
M84           ;steppers off
G90           ;absolute positioning
;CURA_PROFILE_STRING:eNrtWk1z2zgSvXJc+yNwnKmNtCQlxfGoeEhiO3NIdqbG2lqPLyyIhCRsSIIFgJY/yv99HkCQImXJcTKpTJK1DrbZ6AYar7tfN22zKy0rxUURr3mqV5E/nHhqxbIsLqp8zqSKQo8XCw5ByWTCCk2XLHo+DCdeRq+ZjFeML1cadiNvTaGlVzx5XzClomDoe5JpSRNt9mcFnWcsmsmKeUpkPI3rDTYG/vBFc5a+Llk0OvbsQ8qVpkXCohdeIW5uMhYrfsOgPvZKyQsdq5KxNHruu0fNcvhKdSVZFIY7pGG0QzjaJRzvEk5a4ZylvdMmAK8qSyF1dHLJ5PV6xSTzyozqhZB5TNMVM1hHryTPG804rWgWsyYO0SuhV96alyzWYs1kdEozxTqC+FJkVc6iYOIJcQMsVpxlqVPr4F2DMpp0ZTQXVaEtch2pdcAtBc+HPYucFzEeLlmGePZWEpHPebGsA9q34HnvRv7QD7saK1EamTcXWou8lwBhnVV+nY3xAhZCRoHve2L+P5Yg1Lx4b40F8M1oaZ2HAGjUbrp7h37nhDrRHCB+k2P1s1Gz6Uglox0ZLxTT/rbgqiNIhMgsPi6PeW4ydEGbVE9raHAWzVE3SGN814hoMDyc3BebpLwnHO0SjncJJ13hIhNri5p6z5FhGS8Y4mXj60RLWkajYaPQxCxjxRIkEEzM/cxNFhWAciU+sZL6/mbv9inO6ZWVtIgsIEVJIEmdcMUo6p0vtMvTMI27lf6yQpio5oljBo0M6RBFHcYWzix2wTc1gNrjFgAUI4qMuX2duSsxe8hboKBaES2WYKNxW7Cx3dg6PTa4OOnV9YZ+/OFhK7/pikNPlVzSzLBSfT/F8xI8lYu0kczhZi8QIEe6APRULnkRTYbu2aqokiamtkaNdE4V6xXKqCM3Jg17H9ZykBOTqB62VV1bi11Lt0i5RG7EoPLI70o2GqpyxibtTX/oSXvnHW5ZdI4bI5JXoAIpOWolrgrLTy4hYtoEe7/K3AHb1wEcomRFPOda7VIAK7FC8UtgrLlOVgblWq3MKgQC0UH+LKOGb0zHQ25dRYNgS3QN0T+QAlIPl4mJ88F0MCBns5e/z8ib178en5DB4GB6lvGEpQSZSWbwmrwk76g5lSlyhszFt6BVovpncpvS6zvzVTN8M5xydzB9RRVPCOhHw13188GUvDXYk7owYdRtxdAn/wVKCvJ+RzYrp8hyLPT6qpH/ZvoZOTPljOVOWzWLZ3XSY8GlvxH+3hJ6a7bdfbbUjt15fc268UC1dsFcufXA3f/U8RpBeNPa+5rnnG3eEa1rEJZA1eFFTJGkRBSwBMkAdTBdKQVMsPmbMCDuMwWPSAB9SbOKqYM3R367QudgokozUgrFjdvYGKYvnB34iGhBWJEqUBdMw6MffpgCfLFWNvYUBDfIGPpTZi0DchGg5MlpgEblNzussL+bFUgq1gUJJnlulM/ByOSPCTm97Ta5OzKtc/HgXTD2ydntzqEEWr9JVpJfGNXkFUuh7B+1yn1FqzMTxEihd/TQps1+5uJWv+PnBQhq16WgWlZyyUg7HADlkJwAgRsmhVW2Syn2rZuR2fYUIJHzEHufjKDqNMjIz3MiFsR0GwLgk/cf3I3QJeXFxlXzhVyEkzYQktWQElqkZM6WtfIW7h4C3S36k38fb0oe8I7JWZ06jaumVE3mwduFC5ZTsHJzUtpRIT/yBbkWFVnhUML1T7hXm6XGR+AJCusnY0BOBvB05Pu1ji0wi0FTG4QS0CKp+yQx3RiGVqMeq5+Z+GBzhnohSuTMgGvjJ8EeiLrN23/iFQFHTcj5IASC5su9tLSRvyBV6Y40YDYetd6gGgqSC7MtCukce/mdcjr/1x/GHUwTbVk9g1PWHzNNEK6IqHTj4ppeH7x7MSabz1RpViJflQW9U8x763l661gBvQFJv7zzLL2HLtRfit4fJPd91L6P2Pfz+k5Wfwyp/42U3lolQumulXn+brj8cfT8/0W33SL8OLr9yqnzaJMz3xph1vQ4aiLz99PcFyOa6Qdmo/8UicitPSJC09Q0c2QjWMA0+o4uMa9EZjuTxDtrfv9WO7c5IrNg107hJ23l/3Wn/gInw4fDTW4i1ciag1NsXdKiztJNIeytAqt00S2Vi/sqLYnvHGX2sPksJDs/07O1ebe0kzEsRzJtiFE2lHnf5oOMfBL0zVpiDvYS8+NP2TB1fdbgdvcvCO8OZsGjLh0W39Wl/UddesGl0t/StfvZDh5Fg7AFb9pbDsalmB4w5719fUxUIhkrUJXBYf3rAugMh0PTndsecIKov3mNH+u+PGtfdO45t/vNyNgEn2ATfqTNeL9jn/BG9sDnMRPHQ8bf7Fvc/kt9nmlla9MHZpctzY959Rs/zTZf12wTfr7Z5mlM+mJj0uhRzXMMp7+jieFpNnyaDZ9mwyIdf2uzobEZPc2TT/Pk550n3T8OdP9i3Ao3f0+q/12ip2QlHQ3J0GMTNkzUZeQhCDXNnLi8bCfWmnzmTK9RmfbSSSWlhbhJYRMAG2hIWukzsl7BoK10O0zkVaZ5mbV0IdXwYDpbAVRzmgEX443NcptFZtPZj8VPHjDRX5N/dGEKsHHvT7TElio=

