;-- START GCODE --
;Sliced for Type A Machines Series 1
;Sliced at: Wed 25-04-2018 15:36:26
;Basic settings:
; Layer height: 0.3
; Walls: 1
; Fill: 8
; Print Speed: 60
; Support: 0
; Retraction Speed: 35
; Retraction Distance: 0.4
;Print time: 5 minutes
;Filament used: 0.54m 1.0g
;Settings based on: Type A Machines Everyday PLA
G21        ;metric values
G90        ;absolute positioning
G28     ;move to endstops
G29		;allows for auto-levelling
G1 Z15.0 F12000 ;move the platform down 15mm
G1 X150 Y5 F12000 ;center
M140 S50 ;Prep Heat Bed
M109 S220 ;Heat To temp
M190 S50 ;Heat Bed to temp
G1 X150 Y5 Z0.3 ;move the platform to purge extrusion
G92 E0 ;zero the extruded length
G1 F200 X250 E30 ;extrude 30mm of feed stock
G92 E0 ;zero the extruded length again
G1 X150 Y150  Z25 F12000 ;recenter and begin
G1 F12000

;Layer count: 7
;LAYER:0
M107
G0 F12000 X153.351 Y83.228 Z0.200
;TYPE:SKIRT
G1 F1800 X153.139 Y83.663 E0.02012
G1 X152.962 Y84.101 E0.03976
G1 X152.812 Y84.562 E0.05991
G1 X152.692 Y85.043 E0.08053
G1 X152.611 Y85.505 E0.10003
G1 X152.560 Y85.987 E0.12018
G1 X152.544 Y86.467 E0.14014
G1 X152.560 Y86.947 E0.16011
G1 X152.611 Y87.427 E0.18018
G1 X152.693 Y87.893 E0.19985
G1 X152.815 Y88.382 E0.22080
G1 X152.959 Y88.827 E0.24025
G1 X153.139 Y89.272 E0.26021
G1 X153.351 Y89.707 E0.28033
G1 X153.585 Y90.112 E0.29977
G1 X153.868 Y90.532 E0.32083
G1 X154.155 Y90.899 E0.34020
G1 X154.473 Y91.252 E0.35995
G1 X154.830 Y91.597 E0.38059
G1 X155.192 Y91.901 E0.40024
G1 X155.589 Y92.190 E0.42066
G1 X155.990 Y92.440 E0.44031
G1 X156.413 Y92.665 E0.46023
G1 X156.862 Y92.865 E0.48066
G1 X157.299 Y93.024 E0.49999
G1 X157.781 Y93.162 E0.52084
G1 X158.233 Y93.258 E0.54005
G1 X158.725 Y93.327 E0.56071
G1 X159.195 Y93.360 E0.58029
G1 X159.684 Y93.360 E0.60062
G1 X160.157 Y93.327 E0.62034
G1 X160.639 Y93.259 E0.64057
G1 X161.112 Y93.159 E0.66067
G1 X161.564 Y93.029 E0.68023
G1 X162.025 Y92.861 E0.70063
G1 X162.469 Y92.664 E0.72082
G1 X162.879 Y92.445 E0.74015
G1 X163.300 Y92.183 E0.76076
G1 X163.688 Y91.901 E0.78070
G1 X164.050 Y91.597 E0.80036
G1 X164.407 Y91.252 E0.82100
G1 X164.726 Y90.899 E0.84078
G1 X165.011 Y90.533 E0.86006
G1 X165.295 Y90.111 E0.88121
G1 X165.529 Y89.707 E0.90062
G1 X165.741 Y89.272 E0.92074
G1 X165.921 Y88.827 E0.94070
G1 X166.065 Y88.382 E0.96014
G1 X166.187 Y87.893 E0.98110
G1 X166.269 Y87.427 E1.00077
G1 X166.320 Y86.947 E1.02084
G1 X166.337 Y86.467 E1.04081
G1 X166.320 Y85.987 E1.06077
G1 X166.269 Y85.505 E1.08093
G1 X166.188 Y85.043 E1.10043
G1 X166.068 Y84.562 E1.12104
G1 X165.918 Y84.101 E1.14119
G1 X165.741 Y83.663 E1.16083
G1 X165.529 Y83.228 E1.18095
G1 X165.295 Y82.824 E1.20036
G1 X165.011 Y82.402 E1.22151
G1 X164.726 Y82.037 E1.24076
G1 X164.406 Y81.681 E1.26066
G1 X164.050 Y81.338 E1.28122
G1 X163.688 Y81.034 E1.30087
G1 X163.293 Y80.747 E1.32117
G1 X162.883 Y80.490 E1.34129
G1 X162.469 Y80.270 E1.36078
G1 X162.026 Y80.073 E1.38094
G1 X161.564 Y79.905 E1.40137
G1 X161.112 Y79.775 E1.42093
G1 X160.639 Y79.675 E1.44103
G1 X160.157 Y79.607 E1.46126
G1 X159.684 Y79.574 E1.48098
G1 X159.195 Y79.574 E1.50131
G1 X158.725 Y79.607 E1.52090
G1 X158.233 Y79.676 E1.54155
G1 X157.781 Y79.772 E1.56076
G1 X157.299 Y79.910 E1.58161
G1 X156.861 Y80.070 E1.60099
G1 X156.414 Y80.269 E1.62134
G1 X155.997 Y80.490 E1.64096
G1 X155.587 Y80.747 E1.66108
G1 X155.192 Y81.034 E1.68137
G1 X154.830 Y81.338 E1.70103
G1 X154.474 Y81.681 E1.72158
G1 X154.154 Y82.037 E1.74148
G1 X153.868 Y82.403 E1.76079
G1 X153.585 Y82.823 E1.78185
G1 X153.351 Y83.228 E1.80130
G0 F12000 X152.912 Y82.988
G1 F1800 X152.684 Y83.457 E1.82298
G1 X152.488 Y83.942 E1.84472
G1 X152.329 Y84.431 E1.86610
G1 X152.207 Y84.920 E1.88706
G1 X152.115 Y85.439 E1.90897
G1 X152.060 Y85.961 E1.93079
G1 X152.043 Y86.467 E1.95184
G1 X152.060 Y86.974 E1.97293
G1 X152.117 Y87.507 E1.99522
G1 X152.204 Y88.002 E2.01611
G1 X152.328 Y88.499 E2.03741
G1 X152.490 Y88.998 E2.05922
G1 X152.684 Y89.478 E2.08075
G1 X152.912 Y89.947 E2.10243
G1 X153.166 Y90.386 E2.12351
G1 X153.454 Y90.812 E2.14489
G1 X153.775 Y91.225 E2.16664
G1 X154.121 Y91.608 E2.18810
G1 X154.485 Y91.960 E2.20915
G1 X154.889 Y92.299 E2.23107
G1 X155.301 Y92.599 E2.25226
G1 X155.743 Y92.874 E2.27391
G1 X156.203 Y93.119 E2.29557
G1 X156.666 Y93.325 E2.31664
G1 X157.152 Y93.502 E2.33815
G1 X157.650 Y93.645 E2.35969
G1 X158.147 Y93.751 E2.38082
G1 X158.665 Y93.823 E2.40256
G1 X159.189 Y93.860 E2.42440
G1 X159.690 Y93.860 E2.44523
G1 X160.217 Y93.823 E2.46719
G1 X160.728 Y93.751 E2.48865
G1 X161.226 Y93.645 E2.50981
G1 X161.728 Y93.502 E2.53152
G1 X162.217 Y93.324 E2.55315
G1 X162.679 Y93.118 E2.57418
G1 X163.144 Y92.871 E2.59607
G1 X163.575 Y92.601 E2.61722
G1 X163.988 Y92.302 E2.63841
G1 X164.395 Y91.960 E2.66052
G1 X164.759 Y91.608 E2.68157
G1 X165.103 Y91.226 E2.70294
G1 X165.427 Y90.812 E2.72480
G1 X165.715 Y90.384 E2.74624
G1 X165.968 Y89.947 E2.76724
G1 X166.196 Y89.478 E2.78892
G1 X166.390 Y88.998 E2.81044
G1 X166.552 Y88.499 E2.83226
G1 X166.676 Y88.002 E2.85355
G1 X166.763 Y87.507 E2.87445
G1 X166.819 Y86.974 E2.89673
G1 X166.838 Y86.467 E2.91782
G1 X166.819 Y85.961 E2.93887
G1 X166.765 Y85.439 E2.96069
G1 X166.673 Y84.920 E2.98261
G1 X166.551 Y84.431 E3.00356
G1 X166.392 Y83.942 E3.02494
G1 X166.196 Y83.457 E3.04669
G1 X165.968 Y82.988 E3.06837
G1 X165.715 Y82.551 E3.08936
G1 X165.427 Y82.123 E3.11081
G1 X165.104 Y81.709 E3.13264
G1 X164.765 Y81.333 E3.15369
G1 X164.388 Y80.969 E3.17547
G1 X163.988 Y80.633 E3.19719
G1 X163.579 Y80.336 E3.21821
G1 X163.136 Y80.060 E3.23991
G1 X162.683 Y79.818 E3.26126
G1 X162.212 Y79.609 E3.28268
G1 X161.728 Y79.432 E3.30411
G1 X161.226 Y79.289 E3.32581
G1 X160.728 Y79.183 E3.34698
G1 X160.217 Y79.111 E3.36843
G1 X159.690 Y79.074 E3.39040
G1 X159.189 Y79.074 E3.41122
G1 X158.665 Y79.111 E3.43306
G1 X158.147 Y79.183 E3.45481
G1 X157.650 Y79.289 E3.47594
G1 X157.161 Y79.429 E3.49708
G1 X156.663 Y79.611 E3.51913
G1 X156.199 Y79.817 E3.54023
G1 X155.750 Y80.056 E3.56138
G1 X155.298 Y80.339 E3.58355
G1 X154.889 Y80.636 E3.60457
G1 X154.492 Y80.969 E3.62611
G1 X154.115 Y81.333 E3.64790
G1 X153.775 Y81.711 E3.66903
G1 X153.454 Y82.123 E3.69075
G1 X153.166 Y82.549 E3.71213
G1 X152.912 Y82.988 E3.73321
G0 F12000 X152.462 Y82.770
G1 F1800 X152.225 Y83.255 E3.75566
G1 X152.022 Y83.758 E3.77821
G1 X151.846 Y84.300 E3.80190
G1 X151.715 Y84.823 E3.82431
G1 X151.619 Y85.371 E3.84744
G1 X151.563 Y85.906 E3.86981
G1 X151.543 Y86.467 E3.89315
G1 X151.563 Y87.029 E3.91653
G1 X151.619 Y87.561 E3.93877
G1 X151.716 Y88.113 E3.96207
G1 X151.847 Y88.639 E3.98460
G1 X152.021 Y89.174 E4.00799
G1 X152.225 Y89.678 E4.03060
G1 X152.462 Y90.165 E4.05312
G1 X152.747 Y90.659 E4.07683
G1 X153.052 Y91.110 E4.09946
G1 X153.391 Y91.544 E4.12236
G1 X153.762 Y91.956 E4.14541
G1 X154.154 Y92.335 E4.16808
G1 X154.582 Y92.695 E4.19133
G1 X155.016 Y93.010 E4.21363
G1 X155.490 Y93.305 E4.23684
G1 X155.977 Y93.565 E4.25979
G1 X156.491 Y93.794 E4.28318
G1 X156.988 Y93.975 E4.30517
G1 X157.536 Y94.132 E4.32887
G1 X158.060 Y94.243 E4.35114
G1 X158.616 Y94.321 E4.37448
G1 X159.168 Y94.360 E4.39749
G1 X159.711 Y94.360 E4.42007
G1 X160.263 Y94.321 E4.44307
G1 X160.817 Y94.244 E4.46633
G1 X161.350 Y94.130 E4.48899
G1 X161.883 Y93.978 E4.51203
G1 X162.403 Y93.788 E4.53505
G1 X162.894 Y93.570 E4.55738
G1 X163.398 Y93.302 E4.58112
G1 X163.851 Y93.019 E4.60332
G1 X164.304 Y92.690 E4.62660
G1 X164.726 Y92.335 E4.64953
G1 X165.118 Y91.956 E4.67219
G1 X165.488 Y91.546 E4.69516
G1 X165.831 Y91.106 E4.71835
G1 X166.132 Y90.661 E4.74069
G1 X166.418 Y90.165 E4.76449
G1 X166.655 Y89.678 E4.78701
G1 X166.859 Y89.174 E4.80961
G1 X167.033 Y88.639 E4.83300
G1 X167.164 Y88.113 E4.85554
G1 X167.261 Y87.561 E4.87884
G1 X167.317 Y87.029 E4.90108
G1 X167.337 Y86.467 E4.92446
G1 X167.317 Y85.906 E4.94780
G1 X167.261 Y85.371 E4.97016
G1 X167.165 Y84.823 E4.99329
G1 X167.034 Y84.300 E5.01571
G1 X166.858 Y83.758 E5.03940
G1 X166.655 Y83.255 E5.06195
G1 X166.418 Y82.770 E5.08439
G1 X166.132 Y82.274 E5.10820
G1 X165.831 Y81.829 E5.13053
G1 X165.482 Y81.382 E5.15411
G1 X165.131 Y80.991 E5.17596
G1 X164.719 Y80.594 E5.19974
G1 X164.304 Y80.245 E5.22229
G1 X163.854 Y79.919 E5.24539
G1 X163.390 Y79.629 E5.26814
G1 X162.898 Y79.367 E5.29131
G1 X162.394 Y79.143 E5.31424
G1 X161.888 Y78.958 E5.33664
G1 X161.350 Y78.804 E5.35991
G1 X160.817 Y78.690 E5.38257
G1 X160.263 Y78.613 E5.40582
G1 X159.711 Y78.574 E5.42883
G1 X159.168 Y78.574 E5.45140
G1 X158.616 Y78.613 E5.47441
G1 X158.060 Y78.691 E5.49775
G1 X157.536 Y78.802 E5.52002
G1 X156.996 Y78.957 E5.54338
G1 X156.476 Y79.147 E5.56640
G1 X155.984 Y79.365 E5.58877
G1 X155.497 Y79.625 E5.61172
G1 X155.012 Y79.927 E5.63547
G1 X154.582 Y80.240 E5.65759
G1 X154.161 Y80.594 E5.68046
G1 X153.749 Y80.991 E5.70424
G1 X153.396 Y81.383 E5.72617
G1 X153.052 Y81.825 E5.74946
G1 X152.747 Y82.276 E5.77210
G1 X152.462 Y82.770 E5.79581
G0 F12000 X152.023 Y82.530
G1 F1800 X151.770 Y83.049 E5.81981
G1 X151.548 Y83.599 E5.84447
G1 X151.367 Y84.156 E5.86882
G1 X151.227 Y84.716 E5.89282
G1 X151.124 Y85.302 E5.91755
G1 X151.063 Y85.880 E5.94172
G1 X151.043 Y86.467 E5.96614
G1 X151.063 Y87.055 E5.99060
G1 X151.123 Y87.630 E6.01463
G1 X151.228 Y88.220 E6.03955
G1 X151.365 Y88.770 E6.06311
G1 X151.551 Y89.345 E6.08824
G1 X151.770 Y89.886 E6.11250
G1 X152.023 Y90.405 E6.13651
G1 X152.322 Y90.922 E6.16134
G1 X152.644 Y91.400 E6.18530
G1 X153.011 Y91.870 E6.21009
G1 X153.396 Y92.298 E6.23403
G1 X153.824 Y92.711 E6.25875
G1 X154.273 Y93.088 E6.28313
G1 X154.744 Y93.430 E6.30733
G1 X155.237 Y93.737 E6.33147
G1 X155.762 Y94.017 E6.35621
G1 X156.287 Y94.251 E6.38011
G1 X156.850 Y94.456 E6.40502
G1 X157.409 Y94.616 E6.42919
G1 X157.985 Y94.738 E6.45367
G1 X158.556 Y94.818 E6.47764
G1 X159.147 Y94.860 E6.50227
G1 X159.732 Y94.860 E6.52660
G1 X160.311 Y94.819 E6.55073
G1 X160.904 Y94.736 E6.57562
G1 X161.477 Y94.614 E6.59998
G1 X162.034 Y94.455 E6.62406
G1 X162.577 Y94.257 E6.64809
G1 X163.125 Y94.013 E6.67303
G1 X163.639 Y93.739 E6.69725
G1 X164.142 Y93.426 E6.72188
G1 X164.604 Y93.090 E6.74563
G1 X165.056 Y92.711 E6.77015
G1 X165.484 Y92.298 E6.79488
G1 X165.873 Y91.865 E6.81908
G1 X166.229 Y91.410 E6.84310
G1 X166.561 Y90.916 E6.86784
G1 X166.857 Y90.405 E6.89240
G1 X167.110 Y89.886 E6.91640
G1 X167.329 Y89.345 E6.94067
G1 X167.515 Y88.770 E6.96579
G1 X167.652 Y88.220 E6.98936
G1 X167.757 Y87.630 E7.01427
G1 X167.817 Y87.055 E7.03831
G1 X167.838 Y86.467 E7.06277
G1 X167.817 Y85.880 E7.08719
G1 X167.756 Y85.302 E7.11135
G1 X167.653 Y84.716 E7.13609
G1 X167.513 Y84.156 E7.16009
G1 X167.332 Y83.599 E7.18444
G1 X167.110 Y83.049 E7.20910
G1 X166.857 Y82.530 E7.23310
G1 X166.561 Y82.019 E7.25765
G1 X166.229 Y81.525 E7.28240
G1 X165.874 Y81.071 E7.30636
G1 X165.483 Y80.635 E7.33071
G1 X165.056 Y80.225 E7.35532
G1 X164.604 Y79.845 E7.37987
G1 X164.140 Y79.507 E7.40373
G1 X163.639 Y79.194 E7.42829
G1 X163.118 Y78.917 E7.45283
G1 X162.593 Y78.684 E7.47671
G1 X162.026 Y78.477 E7.50180
G1 X161.477 Y78.320 E7.52554
G1 X160.904 Y78.198 E7.54990
G1 X160.311 Y78.115 E7.57479
G1 X159.732 Y78.074 E7.59892
G1 X159.147 Y78.074 E7.62325
G1 X158.556 Y78.116 E7.64788
G1 X157.985 Y78.196 E7.67185
G1 X157.409 Y78.318 E7.69633
G1 X156.845 Y78.480 E7.72072
G1 X156.302 Y78.678 E7.74475
G1 X155.753 Y78.922 E7.76973
G1 X155.237 Y79.196 E7.79402
G1 X154.746 Y79.503 E7.81810
G1 X154.273 Y79.847 E7.84241
G1 X153.824 Y80.225 E7.86681
G1 X153.397 Y80.635 E7.89142
G1 X153.011 Y81.066 E7.91548
G1 X152.644 Y81.535 E7.94024
G1 X152.322 Y82.013 E7.96420
G1 X152.023 Y82.530 E7.98903
G0 F12000 X151.581 Y82.295
G1 F1800 X151.311 Y82.848 E8.01462
G1 X151.082 Y83.415 E8.04004
G1 X150.885 Y84.021 E8.06653
G1 X150.736 Y84.620 E8.09219
G1 X150.629 Y85.224 E8.11770
G1 X150.563 Y85.852 E8.14395
G1 X150.542 Y86.467 E8.16953
G1 X150.564 Y87.083 E8.19516
G1 X150.629 Y87.711 E8.22141
G1 X150.736 Y88.314 E8.24687
G1 X150.887 Y88.918 E8.27275
G1 X151.081 Y89.516 E8.29889
G1 X151.311 Y90.087 E8.32448
G1 X151.581 Y90.640 E8.35007
G1 X151.894 Y91.182 E8.37609
G1 X152.246 Y91.704 E8.40227
G1 X152.625 Y92.189 E8.42786
G1 X153.037 Y92.647 E8.45347
G1 X153.485 Y93.080 E8.47937
G1 X153.957 Y93.475 E8.50496
G1 X154.468 Y93.848 E8.53126
G1 X154.983 Y94.169 E8.55649
G1 X155.552 Y94.471 E8.58327
G1 X156.096 Y94.714 E8.60805
G1 X156.700 Y94.933 E8.63476
G1 X157.281 Y95.100 E8.65989
G1 X157.898 Y95.231 E8.68611
G1 X158.508 Y95.317 E8.71172
G1 X159.126 Y95.360 E8.73748
G1 X159.753 Y95.360 E8.76355
G1 X160.371 Y95.317 E8.78930
G1 X160.979 Y95.231 E8.81483
G1 X161.591 Y95.101 E8.84084
G1 X162.198 Y94.927 E8.86710
G1 X162.769 Y94.720 E8.89235
G1 X163.335 Y94.467 E8.91812
G1 X163.893 Y94.170 E8.94440
G1 X164.418 Y93.843 E8.97012
G1 X164.920 Y93.478 E8.99592
G1 X165.395 Y93.080 E9.02169
G1 X165.843 Y92.647 E9.04759
G1 X166.252 Y92.192 E9.07303
G1 X166.638 Y91.698 E9.09909
G1 X166.985 Y91.184 E9.12487
G1 X167.299 Y90.640 E9.15099
G1 X167.569 Y90.087 E9.17657
G1 X167.799 Y89.516 E9.20217
G1 X167.993 Y88.918 E9.22830
G1 X168.144 Y88.314 E9.25419
G1 X168.251 Y87.711 E9.27965
G1 X168.317 Y87.083 E9.30590
G1 X168.339 Y86.467 E9.33153
G1 X168.317 Y85.852 E9.35711
G1 X168.251 Y85.224 E9.38337
G1 X168.144 Y84.620 E9.40887
G1 X167.995 Y84.021 E9.43453
G1 X167.798 Y83.415 E9.46102
G1 X167.569 Y82.848 E9.48645
G1 X167.299 Y82.295 E9.51203
G1 X166.985 Y81.751 E9.53815
G1 X166.638 Y81.237 E9.56393
G1 X166.259 Y80.751 E9.58955
G1 X165.842 Y80.287 E9.61549
G1 X165.387 Y79.849 E9.64175
G1 X164.920 Y79.457 E9.66710
G1 X164.409 Y79.086 E9.69335
G1 X163.900 Y78.767 E9.71832
G1 X163.333 Y78.465 E9.74503
G1 X162.774 Y78.217 E9.77046
G1 X162.195 Y78.006 E9.79608
G1 X161.591 Y77.833 E9.82220
G1 X160.979 Y77.703 E9.84821
G1 X160.371 Y77.617 E9.87374
G1 X159.753 Y77.574 E9.89950
G1 X159.126 Y77.574 E9.92556
G1 X158.508 Y77.617 E9.95132
G1 X157.898 Y77.703 E9.97693
G1 X157.281 Y77.834 E10.00315
G1 X156.702 Y78.000 E10.02820
G1 X156.108 Y78.217 E10.05449
G1 X155.538 Y78.470 E10.08042
G1 X154.983 Y78.765 E10.10655
G1 X154.471 Y79.086 E10.13167
G1 X153.957 Y79.460 E10.15810
G1 X153.493 Y79.849 E10.18327
G1 X153.038 Y80.287 E10.20953
G1 X152.618 Y80.755 E10.23567
G1 X152.246 Y81.231 E10.26079
G1 X151.894 Y81.753 E10.28697
G1 X151.581 Y82.295 E10.31299
G0 F12000 X151.142 Y82.055
G1 F1800 X150.856 Y82.642 E10.34013
G1 X150.608 Y83.256 E10.36766
G1 X150.406 Y83.877 E10.39481
G1 X150.247 Y84.512 E10.42203
G1 X150.134 Y85.155 E10.44917
G1 X150.065 Y85.811 E10.47660
G1 X150.043 Y86.467 E10.50388
G1 X150.065 Y87.124 E10.53121
G1 X150.134 Y87.777 E10.55851
G1 X150.248 Y88.424 E10.58583
G1 X150.407 Y89.062 E10.61316
G1 X150.606 Y89.675 E10.63996
G1 X150.856 Y90.293 E10.66768
G1 X151.142 Y90.880 E10.69482
G1 X151.469 Y91.445 E10.72196
G1 X151.839 Y91.994 E10.74949
G1 X152.239 Y92.507 E10.77653
G1 X152.685 Y93.002 E10.80423
G1 X153.148 Y93.449 E10.83099
G1 X153.657 Y93.876 E10.85861
G1 X154.177 Y94.255 E10.88536
G1 X154.748 Y94.610 E10.91332
G1 X155.314 Y94.911 E10.93997
G1 X155.921 Y95.182 E10.96761
G1 X156.536 Y95.406 E10.99482
G1 X157.167 Y95.587 E11.02211
G1 X157.809 Y95.723 E11.04939
G1 X158.462 Y95.815 E11.07681
G1 X159.106 Y95.860 E11.10365
G1 X159.773 Y95.860 E11.13138
G1 X160.419 Y95.815 E11.15830
G1 X161.066 Y95.724 E11.18547
G1 X161.715 Y95.586 E11.21305
G1 X162.353 Y95.403 E11.24065
G1 X162.956 Y95.184 E11.26732
G1 X163.561 Y94.914 E11.29486
G1 X164.136 Y94.608 E11.32194
G1 X164.703 Y94.255 E11.34971
G1 X165.220 Y93.879 E11.37629
G1 X165.732 Y93.449 E11.40409
G1 X166.195 Y93.002 E11.43084
G1 X166.637 Y92.511 E11.45831
G1 X167.048 Y91.986 E11.48603
G1 X167.409 Y91.450 E11.51290
G1 X167.738 Y90.880 E11.54026
G1 X168.024 Y90.293 E11.56741
G1 X168.274 Y89.675 E11.59512
G1 X168.473 Y89.062 E11.62192
G1 X168.632 Y88.424 E11.64925
G1 X168.746 Y87.777 E11.67657
G1 X168.815 Y87.124 E11.70387
G1 X168.838 Y86.467 E11.73120
G1 X168.815 Y85.811 E11.75849
G1 X168.746 Y85.155 E11.78591
G1 X168.633 Y84.512 E11.81306
G1 X168.474 Y83.877 E11.84027
G1 X168.272 Y83.256 E11.86742
G1 X168.024 Y82.642 E11.89495
G1 X167.738 Y82.055 E11.92210
G1 X167.409 Y81.485 E11.94946
G1 X167.048 Y80.949 E11.97633
G1 X166.632 Y80.417 E12.00440
G1 X166.208 Y79.946 E12.03075
G1 X165.725 Y79.480 E12.05866
G1 X165.220 Y79.056 E12.08607
G1 X164.704 Y78.682 E12.11257
G1 X164.132 Y78.324 E12.14062
G1 X163.559 Y78.019 E12.16761
G1 X162.961 Y77.753 E12.19482
G1 X162.350 Y77.530 E12.22186
G1 X161.715 Y77.348 E12.24932
G1 X161.066 Y77.210 E12.27691
G1 X160.419 Y77.119 E12.30407
G1 X159.773 Y77.074 E12.33099
G1 X159.106 Y77.074 E12.35872
G1 X158.462 Y77.119 E12.38556
G1 X157.809 Y77.211 E12.41298
G1 X157.167 Y77.347 E12.44026
G1 X156.538 Y77.528 E12.46748
G1 X155.916 Y77.754 E12.49499
G1 X155.317 Y78.021 E12.52226
G1 X154.740 Y78.328 E12.54943
G1 X154.185 Y78.674 E12.57662
G1 X153.657 Y79.059 E12.60379
G1 X153.155 Y79.480 E12.63103
G1 X152.672 Y79.946 E12.65893
G1 X152.245 Y80.421 E12.68548
G1 X151.839 Y80.941 E12.71291
G1 X151.469 Y81.490 E12.74044
G1 X151.142 Y82.055 E12.76758
G0 F12000 X150.697 Y81.825
G1 F1800 X150.398 Y82.440 E12.79601
G1 X150.137 Y83.085 E12.82494
G1 X149.928 Y83.729 E12.85309
G1 X149.759 Y84.405 E12.88206
G1 X149.636 Y85.101 E12.91144
G1 X149.566 Y85.771 E12.93945
G1 X149.542 Y86.467 E12.96840
G1 X149.566 Y87.164 E12.99740
G1 X149.638 Y87.845 E13.02587
G1 X149.756 Y88.517 E13.05423
G1 X149.925 Y89.192 E13.08316
G1 X150.142 Y89.863 E13.11248
G1 X150.398 Y90.495 E13.14083
G1 X150.697 Y91.110 E13.16926
G1 X151.049 Y91.718 E13.19847
G1 X151.430 Y92.282 E13.22677
G1 X151.860 Y92.834 E13.25586
G1 X152.312 Y93.336 E13.28394
G1 X152.825 Y93.831 E13.31358
G1 X153.340 Y94.264 E13.34155
G1 X153.905 Y94.675 E13.37060
G1 X154.490 Y95.039 E13.39925
G1 X155.104 Y95.366 E13.42817
G1 X155.725 Y95.643 E13.45644
G1 X156.389 Y95.884 E13.48581
G1 X157.039 Y96.071 E13.51393
G1 X157.722 Y96.216 E13.54295
G1 X158.400 Y96.311 E13.57142
G1 X159.099 Y96.360 E13.60055
G1 X159.780 Y96.360 E13.62886
G1 X160.479 Y96.311 E13.65799
G1 X161.155 Y96.216 E13.68638
G1 X161.843 Y96.070 E13.71562
G1 X162.491 Y95.884 E13.74365
G1 X163.147 Y95.645 E13.77267
G1 X163.783 Y95.362 E13.80161
G1 X164.383 Y95.043 E13.82987
G1 X164.977 Y94.672 E13.85898
G1 X165.542 Y94.262 E13.88800
G1 X166.055 Y93.831 E13.91586
G1 X166.568 Y93.336 E13.94550
G1 X167.016 Y92.838 E13.97335
G1 X167.452 Y92.280 E14.00279
G1 X167.833 Y91.716 E14.03109
G1 X168.183 Y91.110 E14.06018
G1 X168.482 Y90.495 E14.08861
G1 X168.738 Y89.863 E14.11696
G1 X168.955 Y89.192 E14.14628
G1 X169.124 Y88.517 E14.17521
G1 X169.242 Y87.845 E14.20358
G1 X169.314 Y87.164 E14.23205
G1 X169.339 Y86.467 E14.26104
G1 X169.314 Y85.771 E14.29000
G1 X169.244 Y85.101 E14.31801
G1 X169.121 Y84.405 E14.34739
G1 X168.952 Y83.729 E14.37636
G1 X168.743 Y83.085 E14.40451
G1 X168.482 Y82.440 E14.43344
G1 X168.183 Y81.825 E14.46187
G1 X167.833 Y81.219 E14.49096
G1 X167.452 Y80.655 E14.51926
G1 X167.016 Y80.097 E14.54870
G1 X166.567 Y79.597 E14.57664
G1 X166.056 Y79.104 E14.60616
G1 X165.542 Y78.673 E14.63405
G1 X164.973 Y78.260 E14.66328
G1 X164.386 Y77.893 E14.69206
G1 X163.773 Y77.567 E14.72093
G1 X163.155 Y77.292 E14.74905
G1 X162.493 Y77.050 E14.77835
G1 X161.843 Y76.864 E14.80646
G1 X161.155 Y76.718 E14.83570
G1 X160.479 Y76.623 E14.86408
G1 X159.780 Y76.574 E14.89322
G1 X159.099 Y76.574 E14.92153
G1 X158.400 Y76.623 E14.95066
G1 X157.722 Y76.718 E14.97912
G1 X157.039 Y76.863 E15.00815
G1 X156.387 Y77.050 E15.03635
G1 X155.730 Y77.290 E15.06543
G1 X155.102 Y77.569 E15.09400
G1 X154.487 Y77.897 E15.12298
G1 X153.910 Y78.257 E15.15126
G1 X153.340 Y78.671 E15.18054
G1 X152.824 Y79.104 E15.20855
G1 X152.313 Y79.597 E15.23807
G1 X151.860 Y80.101 E15.26624
G1 X151.430 Y80.653 E15.29533
G1 X151.049 Y81.217 E15.32363
G1 X150.697 Y81.825 E15.35284
G0 F12000 X150.258 Y81.585
G1 F1800 X149.942 Y82.234 E15.38285
G1 X149.667 Y82.914 E15.41335
G1 X149.445 Y83.598 E15.44324
G1 X149.268 Y84.309 E15.47371
G1 X149.142 Y85.021 E15.50377
G1 X149.066 Y85.744 E15.53399
G1 X149.041 Y86.467 E15.56407
G1 X149.066 Y87.191 E15.59419
G1 X149.142 Y87.914 E15.62441
G1 X149.268 Y88.625 E15.65443
G1 X149.445 Y89.336 E15.68489
G1 X149.668 Y90.021 E15.71484
G1 X149.942 Y90.701 E15.74532
G1 X150.258 Y91.350 E15.77534
G1 X150.623 Y91.981 E15.80564
G1 X151.022 Y92.572 E15.83529
G1 X151.475 Y93.152 E15.86589
G1 X151.968 Y93.699 E15.89650
G1 X152.479 Y94.193 E15.92605
G1 X153.038 Y94.663 E15.95641
G1 X153.623 Y95.088 E15.98648
G1 X154.236 Y95.470 E16.01651
G1 X154.883 Y95.814 E16.04697
G1 X155.545 Y96.110 E16.07712
G1 X156.222 Y96.355 E16.10705
G1 X156.926 Y96.558 E16.13751
G1 X157.636 Y96.708 E16.16768
G1 X158.354 Y96.809 E16.19783
G1 X159.078 Y96.860 E16.22800
G1 X159.801 Y96.860 E16.25806
G1 X160.525 Y96.809 E16.28824
G1 X161.244 Y96.708 E16.31842
G1 X161.957 Y96.557 E16.34872
G1 X162.655 Y96.357 E16.37891
G1 X163.334 Y96.110 E16.40895
G1 X163.998 Y95.814 E16.43917
G1 X164.648 Y95.468 E16.46979
G1 X165.253 Y95.091 E16.49943
G1 X165.842 Y94.662 E16.52972
G1 X166.401 Y94.193 E16.56006
G1 X166.912 Y93.699 E16.58961
G1 X167.408 Y93.150 E16.62037
G1 X167.855 Y92.577 E16.65058
G1 X168.258 Y91.978 E16.68060
G1 X168.622 Y91.350 E16.71077
G1 X168.938 Y90.701 E16.74078
G1 X169.212 Y90.021 E16.77126
G1 X169.435 Y89.336 E16.80121
G1 X169.612 Y88.625 E16.83168
G1 X169.738 Y87.914 E16.86170
G1 X169.814 Y87.191 E16.89192
G1 X169.839 Y86.467 E16.92204
G1 X169.814 Y85.744 E16.95212
G1 X169.738 Y85.021 E16.98234
G1 X169.612 Y84.309 E17.01240
G1 X169.435 Y83.598 E17.04286
G1 X169.213 Y82.914 E17.07276
G1 X168.938 Y82.234 E17.10326
G1 X168.622 Y81.585 E17.13327
G1 X168.258 Y80.957 E17.16345
G1 X167.855 Y80.358 E17.19346
G1 X167.401 Y79.777 E17.22412
G1 X166.926 Y79.249 E17.25364
G1 X166.393 Y78.735 E17.28443
G1 X165.842 Y78.273 E17.31432
G1 X165.258 Y77.849 E17.34433
G1 X164.640 Y77.462 E17.37464
G1 X163.988 Y77.115 E17.40535
G1 X163.342 Y76.828 E17.43474
G1 X162.657 Y76.578 E17.46506
G1 X161.957 Y76.377 E17.49533
G1 X161.244 Y76.226 E17.52564
G1 X160.525 Y76.125 E17.55582
G1 X159.801 Y76.074 E17.58600
G1 X159.078 Y76.074 E17.61606
G1 X158.354 Y76.125 E17.64623
G1 X157.636 Y76.226 E17.67637
G1 X156.926 Y76.376 E17.70654
G1 X156.214 Y76.581 E17.73735
G1 X155.548 Y76.824 E17.76682
G1 X154.887 Y77.117 E17.79688
G1 X154.233 Y77.466 E17.82770
G1 X153.627 Y77.844 E17.85740
G1 X153.038 Y78.272 E17.88767
G1 X152.487 Y78.735 E17.91759
G1 X151.954 Y79.249 E17.94837
G1 X151.481 Y79.775 E17.97778
G1 X151.022 Y80.363 E18.00880
G1 X150.623 Y80.954 E18.03844
G1 X150.258 Y81.585 E18.06875
G0 F12000 X149.816 Y81.350
G1 F1800 X149.484 Y82.033 E18.10032
G1 X149.199 Y82.738 E18.13194
G1 X148.966 Y83.454 E18.16324
G1 X148.779 Y84.202 E18.19530
G1 X148.647 Y84.954 E18.22704
G1 X148.568 Y85.702 E18.25831
G1 X148.542 Y86.467 E18.29013
G1 X148.568 Y87.233 E18.32200
G1 X148.647 Y87.981 E18.35327
G1 X148.779 Y88.732 E18.38497
G1 X148.967 Y89.484 E18.41720
G1 X149.197 Y90.193 E18.44819
G1 X149.484 Y90.902 E18.47999
G1 X149.816 Y91.585 E18.51156
G1 X150.190 Y92.231 E18.54259
G1 X150.632 Y92.886 E18.57545
G1 X151.088 Y93.471 E18.60628
G1 X151.602 Y94.041 E18.63819
G1 X152.148 Y94.569 E18.66977
G1 X152.731 Y95.058 E18.70141
G1 X153.332 Y95.495 E18.73230
G1 X154.000 Y95.912 E18.76504
G1 X154.656 Y96.261 E18.79593
G1 X155.359 Y96.574 E18.82793
G1 X156.071 Y96.833 E18.85943
G1 X156.799 Y97.042 E18.89092
G1 X157.549 Y97.201 E18.92279
G1 X158.306 Y97.307 E18.95457
G1 X159.058 Y97.360 E18.98591
G1 X159.821 Y97.360 E19.01763
G1 X160.573 Y97.307 E19.04898
G1 X161.331 Y97.201 E19.08080
G1 X162.080 Y97.042 E19.11263
G1 X162.809 Y96.833 E19.14416
G1 X163.526 Y96.572 E19.17588
G1 X164.219 Y96.263 E19.20743
G1 X164.890 Y95.906 E19.23903
G1 X165.528 Y95.508 E19.27029
G1 X166.158 Y95.050 E19.30267
G1 X166.732 Y94.569 E19.33381
G1 X167.278 Y94.041 E19.36539
G1 X167.786 Y93.477 E19.39694
G1 X168.259 Y92.872 E19.42887
G1 X168.686 Y92.238 E19.46065
G1 X169.064 Y91.585 E19.49202
G1 X169.396 Y90.902 E19.52359
G1 X169.683 Y90.193 E19.55539
G1 X169.913 Y89.484 E19.58638
G1 X170.101 Y88.732 E19.61861
G1 X170.233 Y87.981 E19.65031
G1 X170.312 Y87.233 E19.68158
G1 X170.339 Y86.467 E19.71345
G1 X170.312 Y85.702 E19.74527
G1 X170.233 Y84.954 E19.77654
G1 X170.101 Y84.202 E19.80829
G1 X169.914 Y83.454 E19.84034
G1 X169.681 Y82.738 E19.87165
G1 X169.396 Y82.033 E19.90326
G1 X169.064 Y81.350 E19.93483
G1 X168.686 Y80.697 E19.96620
G1 X168.259 Y80.063 E19.99798
G1 X167.787 Y79.459 E20.02985
G1 X167.284 Y78.900 E20.06112
G1 X166.724 Y78.360 E20.09346
G1 X166.158 Y77.885 E20.12418
G1 X165.534 Y77.431 E20.15626
G1 X164.883 Y77.024 E20.18818
G1 X164.214 Y76.668 E20.21969
G1 X163.523 Y76.361 E20.25112
G1 X162.817 Y76.103 E20.28238
G1 X162.080 Y75.892 E20.31425
G1 X161.331 Y75.733 E20.34608
G1 X160.573 Y75.627 E20.37790
G1 X159.821 Y75.574 E20.40924
G1 X159.058 Y75.574 E20.44097
G1 X158.306 Y75.627 E20.47231
G1 X157.549 Y75.733 E20.50409
G1 X156.799 Y75.892 E20.53596
G1 X156.076 Y76.100 E20.56724
G1 X155.349 Y76.365 E20.59941
G1 X154.661 Y76.671 E20.63072
G1 X153.990 Y77.028 E20.66231
G1 X153.342 Y77.433 E20.69408
G1 X152.731 Y77.877 E20.72549
G1 X152.156 Y78.360 E20.75671
G1 X151.596 Y78.900 E20.78905
G1 X151.088 Y79.465 E20.82064
G1 X150.632 Y80.049 E20.85144
G1 X150.190 Y80.704 E20.88429
G1 X149.816 Y81.350 E20.91533
G0 F12000 X149.379 Y81.107
G1 F1800 X149.030 Y81.823 E20.94844
G1 X148.725 Y82.577 E20.98226
G1 X148.485 Y83.317 E21.01460
G1 X148.288 Y84.106 E21.04841
G1 X148.153 Y84.872 E21.08075
G1 X148.068 Y85.681 E21.11457
G1 X148.041 Y86.467 E21.14727
G1 X148.068 Y87.254 E21.18001
G1 X148.153 Y88.063 E21.21383
G1 X148.288 Y88.828 E21.24612
G1 X148.484 Y89.614 E21.27980
G1 X148.725 Y90.358 E21.31231
G1 X149.029 Y91.108 E21.34596
G1 X149.378 Y91.825 E21.37911
G1 X149.768 Y92.501 E21.41156
G1 X150.217 Y93.166 E21.44492
G1 X150.708 Y93.796 E21.47813
G1 X151.234 Y94.380 E21.51080
G1 X151.818 Y94.944 E21.54456
G1 X152.422 Y95.451 E21.57734
G1 X153.066 Y95.919 E21.61044
G1 X153.736 Y96.337 E21.64327
G1 X154.446 Y96.715 E21.67671
G1 X155.167 Y97.037 E21.70954
G1 X155.920 Y97.310 E21.74284
G1 X156.673 Y97.526 E21.77541
G1 X157.460 Y97.693 E21.80886
G1 X158.257 Y97.805 E21.84232
G1 X159.037 Y97.860 E21.87483
G1 X159.842 Y97.860 E21.90830
G1 X160.622 Y97.805 E21.94081
G1 X161.420 Y97.693 E21.97431
G1 X162.206 Y97.526 E22.00772
G1 X162.960 Y97.310 E22.04033
G1 X163.712 Y97.037 E22.07359
G1 X164.434 Y96.715 E22.10645
G1 X165.144 Y96.337 E22.13989
G1 X165.813 Y95.919 E22.17269
G1 X166.458 Y95.451 E22.20582
G1 X167.062 Y94.944 E22.23861
G1 X167.646 Y94.380 E22.27236
G1 X168.172 Y93.796 E22.30504
G1 X168.664 Y93.166 E22.33827
G1 X169.112 Y92.501 E22.37161
G1 X169.502 Y91.825 E22.40405
G1 X169.851 Y91.108 E22.43721
G1 X170.155 Y90.358 E22.47085
G1 X170.396 Y89.614 E22.50337
G1 X170.592 Y88.828 E22.53705
G1 X170.727 Y88.063 E22.56934
G1 X170.812 Y87.254 E22.60316
G1 X170.840 Y86.467 E22.63590
G1 X170.812 Y85.681 E22.66860
G1 X170.727 Y84.872 E22.70242
G1 X170.592 Y84.106 E22.73476
G1 X170.395 Y83.317 E22.76857
G1 X170.155 Y82.577 E22.80091
G1 X169.850 Y81.823 E22.83473
G1 X169.501 Y81.107 E22.86784
G1 X169.112 Y80.434 E22.90016
G1 X168.664 Y79.769 E22.93350
G1 X168.172 Y79.139 E22.96673
G1 X167.646 Y78.554 E22.99944
G1 X167.061 Y77.990 E23.03322
G1 X166.458 Y77.484 E23.06595
G1 X165.821 Y77.021 E23.09869
G1 X165.137 Y76.593 E23.13223
G1 X164.430 Y76.217 E23.16553
G1 X163.718 Y75.901 E23.19791
G1 X162.954 Y75.622 E23.23173
G1 X162.206 Y75.408 E23.26407
G1 X161.420 Y75.241 E23.29748
G1 X160.622 Y75.129 E23.33098
G1 X159.842 Y75.074 E23.36349
G1 X159.037 Y75.074 E23.39696
G1 X158.257 Y75.129 E23.42947
G1 X157.460 Y75.241 E23.46293
G1 X156.673 Y75.408 E23.49638
G1 X155.926 Y75.622 E23.52868
G1 X155.161 Y75.901 E23.56254
G1 X154.446 Y76.219 E23.59507
G1 X153.736 Y76.597 E23.62851
G1 X153.066 Y77.015 E23.66134
G1 X152.422 Y77.484 E23.69447
G1 X151.819 Y77.990 E23.72719
G1 X151.234 Y78.554 E23.76098
G1 X150.708 Y79.139 E23.79368
G1 X150.217 Y79.769 E23.82689
G1 X149.768 Y80.434 E23.86025
G1 X149.379 Y81.107 E23.89257
G0 F12000 X141.191 Y72.117
G1 F1800 X177.690 Y72.117 E25.41002
G1 X177.690 Y100.617 E26.59491
G1 X141.191 Y100.617 E28.11237
G1 X141.191 Y72.117 E29.29726
G0 F12000 X140.691 Y71.617
G1 F1800 X178.190 Y71.617 E30.85629
G1 X178.190 Y101.117 E32.08275
G1 X140.691 Y101.117 E33.64178
G1 X140.691 Y71.617 E34.86825
G0 F12000 X140.191 Y71.117
G1 F1800 X178.690 Y71.117 E36.46885
G1 X178.690 Y101.617 E37.73689
G1 X140.191 Y101.617 E39.33750
G1 X140.191 Y71.117 E40.60554
G0 F12000 X139.691 Y70.617
G1 F1800 X179.190 Y70.617 E42.24772
G1 X179.190 Y102.117 E43.55733
G1 X139.691 Y102.117 E45.19951
G1 X139.691 Y70.617 E46.50913
G0 F12000 X139.191 Y70.117
G1 F1800 X179.690 Y70.117 E48.19288
G1 X179.690 Y102.617 E49.54407
G1 X139.191 Y102.617 E51.22783
G1 X139.191 Y70.117 E52.57902
G0 F12000 X138.691 Y69.617
G1 F1800 X180.190 Y69.617 E54.30435
G1 X180.190 Y103.117 E55.69712
G1 X138.691 Y103.117 E57.42244
G1 X138.691 Y69.617 E58.81521
G0 F12000 X138.191 Y69.117
G1 F1800 X180.690 Y69.117 E60.58212
G1 X180.690 Y103.617 E62.01646
G1 X138.191 Y103.617 E63.78336
G1 X138.191 Y69.117 E65.21771
G0 F12000 X137.691 Y68.617
G1 F1800 X181.190 Y68.617 E67.02618
G1 X181.190 Y104.117 E68.50210
G1 X137.691 Y104.117 E70.31058
G1 X137.691 Y68.617 E71.78650
G0 F12000 X137.191 Y68.117
G1 F1800 X181.690 Y68.117 E73.63655
G1 X181.690 Y104.617 E75.15405
G1 X137.191 Y104.617 E77.00410
G1 X137.191 Y68.117 E78.52159
G0 F12000 X136.691 Y67.617
G1 F1800 X182.190 Y67.617 E80.41322
G1 X182.190 Y105.117 E81.97229
G1 X136.691 Y105.117 E83.86392
G1 X136.691 Y67.617 E85.42299
G1 F2100 E85.02299
G0 F12000 X142.191 Y73.117
;TYPE:WALL-INNER
G1 F2100 E85.42299
G1 F1800 X176.690 Y73.117 E86.85729
G1 X176.690 Y99.617 E87.95903
G1 X142.191 Y99.617 E89.39333
G1 X142.191 Y73.117 E90.49508
G1 F2100 E90.09508
G0 F12000 X149.409 Y79.179
G1 F2100 E90.49508
G1 F1800 X148.925 Y79.896 E90.53104
G1 X148.491 Y80.646 E90.56707
G1 X148.112 Y81.424 E90.60305
G1 X147.788 Y82.226 E90.63901
G1 X147.521 Y83.049 E90.67498
G1 X147.311 Y83.889 E90.71098
G1 X147.161 Y84.742 E90.74698
G1 X147.070 Y85.603 E90.78298
G1 X147.041 Y86.467 E90.81892
G1 X147.070 Y87.332 E90.85490
G1 X147.161 Y88.193 E90.89090
G1 X147.311 Y89.045 E90.92687
G1 X147.521 Y89.885 E90.96286
G1 X147.788 Y90.709 E90.99888
G1 X148.112 Y91.511 E91.03484
G1 X148.491 Y92.289 E91.07082
G1 X148.925 Y93.039 E91.10684
G1 X149.409 Y93.756 E91.14281
G1 X149.941 Y94.438 E91.17877
G1 X150.520 Y95.081 E91.21474
G1 X151.143 Y95.683 E91.25076
G1 X151.806 Y96.239 E91.28673
G1 X152.506 Y96.748 E91.32272
G1 X153.240 Y97.206 E91.35869
G1 X154.004 Y97.612 E91.39466
G1 X154.794 Y97.965 E91.43063
G1 X155.608 Y98.261 E91.46664
G1 X156.440 Y98.499 E91.50262
G1 X157.287 Y98.679 E91.53862
G1 X158.143 Y98.799 E91.57456
G1 X159.007 Y98.860 E91.61057
G1 X159.872 Y98.860 E91.64653
G1 X160.735 Y98.799 E91.68250
G1 X161.593 Y98.679 E91.71852
G1 X162.439 Y98.499 E91.75448
G1 X163.272 Y98.261 E91.79049
G1 X164.085 Y97.965 E91.82647
G1 X164.876 Y97.612 E91.86248
G1 X165.640 Y97.206 E91.89845
G1 X166.373 Y96.748 E91.93438
G1 X167.074 Y96.239 E91.97040
G1 X167.737 Y95.683 E92.00637
G1 X168.360 Y95.081 E92.04239
G1 X168.939 Y94.438 E92.07836
G1 X169.472 Y93.756 E92.11435
G1 X169.955 Y93.039 E92.15029
G1 X170.389 Y92.289 E92.18632
G1 X170.768 Y91.511 E92.22230
G1 X171.092 Y90.709 E92.25826
G1 X171.359 Y89.885 E92.29427
G1 X171.569 Y89.045 E92.33027
G1 X171.719 Y88.193 E92.36624
G1 X171.810 Y87.333 E92.40219
G1 X171.840 Y86.467 E92.43822
G1 X171.810 Y85.602 E92.47420
G1 X171.719 Y84.742 E92.51015
G1 X171.569 Y83.889 E92.54616
G1 X171.359 Y83.049 E92.58216
G1 X171.092 Y82.226 E92.61813
G1 X170.768 Y81.424 E92.65409
G1 X170.389 Y80.646 E92.69007
G1 X169.955 Y79.896 E92.72610
G1 X169.472 Y79.179 E92.76204
G1 X168.939 Y78.497 E92.79803
G1 X168.360 Y77.853 E92.83403
G1 X167.737 Y77.252 E92.87002
G1 X167.074 Y76.696 E92.90599
G1 X166.374 Y76.187 E92.94198
G1 X165.640 Y75.728 E92.97797
G1 X164.876 Y75.321 E93.01396
G1 X164.085 Y74.970 E93.04994
G1 X163.272 Y74.673 E93.08592
G1 X162.439 Y74.435 E93.12194
G1 X161.593 Y74.255 E93.15790
G1 X160.735 Y74.135 E93.19392
G1 X159.872 Y74.074 E93.22989
G1 X159.007 Y74.074 E93.26585
G1 X158.143 Y74.135 E93.30186
G1 X157.287 Y74.255 E93.33780
G1 X156.440 Y74.435 E93.37380
G1 X155.608 Y74.673 E93.40978
G1 X154.794 Y74.970 E93.44580
G1 X154.004 Y75.321 E93.48174
G1 X153.240 Y75.728 E93.51773
G1 X152.505 Y76.187 E93.55376
G1 X151.806 Y76.696 E93.58971
G1 X151.143 Y77.252 E93.62568
G1 X150.520 Y77.853 E93.66167
G1 X149.941 Y78.497 E93.69767
G1 X149.409 Y79.179 E93.73363
G0 F12000 X149.814 Y79.473
;TYPE:WALL-OUTER
G1 F1800 X149.349 Y80.161 E93.76816
G1 X148.933 Y80.881 E93.80273
G1 X148.569 Y81.627 E93.83724
G1 X148.258 Y82.397 E93.87177
G1 X148.002 Y83.187 E93.90629
G1 X147.800 Y83.993 E93.94084
G1 X147.656 Y84.811 E93.97537
G1 X147.569 Y85.638 E94.00994
G1 X147.541 Y86.467 E94.04443
G1 X147.569 Y87.297 E94.07895
G1 X147.656 Y88.124 E94.11353
G1 X147.800 Y88.941 E94.14802
G1 X148.002 Y89.747 E94.18256
G1 X148.258 Y90.538 E94.21713
G1 X148.569 Y91.308 E94.25165
G1 X148.933 Y92.054 E94.28616
G1 X149.349 Y92.774 E94.32073
G1 X149.814 Y93.462 E94.35526
G1 X150.324 Y94.117 E94.38977
G1 X150.880 Y94.734 E94.42430
G1 X151.478 Y95.311 E94.45885
G1 X152.114 Y95.845 E94.49338
G1 X152.785 Y96.333 E94.52787
G1 X153.490 Y96.773 E94.56242
G1 X154.223 Y97.163 E94.59694
G1 X154.981 Y97.501 E94.63145
G1 X155.763 Y97.785 E94.66604
G1 X156.561 Y98.014 E94.70055
G1 X157.374 Y98.186 E94.73510
G1 X158.196 Y98.302 E94.76961
G1 X159.024 Y98.360 E94.80412
G1 X159.855 Y98.360 E94.83867
G1 X160.683 Y98.302 E94.87318
G1 X161.506 Y98.186 E94.90774
G1 X162.318 Y98.014 E94.94224
G1 X163.117 Y97.785 E94.97680
G1 X163.898 Y97.501 E95.01135
G1 X164.657 Y97.163 E95.04589
G1 X165.390 Y96.773 E95.08041
G1 X166.094 Y96.333 E95.11493
G1 X166.766 Y95.845 E95.14946
G1 X167.402 Y95.311 E95.18398
G1 X168.000 Y94.734 E95.21853
G1 X168.556 Y94.117 E95.25306
G1 X169.067 Y93.462 E95.28760
G1 X169.531 Y92.774 E95.32210
G1 X169.947 Y92.054 E95.35667
G1 X170.311 Y91.308 E95.39118
G1 X170.622 Y90.538 E95.42571
G1 X170.878 Y89.747 E95.46027
G1 X171.080 Y88.941 E95.49482
G1 X171.224 Y88.124 E95.52931
G1 X171.311 Y87.298 E95.56384
G1 X171.340 Y86.467 E95.59841
G1 X171.311 Y85.637 E95.63294
G1 X171.224 Y84.811 E95.66747
G1 X171.080 Y83.993 E95.70200
G1 X170.878 Y83.187 E95.73655
G1 X170.622 Y82.397 E95.77107
G1 X170.311 Y81.627 E95.80560
G1 X169.947 Y80.881 E95.84011
G1 X169.531 Y80.161 E95.87468
G1 X169.067 Y79.473 E95.90918
G1 X168.556 Y78.818 E95.94372
G1 X168.000 Y78.200 E95.97828
G1 X167.402 Y77.624 E96.01280
G1 X166.766 Y77.090 E96.04733
G1 X166.094 Y76.602 E96.08185
G1 X165.390 Y76.161 E96.11639
G1 X164.657 Y75.771 E96.15091
G1 X163.898 Y75.434 E96.18544
G1 X163.117 Y75.149 E96.22000
G1 X162.318 Y74.920 E96.25456
G1 X161.506 Y74.748 E96.28907
G1 X160.683 Y74.632 E96.32362
G1 X159.855 Y74.574 E96.35813
G1 X159.024 Y74.574 E96.39268
G1 X158.196 Y74.632 E96.42719
G1 X157.374 Y74.748 E96.46170
G1 X156.561 Y74.920 E96.49625
G1 X155.763 Y75.149 E96.53077
G1 X154.981 Y75.434 E96.56537
G1 X154.223 Y75.771 E96.59986
G1 X153.490 Y76.161 E96.63438
G1 X152.785 Y76.602 E96.66895
G1 X152.114 Y77.090 E96.70344
G1 X151.478 Y77.624 E96.73797
G1 X150.880 Y78.200 E96.77249
G1 X150.324 Y78.818 E96.80705
G1 X149.814 Y79.473 E96.84156
G1 F2100 E96.44156
G0 F12000 X141.691 Y72.617
G1 F2100 E96.84156
G1 F1800 X177.190 Y72.617 E98.31744
G1 X177.190 Y100.117 E99.46076
G1 X141.691 Y100.117 E100.93663
G1 X141.691 Y72.617 E102.07995
G0 F12000 X142.500 Y73.292
;TYPE:SKIN
G1 F1800 X142.500 Y99.442 E103.16714
G0 F12000 X143.000 Y99.442
G1 F1800 X143.000 Y73.292 E104.25433
G0 F12000 X143.500 Y73.292
G1 F1800 X143.500 Y99.442 E105.34152
G0 F12000 X144.000 Y99.442
G1 F1800 X144.000 Y73.292 E106.42871
G0 F12000 X144.500 Y73.292
G1 F1800 X144.500 Y99.442 E107.51591
G0 F12000 X145.000 Y99.442
G1 F1800 X145.000 Y73.292 E108.60310
G0 F12000 X145.500 Y73.292
G1 F1800 X145.500 Y99.442 E109.69029
G0 F12000 X146.000 Y99.442
G1 F1800 X146.000 Y73.292 E110.77748
G0 F12000 X146.500 Y73.292
G1 F1800 X146.500 Y99.442 E111.86467
G0 F12000 X147.000 Y99.442
G1 F1800 X147.000 Y88.289 E112.32836
G1 F2100 E111.92836
G0 F12000 X147.500 Y90.389
G1 F2100 E112.32836
G1 F1800 X147.500 Y99.442 E112.70474
G0 F12000 X148.000 Y99.442
G1 F1800 X148.000 Y91.682 E113.02736
G0 F12000 X148.500 Y92.654
G1 F1800 X148.500 Y99.442 E113.30957
G0 F12000 X149.000 Y99.442
G1 F1800 X149.000 Y93.463 E113.55815
G0 F12000 X149.500 Y94.158
G1 F1800 X149.500 Y99.442 E113.77783
G0 F12000 X150.000 Y99.442
G1 F1800 X150.000 Y94.766 E113.97224
G0 F12000 X150.500 Y95.306
G1 F1800 X150.500 Y99.442 E114.14419
G0 F12000 X151.000 Y99.442
G1 F1800 X151.000 Y95.788 E114.29611
G0 F12000 X151.500 Y96.211
G1 F1800 X151.500 Y99.442 E114.43044
G0 F12000 X152.000 Y99.442
G1 F1800 X152.000 Y96.596 E114.54876
G0 F12000 X152.500 Y96.950
G1 F1800 X152.500 Y99.442 E114.65237
G0 F12000 X153.000 Y99.442
G1 F1800 X153.000 Y97.263 E114.74296
G0 F12000 X153.500 Y97.543
G1 F1800 X153.500 Y99.442 E114.82191
G0 F12000 X154.000 Y99.442
G1 F1800 X154.000 Y97.803 E114.89005
G0 F12000 X154.500 Y98.026
G1 F1800 X154.500 Y99.442 E114.94892
G0 F12000 X155.000 Y99.442
G1 F1800 X155.000 Y98.227 E114.99944
G0 F12000 X155.500 Y98.409
G1 F1800 X155.500 Y99.442 E115.04238
G0 F12000 X156.000 Y99.442
G1 F1800 X156.250 Y98.623 E115.07919
G1 X156.750 Y99.442 E115.11039
G1 X157.250 Y98.842 E115.13715
G1 X157.750 Y99.442 E115.16020
G1 X158.250 Y98.978 E115.18039
G1 X158.750 Y99.442 E115.19877
G1 X159.250 Y99.035 E115.21566
G1 X159.500 Y99.442 E115.23552
G1 F2100 E114.83552
G0 F12000 X147.000 Y84.647
G1 F2100 E115.23552
G1 F1800 X147.000 Y73.292 E115.70760
G0 F12000 X147.500 Y73.292
G1 F1800 X147.500 Y82.546 E116.09234
G0 F12000 X148.000 Y81.254
G1 F1800 X148.000 Y73.292 E116.42336
G0 F12000 X148.500 Y73.292
G1 F1800 X148.500 Y80.282 E116.71397
G0 F12000 X149.000 Y79.473
G1 F1800 X149.000 Y73.292 E116.97095
G0 F12000 X149.500 Y73.292
G1 F1800 X149.500 Y78.778 E117.19903
G0 F12000 X150.000 Y78.170
G1 F1800 X150.000 Y73.292 E117.40183
G0 F12000 X150.500 Y73.292
G1 F1800 X150.500 Y77.629 E117.58214
G0 F12000 X151.000 Y77.147
G1 F1800 X151.000 Y73.292 E117.74242
G0 F12000 X151.500 Y73.292
G1 F1800 X151.500 Y76.725 E117.88514
G0 F12000 X152.000 Y76.339
G1 F1800 X152.000 Y73.292 E118.01182
G0 F12000 X152.500 Y73.292
G1 F1800 X152.500 Y75.985 E118.12378
G0 F12000 X153.000 Y75.672
G1 F1800 X153.000 Y73.292 E118.22273
G0 F12000 X153.500 Y73.292
G1 F1800 X153.500 Y75.392 E118.31004
G0 F12000 X154.000 Y75.132
G1 F1800 X154.000 Y73.292 E118.38654
G0 F12000 X154.500 Y73.292
G1 F1800 X154.500 Y74.910 E118.45381
G0 F12000 X155.000 Y74.709
G1 F1800 X155.000 Y73.292 E118.51272
G0 F12000 X155.500 Y73.292
G1 F1800 X155.500 Y74.526 E118.56402
G0 F12000 X156.000 Y74.379
G1 F1800 X156.000 Y73.292 E118.60922
G0 F12000 X156.500 Y73.292
G1 F1800 X156.750 Y74.190 E118.64875
G1 X157.250 Y73.292 E118.68387
G1 X157.750 Y74.014 E118.71534
G1 X158.250 Y73.292 E118.74390
G1 X158.750 Y73.917 E118.77059
G1 X159.250 Y73.292 E118.79588
G1 X159.750 Y73.903 E118.82108
G1 X160.250 Y73.292 E118.84662
G1 X160.750 Y73.968 E118.87361
G1 X161.250 Y73.292 E118.90283
G1 X161.750 Y74.113 E118.93488
G1 X162.250 Y73.292 E118.97101
G1 X162.500 Y74.270 E119.01298
G0 F12000 X163.000 Y74.413
G1 F1800 X163.000 Y73.292 E119.05959
G0 F12000 X163.500 Y73.292
G1 F1800 X163.500 Y74.569 E119.11268
G0 F12000 X164.000 Y74.752
G1 F1800 X164.000 Y73.292 E119.17338
G0 F12000 X164.500 Y73.292
G1 F1800 X164.500 Y74.962 E119.24281
G0 F12000 X165.000 Y75.188
G1 F1800 X165.000 Y73.292 E119.32163
G0 F12000 X165.500 Y73.292
G1 F1800 X165.500 Y75.455 E119.41156
G0 F12000 X166.000 Y75.747
G1 F1800 X166.000 Y73.292 E119.51363
G0 F12000 X166.500 Y73.292
G1 F1800 X166.500 Y76.062 E119.62879
G0 F12000 X167.000 Y76.426
G1 F1800 X167.000 Y73.292 E119.75909
G0 F12000 X167.500 Y73.292
G1 F1800 X167.500 Y76.824 E119.90593
G0 F12000 X168.000 Y77.262
G1 F1800 X168.000 Y73.292 E120.07099
G0 F12000 X168.500 Y73.292
G1 F1800 X168.500 Y77.746 E120.25616
G0 F12000 X169.000 Y78.302
G1 F1800 X169.000 Y73.292 E120.46445
G0 F12000 X169.500 Y73.292
G1 F1800 X169.500 Y78.930 E120.69885
G0 F12000 X170.000 Y79.649
G1 F1800 X170.000 Y73.292 E120.96315
G0 F12000 X170.500 Y73.292
G1 F1800 X170.500 Y80.489 E121.26236
G0 F12000 X171.000 Y81.530
G1 F1800 X171.000 Y73.292 E121.60486
G0 F12000 X171.500 Y73.292
G1 F1800 X171.500 Y82.917 E122.00502
G1 F2100 E121.60502
G0 F12000 X172.000 Y86.028
G1 F2100 E122.00502
G1 F1800 X172.000 Y73.292 E122.53452
G0 F12000 X172.500 Y73.292
G1 F1800 X172.500 Y99.442 E123.62171
G0 F12000 X172.000 Y99.442
G1 F1800 X172.000 Y86.903 E124.14302
G1 F2100 E123.74302
G0 F12000 X171.500 Y90.016
G1 F2100 E124.14302
G1 F1800 X171.500 Y99.442 E124.53491
G0 F12000 X171.000 Y99.442
G1 F1800 X171.000 Y91.403 E124.86913
G0 F12000 X170.500 Y92.445
G1 F1800 X170.500 Y99.442 E125.16004
G0 F12000 X170.000 Y99.442
G1 F1800 X170.000 Y93.285 E125.41601
G0 F12000 X169.500 Y94.004
G1 F1800 X169.500 Y99.442 E125.64210
G0 F12000 X169.000 Y99.442
G1 F1800 X169.000 Y94.632 E125.84208
G0 F12000 X168.500 Y95.187
G1 F1800 X168.500 Y99.442 E126.01898
G0 F12000 X168.000 Y99.442
G1 F1800 X168.000 Y95.672 E126.17572
G0 F12000 X167.500 Y96.110
G1 F1800 X167.500 Y99.442 E126.31425
G0 F12000 X167.000 Y99.442
G1 F1800 X167.000 Y96.508 E126.43623
G0 F12000 X166.500 Y96.871
G1 F1800 X166.500 Y99.442 E126.54312
G0 F12000 X166.000 Y99.442
G1 F1800 X166.000 Y97.186 E126.63691
G0 F12000 X165.500 Y97.478
G1 F1800 X165.500 Y99.442 E126.71856
G0 F12000 X165.000 Y99.442
G1 F1800 X165.000 Y97.745 E126.78912
G0 F12000 X164.500 Y97.971
G1 F1800 X164.500 Y99.442 E126.85027
G0 F12000 X164.000 Y99.442
G1 F1800 X164.000 Y98.182 E126.90266
G0 F12000 X163.500 Y98.364
G1 F1800 X163.500 Y99.442 E126.94748
G0 F12000 X163.000 Y99.442
G1 F1800 X162.750 Y98.591 E126.98583
G1 X162.250 Y99.442 E127.01816
G1 X161.750 Y98.820 E127.04603
G1 X161.250 Y99.442 E127.06986
G1 X160.750 Y98.964 E127.09079
G1 X160.250 Y99.442 E127.10954
G1 X160.000 Y99.026 E127.12972
G1 F2100 E126.72972
G0 F12000 X173.000 Y99.442
G1 F2100 E127.12972
G1 F1800 X173.000 Y73.292 E128.21691
G0 F12000 X173.500 Y73.292
G1 F1800 X173.500 Y99.442 E129.30410
G0 F12000 X174.000 Y99.442
G1 F1800 X174.000 Y73.292 E130.39129
G0 F12000 X174.500 Y73.292
G1 F1800 X174.500 Y99.442 E131.47848
G0 F12000 X175.000 Y99.442
G1 F1800 X175.000 Y73.292 E132.56567
G0 F12000 X175.500 Y73.292
G1 F1800 X175.500 Y99.442 E133.65286
G0 F12000 X176.000 Y99.442
G1 F1800 X176.000 Y73.292 E134.74006
G0 F12000 X176.500 Y73.292
G1 F1800 X176.500 Y99.442 E135.82725
;LAYER:1
M106 S15
G0 F12000 X176.690 Y99.617 Z0.500
;TYPE:WALL-INNER
G1 F2220 X142.191 Y99.617 E137.97870
G1 X142.191 Y73.117 E139.63131
G1 X176.690 Y73.117 E141.78276
G1 X176.690 Y99.617 E143.43538
G1 F2100 E143.03538
G0 F12000 X169.472 Y93.756
G1 F2100 E143.43538
G1 F2220 X169.955 Y93.039 E143.48929
G1 X170.389 Y92.289 E143.54333
G1 X170.768 Y91.511 E143.59730
G1 X171.092 Y90.709 E143.65124
G1 X171.359 Y89.885 E143.70526
G1 X171.569 Y89.045 E143.75925
G1 X171.719 Y88.193 E143.81320
G1 X171.810 Y87.333 E143.86714
G1 X171.840 Y86.467 E143.92117
G1 X171.810 Y85.602 E143.97515
G1 X171.719 Y84.742 E144.02908
G1 X171.569 Y83.889 E144.08309
G1 X171.359 Y83.049 E144.13709
G1 X171.092 Y82.226 E144.19105
G1 X170.768 Y81.424 E144.24499
G1 X170.389 Y80.646 E144.29896
G1 X169.955 Y79.896 E144.35300
G1 X169.472 Y79.179 E144.40691
G1 X168.939 Y78.497 E144.46089
G1 X168.360 Y77.853 E144.51490
G1 X167.737 Y77.252 E144.56888
G1 X167.074 Y76.696 E144.62284
G1 X166.374 Y76.187 E144.67682
G1 X165.640 Y75.728 E144.73080
G1 X164.876 Y75.321 E144.78479
G1 X164.085 Y74.970 E144.83876
G1 X163.272 Y74.673 E144.89273
G1 X162.439 Y74.435 E144.94676
G1 X161.593 Y74.255 E145.00070
G1 X160.735 Y74.135 E145.05473
G1 X159.872 Y74.074 E145.10868
G1 X159.007 Y74.074 E145.16263
G1 X158.143 Y74.135 E145.21664
G1 X157.287 Y74.255 E145.27055
G1 X156.440 Y74.435 E145.32455
G1 X155.608 Y74.673 E145.37851
G1 X154.794 Y74.970 E145.43255
G1 X154.004 Y75.321 E145.48646
G1 X153.240 Y75.728 E145.54045
G1 X152.505 Y76.187 E145.59449
G1 X151.806 Y76.696 E145.64841
G1 X151.143 Y77.252 E145.70237
G1 X150.520 Y77.853 E145.75635
G1 X149.941 Y78.497 E145.81036
G1 X149.409 Y79.179 E145.86430
G1 X148.925 Y79.896 E145.91825
G1 X148.491 Y80.646 E145.97229
G1 X148.112 Y81.424 E146.02626
G1 X147.788 Y82.226 E146.08020
G1 X147.521 Y83.049 E146.13416
G1 X147.311 Y83.889 E146.18816
G1 X147.161 Y84.742 E146.24217
G1 X147.070 Y85.603 E146.29616
G1 X147.041 Y86.467 E146.35007
G1 X147.070 Y87.332 E146.40405
G1 X147.161 Y88.193 E146.45804
G1 X147.311 Y89.045 E146.51199
G1 X147.521 Y89.885 E146.56599
G1 X147.788 Y90.709 E146.62000
G1 X148.112 Y91.511 E146.67395
G1 X148.491 Y92.289 E146.72792
G1 X148.925 Y93.039 E146.78195
G1 X149.409 Y93.756 E146.83590
G1 X149.941 Y94.438 E146.88984
G1 X150.520 Y95.081 E146.94380
G1 X151.143 Y95.683 E146.99783
G1 X151.806 Y96.239 E147.05179
G1 X152.506 Y96.748 E147.10577
G1 X153.240 Y97.206 E147.15972
G1 X154.004 Y97.612 E147.21368
G1 X154.794 Y97.965 E147.26764
G1 X155.608 Y98.261 E147.32165
G1 X156.440 Y98.499 E147.37562
G1 X157.287 Y98.679 E147.42962
G1 X158.143 Y98.799 E147.48352
G1 X159.007 Y98.860 E147.53754
G1 X159.872 Y98.860 E147.59148
G1 X160.735 Y98.799 E147.64544
G1 X161.593 Y98.679 E147.69947
G1 X162.439 Y98.499 E147.75340
G1 X163.272 Y98.261 E147.80743
G1 X164.085 Y97.965 E147.86139
G1 X164.876 Y97.612 E147.91541
G1 X165.640 Y97.206 E147.96936
G1 X166.373 Y96.748 E148.02326
G1 X167.074 Y96.239 E148.07729
G1 X167.737 Y95.683 E148.13125
G1 X168.360 Y95.081 E148.18528
G1 X168.939 Y94.438 E148.23924
G1 X169.472 Y93.756 E148.29322
G0 F12000 X169.067 Y93.462
;TYPE:WALL-OUTER
G1 F2220 X169.531 Y92.774 E148.34497
G1 X169.947 Y92.054 E148.39682
G1 X170.311 Y91.308 E148.44859
G1 X170.622 Y90.538 E148.50038
G1 X170.878 Y89.747 E148.55223
G1 X171.080 Y88.941 E148.60404
G1 X171.224 Y88.124 E148.65578
G1 X171.311 Y87.298 E148.70758
G1 X171.340 Y86.467 E148.75943
G1 X171.311 Y85.637 E148.81122
G1 X171.224 Y84.811 E148.86302
G1 X171.080 Y83.993 E148.91482
G1 X170.878 Y83.187 E148.96664
G1 X170.622 Y82.397 E149.01843
G1 X170.311 Y81.627 E149.07021
G1 X169.947 Y80.881 E149.12198
G1 X169.531 Y80.161 E149.17384
G1 X169.067 Y79.473 E149.22559
G1 X168.556 Y78.818 E149.27740
G1 X168.000 Y78.200 E149.32924
G1 X167.402 Y77.624 E149.38102
G1 X166.766 Y77.090 E149.43281
G1 X166.094 Y76.602 E149.48460
G1 X165.390 Y76.161 E149.53640
G1 X164.657 Y75.771 E149.58818
G1 X163.898 Y75.434 E149.63997
G1 X163.117 Y75.149 E149.69182
G1 X162.318 Y74.920 E149.74365
G1 X161.506 Y74.748 E149.79542
G1 X160.683 Y74.632 E149.84725
G1 X159.855 Y74.574 E149.89901
G1 X159.024 Y74.574 E149.95083
G1 X158.196 Y74.632 E150.00260
G1 X157.374 Y74.748 E150.05437
G1 X156.561 Y74.920 E150.10619
G1 X155.763 Y75.149 E150.15796
G1 X154.981 Y75.434 E150.20987
G1 X154.223 Y75.771 E150.26160
G1 X153.490 Y76.161 E150.31338
G1 X152.785 Y76.602 E150.36524
G1 X152.114 Y77.090 E150.41698
G1 X151.478 Y77.624 E150.46877
G1 X150.880 Y78.200 E150.52055
G1 X150.324 Y78.818 E150.57239
G1 X149.814 Y79.473 E150.62416
G1 X149.349 Y80.161 E150.67595
G1 X148.933 Y80.881 E150.72781
G1 X148.569 Y81.627 E150.77957
G1 X148.258 Y82.397 E150.83136
G1 X148.002 Y83.187 E150.88315
G1 X147.800 Y83.993 E150.93497
G1 X147.656 Y84.811 E150.98676
G1 X147.569 Y85.638 E151.03862
G1 X147.541 Y86.467 E151.09035
G1 X147.569 Y87.297 E151.14214
G1 X147.656 Y88.124 E151.19400
G1 X147.800 Y88.941 E151.24574
G1 X148.002 Y89.747 E151.29755
G1 X148.258 Y90.538 E151.34940
G1 X148.569 Y91.308 E151.40119
G1 X148.933 Y92.054 E151.45296
G1 X149.349 Y92.774 E151.50481
G1 X149.814 Y93.462 E151.55660
G1 X150.324 Y94.117 E151.60837
G1 X150.880 Y94.734 E151.66016
G1 X151.478 Y95.311 E151.71199
G1 X152.114 Y95.845 E151.76378
G1 X152.785 Y96.333 E151.81552
G1 X153.490 Y96.773 E151.86734
G1 X154.223 Y97.163 E151.91912
G1 X154.981 Y97.501 E151.97088
G1 X155.763 Y97.785 E152.02277
G1 X156.561 Y98.014 E152.07454
G1 X157.374 Y98.186 E152.12636
G1 X158.196 Y98.302 E152.17813
G1 X159.024 Y98.360 E152.22990
G1 X159.855 Y98.360 E152.28172
G1 X160.683 Y98.302 E152.33348
G1 X161.506 Y98.186 E152.38531
G1 X162.318 Y98.014 E152.43708
G1 X163.117 Y97.785 E152.48891
G1 X163.898 Y97.501 E152.54074
G1 X164.657 Y97.163 E152.59255
G1 X165.390 Y96.773 E152.64433
G1 X166.094 Y96.333 E152.69610
G1 X166.766 Y95.845 E152.74789
G1 X167.402 Y95.311 E152.79968
G1 X168.000 Y94.734 E152.85151
G1 X168.556 Y94.117 E152.90330
G1 X169.067 Y93.462 E152.95511
G1 F2100 E152.55511
G0 F12000 X177.190 Y100.117
G1 F2100 E152.95511
G1 F2220 X141.691 Y100.117 E155.16893
G1 X141.691 Y72.617 E156.88390
G1 X177.190 Y72.617 E159.09772
G1 X177.190 Y100.117 E160.81269
G0 F12000 X176.514 Y99.000
;TYPE:SKIN
G1 F2220 X160.358 Y99.000 E161.82022
G1 F2100 E161.42022
G0 F12000 X163.068 Y98.500
G1 F2100 E161.82022
G1 F2220 X176.514 Y98.500 E162.65875
G0 F12000 X176.514 Y98.000
G1 F2220 X164.434 Y98.000 E163.41210
G0 F12000 X165.458 Y97.500
G1 F2220 X176.514 Y97.500 E164.10158
G0 F12000 X176.514 Y97.000
G1 F2220 X166.297 Y97.000 E164.73874
G0 F12000 X167.010 Y96.500
G1 F2220 X176.514 Y96.500 E165.33143
G0 F12000 X176.514 Y96.000
G1 F2220 X167.630 Y96.000 E165.88547
G0 F12000 X168.177 Y95.500
G1 F2220 X176.514 Y95.500 E166.40538
G0 F12000 X176.514 Y95.000
G1 F2220 X168.668 Y95.000 E166.89468
G0 F12000 X169.112 Y94.500
G1 F2220 X176.514 Y94.500 E167.35629
G0 F12000 X176.514 Y94.000
G1 F2220 X169.502 Y94.000 E167.79358
G0 F12000 X169.854 Y93.500
G1 F2220 X176.514 Y93.500 E168.20891
G0 F12000 X176.514 Y93.000
G1 F2220 X170.178 Y93.000 E168.60405
G0 F12000 X170.468 Y92.500
G1 F2220 X176.514 Y92.500 E168.98109
G0 F12000 X176.514 Y92.000
G1 F2220 X170.724 Y92.000 E169.34217
G0 F12000 X170.960 Y91.500
G1 F2220 X176.514 Y91.500 E169.68853
G0 F12000 X176.514 Y91.000
G1 F2220 X171.162 Y91.000 E170.02230
G0 F12000 X171.343 Y90.500
G1 F2220 X176.514 Y90.500 E170.34478
G0 F12000 X176.514 Y90.000
G1 F2220 X171.505 Y90.000 E170.65715
G0 F12000 X171.635 Y89.500
G1 F2220 X176.514 Y89.500 E170.96142
G0 F12000 X176.514 Y89.000
G1 F2220 X171.754 Y89.000 E171.25827
G0 F12000 X171.842 Y88.500
G1 F2220 X176.514 Y88.500 E171.54963
G0 F12000 X176.514 Y88.000
G1 F2220 X171.915 Y88.000 E171.83643
G0 F12000 X171.968 Y87.500
G1 F2220 X176.514 Y87.500 E172.11993
G0 F12000 X176.514 Y87.000
G1 F2220 X171.996 Y87.000 E172.40169
G0 F12000 X172.013 Y86.500
G1 F2220 X176.514 Y86.500 E172.68238
G0 F12000 X176.514 Y86.000
G1 F2220 X171.998 Y86.000 E172.96401
G0 F12000 X171.974 Y85.500
G1 F2220 X176.514 Y85.500 E173.24714
G0 F12000 X176.514 Y85.000
G1 F2220 X171.921 Y85.000 E173.53357
G0 F12000 X171.853 Y84.500
G1 F2220 X176.514 Y84.500 E173.82424
G0 F12000 X176.514 Y84.000
G1 F2220 X171.765 Y84.000 E174.12040
G0 F12000 X171.651 Y83.500
G1 F2220 X176.514 Y83.500 E174.42367
G0 F12000 X176.514 Y83.000
G1 F2220 X171.525 Y83.000 E174.73480
G0 F12000 X171.364 Y82.500
G1 F2220 X176.514 Y82.500 E175.05597
G0 F12000 X176.514 Y82.000
G1 F2220 X171.188 Y82.000 E175.38811
G0 F12000 X170.986 Y81.500
G1 F2220 X176.514 Y81.500 E175.73286
G0 F12000 X176.514 Y81.000
G1 F2220 X170.755 Y81.000 E176.09200
G0 F12000 X170.505 Y80.500
G1 F2220 X176.514 Y80.500 E176.46674
G0 F12000 X176.514 Y80.000
G1 F2220 X170.216 Y80.000 E176.85950
G0 F12000 X169.898 Y79.500
G1 F2220 X176.514 Y79.500 E177.27209
G0 F12000 X176.514 Y79.000
G1 F2220 X169.554 Y79.000 E177.70614
G0 F12000 X169.163 Y78.500
G1 F2220 X176.514 Y78.500 E178.16457
G0 F12000 X176.514 Y78.000
G1 F2220 X168.727 Y78.000 E178.65019
G0 F12000 X168.246 Y77.500
G1 F2220 X176.514 Y77.500 E179.16580
G0 F12000 X176.514 Y77.000
G1 F2220 X167.709 Y77.000 E179.71491
G0 F12000 X167.101 Y76.500
G1 F2220 X176.514 Y76.500 E180.30193
G0 F12000 X176.514 Y76.000
G1 F2220 X166.404 Y76.000 E180.93241
G0 F12000 X165.585 Y75.500
G1 F2220 X176.514 Y75.500 E181.61398
G0 F12000 X176.514 Y75.000
G1 F2220 X164.585 Y75.000 E182.35790
G0 F12000 X163.306 Y74.500
G1 F2220 X176.514 Y74.500 E183.18159
G0 F12000 X176.514 Y74.000
G1 F2220 X161.041 Y74.000 E184.14653
G1 F2100 E183.74653
G0 F12000 X176.514 Y73.500
G1 F2100 E184.14653
G1 F2220 X142.365 Y73.500 E186.27615
G0 F12000 X142.365 Y74.000
G1 F2220 X157.835 Y74.000 E187.24090
G1 F2100 E186.84090
G0 F12000 X155.571 Y74.500
G1 F2100 E187.24090
G1 F2220 X142.365 Y74.500 E188.06447
G0 F12000 X142.365 Y75.000
G1 F2220 X154.292 Y75.000 E188.80827
G0 F12000 X153.292 Y75.500
G1 F2220 X142.365 Y75.500 E189.48971
G0 F12000 X142.365 Y76.000
G1 F2220 X152.472 Y76.000 E190.12001
G0 F12000 X151.776 Y76.500
G1 F2220 X142.365 Y76.500 E190.70690
G0 F12000 X142.365 Y77.000
G1 F2220 X151.168 Y77.000 E191.25588
G0 F12000 X150.631 Y77.500
G1 F2220 X142.365 Y77.500 E191.77137
G0 F12000 X142.365 Y78.000
G1 F2220 X150.150 Y78.000 E192.25687
G0 F12000 X149.714 Y78.500
G1 F2220 X142.365 Y78.500 E192.71517
G0 F12000 X142.365 Y79.000
G1 F2220 X149.324 Y79.000 E193.14915
G0 F12000 X148.979 Y79.500
G1 F2220 X142.365 Y79.500 E193.56162
G0 F12000 X142.365 Y80.000
G1 F2220 X148.661 Y80.000 E193.95425
G0 F12000 X148.372 Y80.500
G1 F2220 X142.365 Y80.500 E194.32887
G0 F12000 X142.365 Y81.000
G1 F2220 X148.122 Y81.000 E194.68789
G0 F12000 X147.891 Y81.500
G1 F2220 X142.365 Y81.500 E195.03251
G0 F12000 X142.365 Y82.000
G1 F2220 X147.689 Y82.000 E195.36453
G0 F12000 X147.513 Y82.500
G1 F2220 X142.365 Y82.500 E195.68557
G0 F12000 X142.365 Y83.000
G1 F2220 X147.352 Y83.000 E195.99657
G0 F12000 X147.226 Y83.500
G1 F2220 X142.365 Y83.500 E196.29972
G0 F12000 X142.365 Y84.000
G1 F2220 X147.112 Y84.000 E196.59575
G0 F12000 X147.024 Y84.500
G1 F2220 X142.365 Y84.500 E196.88630
G0 F12000 X142.365 Y85.000
G1 F2220 X146.956 Y85.000 E197.17261
G0 F12000 X146.903 Y85.500
G1 F2220 X142.365 Y85.500 E197.45561
G0 F12000 X142.365 Y86.000
G1 F2220 X146.880 Y86.000 E197.73718
G0 F12000 X146.867 Y86.500
G1 F2220 X142.365 Y86.500 E198.01794
G0 F12000 X142.365 Y87.000
G1 F2220 X146.883 Y87.000 E198.29969
G0 F12000 X146.911 Y87.500
G1 F2220 X142.365 Y87.500 E198.58319
G0 F12000 X142.365 Y88.000
G1 F2220 X146.964 Y88.000 E198.87000
G0 F12000 X147.037 Y88.500
G1 F2220 X142.365 Y88.500 E199.16136
G0 F12000 X142.365 Y89.000
G1 F2220 X147.125 Y89.000 E199.45820
G0 F12000 X147.244 Y89.500
G1 F2220 X142.365 Y89.500 E199.76247
G0 F12000 X142.365 Y90.000
G1 F2220 X147.374 Y90.000 E200.07485
G0 F12000 X147.536 Y90.500
G1 F2220 X142.365 Y90.500 E200.39733
G0 F12000 X142.365 Y91.000
G1 F2220 X147.717 Y91.000 E200.73109
G0 F12000 X147.919 Y91.500
G1 F2220 X142.365 Y91.500 E201.07745
G0 F12000 X142.365 Y92.000
G1 F2220 X148.155 Y92.000 E201.43853
G0 F12000 X148.411 Y92.500
G1 F2220 X142.365 Y92.500 E201.81558
G0 F12000 X142.365 Y93.000
G1 F2220 X148.701 Y93.000 E202.21071
G0 F12000 X149.025 Y93.500
G1 F2220 X142.365 Y93.500 E202.62605
G0 F12000 X142.365 Y94.000
G1 F2220 X149.378 Y94.000 E203.06340
G0 F12000 X149.767 Y94.500
G1 F2220 X142.365 Y94.500 E203.52500
G0 F12000 X142.365 Y95.000
G1 F2220 X150.211 Y95.000 E204.01430
G0 F12000 X150.702 Y95.500
G1 F2220 X142.365 Y95.500 E204.53422
G0 F12000 X142.365 Y96.000
G1 F2220 X151.249 Y96.000 E205.08825
G0 F12000 X151.869 Y96.500
G1 F2220 X142.365 Y96.500 E205.68095
G0 F12000 X142.365 Y97.000
G1 F2220 X152.582 Y97.000 E206.31811
G0 F12000 X153.421 Y97.500
G1 F2220 X142.365 Y97.500 E207.00759
G0 F12000 X142.365 Y98.000
G1 F2220 X154.444 Y98.000 E207.76087
G0 F12000 X155.810 Y98.500
G1 F2220 X142.365 Y98.500 E208.59934
G0 F12000 X142.365 Y99.000
G1 F2220 X158.519 Y99.000 E209.60674
;LAYER:2
M106 S30
G0 F12000 X158.143 Y98.799 Z0.800
;TYPE:WALL-INNER
G1 F2700 X159.007 Y98.860 E209.66076
G1 X159.872 Y98.860 E209.71470
G1 X160.735 Y98.799 E209.76866
G1 X161.593 Y98.679 E209.82269
G1 X162.439 Y98.499 E209.87663
G1 X163.272 Y98.261 E209.93065
G1 X164.085 Y97.965 E209.98461
G1 X164.876 Y97.612 E210.03863
G1 X165.640 Y97.206 E210.09258
G1 X166.373 Y96.748 E210.14648
G1 X167.074 Y96.239 E210.20051
G1 X167.737 Y95.683 E210.25447
G1 X168.360 Y95.081 E210.30850
G1 X168.939 Y94.438 E210.36246
G1 X169.472 Y93.756 E210.41644
G1 X169.955 Y93.039 E210.47035
G1 X170.389 Y92.289 E210.52439
G1 X170.768 Y91.511 E210.57836
G1 X171.092 Y90.709 E210.63230
G1 X171.359 Y89.885 E210.68632
G1 X171.569 Y89.045 E210.74031
G1 X171.719 Y88.193 E210.79426
G1 X171.810 Y87.333 E210.84820
G1 X171.840 Y86.467 E210.90223
G1 X171.810 Y85.602 E210.95621
G1 X171.719 Y84.742 E211.01014
G1 X171.569 Y83.889 E211.06415
G1 X171.359 Y83.049 E211.11815
G1 X171.092 Y82.226 E211.17211
G1 X170.768 Y81.424 E211.22605
G1 X170.389 Y80.646 E211.28002
G1 X169.955 Y79.896 E211.33406
G1 X169.472 Y79.179 E211.38797
G1 X168.939 Y78.497 E211.44195
G1 X168.360 Y77.853 E211.49596
G1 X167.737 Y77.252 E211.54994
G1 X167.074 Y76.696 E211.60390
G1 X166.374 Y76.187 E211.65788
G1 X165.640 Y75.728 E211.71186
G1 X164.876 Y75.321 E211.76585
G1 X164.085 Y74.970 E211.81982
G1 X163.272 Y74.673 E211.87379
G1 X162.439 Y74.435 E211.92782
G1 X161.593 Y74.255 E211.98176
G1 X160.735 Y74.135 E212.03579
G1 X159.872 Y74.074 E212.08974
G1 X159.007 Y74.074 E212.14369
G1 X158.143 Y74.135 E212.19770
G1 X157.287 Y74.255 E212.25161
G1 X156.440 Y74.435 E212.30561
G1 X155.608 Y74.673 E212.35957
G1 X154.794 Y74.970 E212.41361
G1 X154.004 Y75.321 E212.46752
G1 X153.240 Y75.728 E212.52150
G1 X152.505 Y76.187 E212.57555
G1 X151.806 Y76.696 E212.62947
G1 X151.143 Y77.252 E212.68343
G1 X150.520 Y77.853 E212.73741
G1 X149.941 Y78.497 E212.79142
G1 X149.409 Y79.179 E212.84536
G1 X148.925 Y79.896 E212.89931
G1 X148.491 Y80.646 E212.95335
G1 X148.112 Y81.424 E213.00732
G1 X147.788 Y82.226 E213.06126
G1 X147.521 Y83.049 E213.11522
G1 X147.311 Y83.889 E213.16921
G1 X147.161 Y84.742 E213.22323
G1 X147.070 Y85.603 E213.27722
G1 X147.041 Y86.467 E213.33113
G1 X147.070 Y87.332 E213.38511
G1 X147.161 Y88.193 E213.43910
G1 X147.311 Y89.045 E213.49305
G1 X147.521 Y89.885 E213.54705
G1 X147.788 Y90.709 E213.60106
G1 X148.112 Y91.511 E213.65501
G1 X148.491 Y92.289 E213.70897
G1 X148.925 Y93.039 E213.76301
G1 X149.409 Y93.756 E213.81696
G1 X149.941 Y94.438 E213.87090
G1 X150.520 Y95.081 E213.92486
G1 X151.143 Y95.683 E213.97889
G1 X151.806 Y96.239 E214.03285
G1 X152.506 Y96.748 E214.08683
G1 X153.240 Y97.206 E214.14078
G1 X154.004 Y97.612 E214.19473
G1 X154.794 Y97.965 E214.24870
G1 X155.608 Y98.261 E214.30271
G1 X156.440 Y98.499 E214.35668
G1 X157.287 Y98.679 E214.41068
G1 X158.143 Y98.799 E214.46458
G1 F2100 E214.06458
G0 F12000 X142.191 Y99.617
G1 F2100 E214.46458
G1 F2700 X142.191 Y73.117 E216.11720
G1 X176.690 Y73.117 E218.26865
G1 X176.690 Y99.617 E219.92126
G1 X142.191 Y99.617 E222.07271
G0 F12000 X141.691 Y100.117
;TYPE:WALL-OUTER
G1 F2700 X141.691 Y72.617 E223.78769
G1 X177.190 Y72.617 E226.00151
G1 X177.190 Y100.117 E227.71648
G1 X141.691 Y100.117 E229.93030
G1 F2100 E229.53030
G0 F12000 X149.814 Y93.462
G1 F2100 E229.93030
G1 F2700 X150.324 Y94.117 E229.98207
G1 X150.880 Y94.734 E230.03386
G1 X151.478 Y95.311 E230.08568
G1 X152.114 Y95.845 E230.13747
G1 X152.785 Y96.333 E230.18922
G1 X153.490 Y96.773 E230.24104
G1 X154.223 Y97.163 E230.29282
G1 X154.981 Y97.501 E230.34458
G1 X155.763 Y97.785 E230.39646
G1 X156.561 Y98.014 E230.44824
G1 X157.374 Y98.186 E230.50006
G1 X158.196 Y98.302 E230.55183
G1 X159.024 Y98.360 E230.60359
G1 X159.855 Y98.360 E230.65542
G1 X160.683 Y98.302 E230.70718
G1 X161.506 Y98.186 E230.75901
G1 X162.318 Y98.014 E230.81077
G1 X163.117 Y97.785 E230.86261
G1 X163.898 Y97.501 E230.91443
G1 X164.657 Y97.163 E230.96625
G1 X165.390 Y96.773 E231.01803
G1 X166.094 Y96.333 E231.06980
G1 X166.766 Y95.845 E231.12159
G1 X167.402 Y95.311 E231.17338
G1 X168.000 Y94.734 E231.22520
G1 X168.556 Y94.117 E231.27700
G1 X169.067 Y93.462 E231.32881
G1 X169.531 Y92.774 E231.38056
G1 X169.947 Y92.054 E231.43242
G1 X170.311 Y91.308 E231.48418
G1 X170.622 Y90.538 E231.53597
G1 X170.878 Y89.747 E231.58782
G1 X171.080 Y88.941 E231.63964
G1 X171.224 Y88.124 E231.69137
G1 X171.311 Y87.298 E231.74317
G1 X171.340 Y86.467 E231.79502
G1 X171.311 Y85.637 E231.84682
G1 X171.224 Y84.811 E231.89861
G1 X171.080 Y83.993 E231.95041
G1 X170.878 Y83.187 E232.00223
G1 X170.622 Y82.397 E232.05402
G1 X170.311 Y81.627 E232.10581
G1 X169.947 Y80.881 E232.15757
G1 X169.531 Y80.161 E232.20943
G1 X169.067 Y79.473 E232.26118
G1 X168.556 Y78.818 E232.31299
G1 X168.000 Y78.200 E232.36483
G1 X167.402 Y77.624 E232.41661
G1 X166.766 Y77.090 E232.46840
G1 X166.094 Y76.602 E232.52019
G1 X165.390 Y76.161 E232.57200
G1 X164.657 Y75.771 E232.62378
G1 X163.898 Y75.434 E232.67556
G1 X163.117 Y75.149 E232.72741
G1 X162.318 Y74.920 E232.77925
G1 X161.506 Y74.748 E232.83101
G1 X160.683 Y74.632 E232.88284
G1 X159.855 Y74.574 E232.93460
G1 X159.024 Y74.574 E232.98643
G1 X158.196 Y74.632 E233.03819
G1 X157.374 Y74.748 E233.08996
G1 X156.561 Y74.920 E233.14178
G1 X155.763 Y75.149 E233.19356
G1 X154.981 Y75.434 E233.24546
G1 X154.223 Y75.771 E233.29719
G1 X153.490 Y76.161 E233.34897
G1 X152.785 Y76.602 E233.40083
G1 X152.114 Y77.090 E233.45257
G1 X151.478 Y77.624 E233.50436
G1 X150.880 Y78.200 E233.55614
G1 X150.324 Y78.818 E233.60798
G1 X149.814 Y79.473 E233.65975
G1 X149.349 Y80.161 E233.71154
G1 X148.933 Y80.881 E233.76340
G1 X148.569 Y81.627 E233.81516
G1 X148.258 Y82.397 E233.86695
G1 X148.002 Y83.187 E233.91874
G1 X147.800 Y83.993 E233.97056
G1 X147.656 Y84.811 E234.02236
G1 X147.569 Y85.638 E234.07421
G1 X147.541 Y86.467 E234.12594
G1 X147.569 Y87.297 E234.17773
G1 X147.656 Y88.124 E234.22959
G1 X147.800 Y88.941 E234.28133
G1 X148.002 Y89.747 E234.33315
G1 X148.258 Y90.538 E234.38499
G1 X148.569 Y91.308 E234.43678
G1 X148.933 Y92.054 E234.48855
G1 X149.349 Y92.774 E234.54040
G1 X149.814 Y93.462 E234.59219
G0 F12000 X149.500 Y94.158
;TYPE:SKIN
G1 F2700 X149.500 Y99.442 E234.92172
G0 F12000 X149.000 Y99.442
G1 F2700 X149.000 Y93.463 E235.29458
G0 F12000 X148.500 Y92.654
G1 F2700 X148.500 Y99.442 E235.71790
G0 F12000 X148.000 Y99.442
G1 F2700 X148.000 Y91.682 E236.20184
G0 F12000 X147.500 Y90.389
G1 F2700 X147.500 Y99.442 E236.76641
G0 F12000 X147.000 Y99.442
G1 F2700 X147.000 Y88.289 E237.46194
G1 F2100 E237.06194
G0 F12000 X147.000 Y84.647
G1 F2100 E237.46194
G1 F2700 X147.000 Y73.292 E238.17007
G0 F12000 X146.500 Y73.292
G1 F2700 X146.500 Y99.442 E239.80085
G0 F12000 X146.000 Y99.442
G1 F2700 X146.000 Y73.292 E241.43164
G0 F12000 X145.500 Y73.292
G1 F2700 X145.500 Y99.442 E243.06242
G0 F12000 X145.000 Y99.442
G1 F2700 X145.000 Y73.292 E244.69321
G0 F12000 X144.500 Y73.292
G1 F2700 X144.500 Y99.442 E246.32400
G0 F12000 X144.000 Y99.442
G1 F2700 X144.000 Y73.292 E247.95478
G0 F12000 X143.500 Y73.292
G1 F2700 X143.500 Y99.442 E249.58557
G0 F12000 X143.000 Y99.442
G1 F2700 X143.000 Y73.292 E251.21635
G0 F12000 X142.500 Y73.292
G1 F2700 X142.500 Y99.442 E252.84714
G1 F2100 E252.44714
G0 F12000 X150.000 Y99.442
G1 F2100 E252.84714
G1 F2700 X150.000 Y94.766 E253.13875
G0 F12000 X150.500 Y95.306
G1 F2700 X150.500 Y99.442 E253.39668
G0 F12000 X151.000 Y99.442
G1 F2700 X151.000 Y95.788 E253.62455
G0 F12000 X151.500 Y96.211
G1 F2700 X151.500 Y99.442 E253.82605
G0 F12000 X152.000 Y99.442
G1 F2700 X152.000 Y96.596 E254.00353
G0 F12000 X152.500 Y96.950
G1 F2700 X152.500 Y99.442 E254.15894
G0 F12000 X153.000 Y99.442
G1 F2700 X153.000 Y97.263 E254.29483
G0 F12000 X153.500 Y97.543
G1 F2700 X153.500 Y99.442 E254.41326
G0 F12000 X154.000 Y99.442
G1 F2700 X154.000 Y97.803 E254.51547
G0 F12000 X154.500 Y98.026
G1 F2700 X154.500 Y99.442 E254.60377
G0 F12000 X155.000 Y99.442
G1 F2700 X155.000 Y98.227 E254.67955
G0 F12000 X155.500 Y98.409
G1 F2700 X155.500 Y99.442 E254.74397
G0 F12000 X156.000 Y99.442
G1 F2700 X156.250 Y98.623 E254.79918
G1 X156.750 Y99.442 E254.84598
G1 X157.250 Y98.842 E254.88611
G1 X157.750 Y99.442 E254.92070
G1 X158.250 Y98.978 E254.95098
G1 X158.750 Y99.442 E254.97855
G1 X159.250 Y99.035 E255.00388
G1 X159.500 Y99.442 E255.03367
G1 F2100 E254.63367
G0 F12000 X147.500 Y82.546
G1 F2100 E255.03367
G1 F2700 X147.500 Y73.292 E255.61077
G0 F12000 X148.000 Y73.292
G1 F2700 X148.000 Y81.254 E256.10730
G0 F12000 X148.500 Y80.282
G1 F2700 X148.500 Y73.292 E256.54322
G0 F12000 X149.000 Y73.292
G1 F2700 X149.000 Y79.473 E256.92868
G0 F12000 X149.500 Y78.778
G1 F2700 X149.500 Y73.292 E257.27080
G0 F12000 X150.000 Y73.292
G1 F2700 X150.000 Y78.170 E257.57501
G0 F12000 X150.500 Y77.629
G1 F2700 X150.500 Y73.292 E257.84548
G0 F12000 X151.000 Y73.292
G1 F2700 X151.000 Y77.147 E258.08589
G0 F12000 X151.500 Y76.725
G1 F2700 X151.500 Y73.292 E258.29998
G0 F12000 X152.000 Y73.292
G1 F2700 X152.000 Y76.339 E258.49000
G0 F12000 X152.500 Y75.985
G1 F2700 X152.500 Y73.292 E258.65794
G0 F12000 X153.000 Y73.292
G1 F2700 X153.000 Y75.672 E258.80636
G0 F12000 X153.500 Y75.392
G1 F2700 X153.500 Y73.292 E258.93732
G0 F12000 X154.000 Y73.292
G1 F2700 X154.000 Y75.132 E259.05207
G0 F12000 X154.500 Y74.910
G1 F2700 X154.500 Y73.292 E259.15298
G0 F12000 X155.000 Y73.292
G1 F2700 X155.000 Y74.709 E259.24134
G0 F12000 X155.500 Y74.526
G1 F2700 X155.500 Y73.292 E259.31830
G0 F12000 X156.000 Y73.292
G1 F2700 X156.000 Y74.379 E259.38609
G0 F12000 X156.500 Y74.243
G1 F2700 X156.750 Y73.292 E259.44532
G1 X157.250 Y74.093 E259.49797
G1 X157.750 Y73.292 E259.54508
G1 X158.250 Y73.957 E259.58783
G1 X158.750 Y73.292 E259.62789
G1 X159.250 Y73.899 E259.66575
G1 X159.750 Y73.292 E259.70361
G1 X160.250 Y73.924 E259.74190
G1 X160.750 Y73.292 E259.78241
G1 X161.250 Y74.029 E259.82618
G1 X161.750 Y73.292 E259.87427
G1 X162.250 Y74.216 E259.92852
G1 X162.500 Y73.292 E259.98822
G0 F12000 X163.000 Y73.292
G1 F2700 X163.000 Y74.413 E260.05813
G0 F12000 X163.500 Y74.569
G1 F2700 X163.500 Y73.292 E260.13776
G0 F12000 X164.000 Y73.292
G1 F2700 X164.000 Y74.752 E260.22881
G0 F12000 X164.500 Y74.962
G1 F2700 X164.500 Y73.292 E260.33296
G0 F12000 X165.000 Y73.292
G1 F2700 X165.000 Y75.188 E260.45120
G0 F12000 X165.500 Y75.455
G1 F2700 X165.500 Y73.292 E260.58609
G0 F12000 X166.000 Y73.292
G1 F2700 X166.000 Y75.747 E260.73919
G0 F12000 X166.500 Y76.062
G1 F2700 X166.500 Y73.292 E260.91194
G0 F12000 X167.000 Y73.292
G1 F2700 X167.000 Y76.426 E261.10738
G0 F12000 X167.500 Y76.824
G1 F2700 X167.500 Y73.292 E261.32765
G0 F12000 X168.000 Y73.292
G1 F2700 X168.000 Y77.262 E261.57523
G0 F12000 X168.500 Y77.746
G1 F2700 X168.500 Y73.292 E261.85299
G0 F12000 X169.000 Y73.292
G1 F2700 X169.000 Y78.302 E262.16543
G0 F12000 X169.500 Y78.930
G1 F2700 X169.500 Y73.292 E262.51703
G0 F12000 X170.000 Y73.292
G1 F2700 X170.000 Y79.649 E262.91347
G0 F12000 X170.500 Y80.489
G1 F2700 X170.500 Y73.292 E263.36229
G0 F12000 X171.000 Y73.292
G1 F2700 X171.000 Y81.530 E263.87604
G0 F12000 X171.500 Y82.917
G1 F2700 X171.500 Y73.292 E264.47628
G0 F12000 X172.000 Y73.292
G1 F2700 X172.000 Y86.028 E265.27053
G0 F12000 X172.000 Y86.903
G1 F2700 X172.000 Y99.442 E266.05250
G0 F12000 X171.500 Y99.442
G1 F2700 X171.500 Y90.016 E266.64033
G0 F12000 X171.000 Y91.403
G1 F2700 X171.000 Y99.442 E267.14166
G0 F12000 X170.500 Y99.442
G1 F2700 X170.500 Y92.445 E267.57802
G0 F12000 X170.000 Y93.285
G1 F2700 X170.000 Y99.442 E267.96198
G0 F12000 X169.500 Y99.442
G1 F2700 X169.500 Y94.004 E268.30111
G0 F12000 X169.000 Y94.632
G1 F2700 X169.000 Y99.442 E268.60108
G0 F12000 X168.500 Y99.442
G1 F2700 X168.500 Y95.187 E268.86643
G0 F12000 X168.000 Y95.672
G1 F2700 X168.000 Y99.442 E269.10154
G0 F12000 X167.500 Y99.442
G1 F2700 X167.500 Y96.110 E269.30933
G0 F12000 X167.000 Y96.508
G1 F2700 X167.000 Y99.442 E269.49230
G0 F12000 X166.500 Y99.442
G1 F2700 X166.500 Y96.871 E269.65264
G0 F12000 X166.000 Y97.186
G1 F2700 X166.000 Y99.442 E269.79333
G0 F12000 X165.500 Y99.442
G1 F2700 X165.500 Y97.478 E269.91581
G0 F12000 X165.000 Y97.745
G1 F2700 X165.000 Y99.442 E270.02164
G0 F12000 X164.500 Y99.442
G1 F2700 X164.500 Y97.971 E270.11337
G0 F12000 X164.000 Y98.182
G1 F2700 X164.000 Y99.442 E270.19195
G0 F12000 X163.500 Y99.442
G1 F2700 X163.500 Y98.364 E270.25918
G0 F12000 X163.000 Y98.520
G1 F2700 X162.750 Y99.442 E270.31661
G1 X162.250 Y98.717 E270.36516
G1 X161.750 Y99.442 E270.40701
G1 X161.250 Y98.903 E270.44268
G1 X160.750 Y99.442 E270.47404
G1 X160.250 Y99.008 E270.50212
G1 X160.000 Y99.442 E270.53335
G1 F2100 E270.13335
G0 F12000 X172.500 Y99.442
G1 F2100 E270.53335
G1 F2700 X172.500 Y73.292 E272.16414
G0 F12000 X173.000 Y73.292
G1 F2700 X173.000 Y99.442 E273.79492
G0 F12000 X173.500 Y99.442
G1 F2700 X173.500 Y73.292 E275.42571
G0 F12000 X174.000 Y73.292
G1 F2700 X174.000 Y99.442 E277.05650
G0 F12000 X174.500 Y99.442
G1 F2700 X174.500 Y73.292 E278.68728
G0 F12000 X175.000 Y73.292
G1 F2700 X175.000 Y99.442 E280.31807
G0 F12000 X175.500 Y99.442
G1 F2700 X175.500 Y73.292 E281.94885
G0 F12000 X176.000 Y73.292
G1 F2700 X176.000 Y99.442 E283.57964
G0 F12000 X176.500 Y99.442
G1 F2700 X176.500 Y73.292 E285.21043
;LAYER:3
M106 S45
G0 F12000 X176.690 Y73.117 Z1.100
;TYPE:WALL-INNER
G1 F3120 X176.690 Y99.617 E286.86304
G1 X142.191 Y99.617 E289.01449
G1 X142.191 Y73.117 E290.66711
G1 X176.690 Y73.117 E292.81856
G1 F2100 E292.41856
G0 F12000 X169.472 Y79.179
G1 F2100 E292.81856
G1 F3120 X168.939 Y78.497 E292.87254
G1 X168.360 Y77.853 E292.92654
G1 X167.737 Y77.252 E292.98053
G1 X167.074 Y76.696 E293.03449
G1 X166.374 Y76.187 E293.08846
G1 X165.640 Y75.728 E293.14245
G1 X164.876 Y75.321 E293.19644
G1 X164.085 Y74.970 E293.25040
G1 X163.272 Y74.673 E293.30438
G1 X162.439 Y74.435 E293.35841
G1 X161.593 Y74.255 E293.41235
G1 X160.735 Y74.135 E293.46638
G1 X159.872 Y74.074 E293.52033
G1 X159.007 Y74.074 E293.57427
G1 X158.143 Y74.135 E293.62829
G1 X157.287 Y74.255 E293.68219
G1 X156.440 Y74.435 E293.73619
G1 X155.608 Y74.673 E293.79016
G1 X154.794 Y74.970 E293.84420
G1 X154.004 Y75.321 E293.89811
G1 X153.240 Y75.728 E293.95209
G1 X152.505 Y76.187 E294.00613
G1 X151.806 Y76.696 E294.06006
G1 X151.143 Y77.252 E294.11402
G1 X150.520 Y77.853 E294.16800
G1 X149.941 Y78.497 E294.22201
G1 X149.409 Y79.179 E294.27595
G1 X148.925 Y79.896 E294.32990
G1 X148.491 Y80.646 E294.38394
G1 X148.112 Y81.424 E294.43790
G1 X147.788 Y82.226 E294.49185
G1 X147.521 Y83.049 E294.54580
G1 X147.311 Y83.889 E294.59980
G1 X147.161 Y84.742 E294.65381
G1 X147.070 Y85.603 E294.70781
G1 X147.041 Y86.467 E294.76172
G1 X147.070 Y87.332 E294.81569
G1 X147.161 Y88.193 E294.86969
G1 X147.311 Y89.045 E294.92364
G1 X147.521 Y89.885 E294.97763
G1 X147.788 Y90.709 E295.03165
G1 X148.112 Y91.511 E295.08559
G1 X148.491 Y92.289 E295.13956
G1 X148.925 Y93.039 E295.19360
G1 X149.409 Y93.756 E295.24755
G1 X149.941 Y94.438 E295.30149
G1 X150.520 Y95.081 E295.35545
G1 X151.143 Y95.683 E295.40948
G1 X151.806 Y96.239 E295.46344
G1 X152.506 Y96.748 E295.51741
G1 X153.240 Y97.206 E295.57137
G1 X154.004 Y97.612 E295.62532
G1 X154.794 Y97.965 E295.67928
G1 X155.608 Y98.261 E295.73330
G1 X156.440 Y98.499 E295.78727
G1 X157.287 Y98.679 E295.84127
G1 X158.143 Y98.799 E295.89517
G1 X159.007 Y98.860 E295.94919
G1 X159.872 Y98.860 E296.00313
G1 X160.735 Y98.799 E296.05708
G1 X161.593 Y98.679 E296.11111
G1 X162.439 Y98.499 E296.16505
G1 X163.272 Y98.261 E296.21908
G1 X164.085 Y97.965 E296.27303
G1 X164.876 Y97.612 E296.32705
G1 X165.640 Y97.206 E296.38101
G1 X166.373 Y96.748 E296.43491
G1 X167.074 Y96.239 E296.48893
G1 X167.737 Y95.683 E296.54290
G1 X168.360 Y95.081 E296.59692
G1 X168.939 Y94.438 E296.65088
G1 X169.472 Y93.756 E296.70486
G1 X169.955 Y93.039 E296.75878
G1 X170.389 Y92.289 E296.81281
G1 X170.768 Y91.511 E296.86678
G1 X171.092 Y90.709 E296.92073
G1 X171.359 Y89.885 E296.97474
G1 X171.569 Y89.045 E297.02874
G1 X171.719 Y88.193 E297.08269
G1 X171.810 Y87.333 E297.13662
G1 X171.840 Y86.467 E297.19066
G1 X171.810 Y85.602 E297.24464
G1 X171.719 Y84.742 E297.29857
G1 X171.569 Y83.889 E297.35258
G1 X171.359 Y83.049 E297.40658
G1 X171.092 Y82.226 E297.46053
G1 X170.768 Y81.424 E297.51448
G1 X170.389 Y80.646 E297.56844
G1 X169.955 Y79.896 E297.62248
G1 X169.472 Y79.179 E297.67640
G0 F12000 X169.067 Y79.473
;TYPE:WALL-OUTER
G1 F3120 X168.556 Y78.818 E297.72820
G1 X168.000 Y78.200 E297.78005
G1 X167.402 Y77.624 E297.83183
G1 X166.766 Y77.090 E297.88362
G1 X166.094 Y76.602 E297.93541
G1 X165.390 Y76.161 E297.98721
G1 X164.657 Y75.771 E298.03899
G1 X163.898 Y75.434 E298.09078
G1 X163.117 Y75.149 E298.14263
G1 X162.318 Y74.920 E298.19446
G1 X161.506 Y74.748 E298.24623
G1 X160.683 Y74.632 E298.29806
G1 X159.855 Y74.574 E298.34982
G1 X159.024 Y74.574 E298.40164
G1 X158.196 Y74.632 E298.45341
G1 X157.374 Y74.748 E298.50518
G1 X156.561 Y74.920 E298.55700
G1 X155.763 Y75.149 E298.60877
G1 X154.981 Y75.434 E298.66068
G1 X154.223 Y75.771 E298.71241
G1 X153.490 Y76.161 E298.76419
G1 X152.785 Y76.602 E298.81605
G1 X152.114 Y77.090 E298.86779
G1 X151.478 Y77.624 E298.91958
G1 X150.880 Y78.200 E298.97136
G1 X150.324 Y78.818 E299.02320
G1 X149.814 Y79.473 E299.07497
G1 X149.349 Y80.161 E299.12676
G1 X148.933 Y80.881 E299.17861
G1 X148.569 Y81.627 E299.23038
G1 X148.258 Y82.397 E299.28217
G1 X148.002 Y83.187 E299.33396
G1 X147.800 Y83.993 E299.38578
G1 X147.656 Y84.811 E299.43757
G1 X147.569 Y85.638 E299.48943
G1 X147.541 Y86.467 E299.54116
G1 X147.569 Y87.297 E299.59295
G1 X147.656 Y88.124 E299.64481
G1 X147.800 Y88.941 E299.69654
G1 X148.002 Y89.747 E299.74836
G1 X148.258 Y90.538 E299.80021
G1 X148.569 Y91.308 E299.85200
G1 X148.933 Y92.054 E299.90377
G1 X149.349 Y92.774 E299.95562
G1 X149.814 Y93.462 E300.00741
G1 X150.324 Y94.117 E300.05918
G1 X150.880 Y94.734 E300.11097
G1 X151.478 Y95.311 E300.16280
G1 X152.114 Y95.845 E300.21459
G1 X152.785 Y96.333 E300.26633
G1 X153.490 Y96.773 E300.31815
G1 X154.223 Y97.163 E300.36993
G1 X154.981 Y97.501 E300.42169
G1 X155.763 Y97.785 E300.47357
G1 X156.561 Y98.014 E300.52535
G1 X157.374 Y98.186 E300.57717
G1 X158.196 Y98.302 E300.62894
G1 X159.024 Y98.360 E300.68070
G1 X159.855 Y98.360 E300.73253
G1 X160.683 Y98.302 E300.78429
G1 X161.506 Y98.186 E300.83612
G1 X162.318 Y98.014 E300.88788
G1 X163.117 Y97.785 E300.93972
G1 X163.898 Y97.501 E300.99154
G1 X164.657 Y97.163 E301.04336
G1 X165.390 Y96.773 E301.09514
G1 X166.094 Y96.333 E301.14691
G1 X166.766 Y95.845 E301.19870
G1 X167.402 Y95.311 E301.25049
G1 X168.000 Y94.734 E301.30232
G1 X168.556 Y94.117 E301.35411
G1 X169.067 Y93.462 E301.40592
G1 X169.531 Y92.774 E301.45767
G1 X169.947 Y92.054 E301.50953
G1 X170.311 Y91.308 E301.56129
G1 X170.622 Y90.538 E301.61308
G1 X170.878 Y89.747 E301.66493
G1 X171.080 Y88.941 E301.71675
G1 X171.224 Y88.124 E301.76848
G1 X171.311 Y87.298 E301.82028
G1 X171.340 Y86.467 E301.87213
G1 X171.311 Y85.637 E301.92393
G1 X171.224 Y84.811 E301.97572
G1 X171.080 Y83.993 E302.02752
G1 X170.878 Y83.187 E302.07934
G1 X170.622 Y82.397 E302.13113
G1 X170.311 Y81.627 E302.18292
G1 X169.947 Y80.881 E302.23468
G1 X169.531 Y80.161 E302.28654
G1 X169.067 Y79.473 E302.33829
G1 F2100 E301.93829
G0 F12000 X177.190 Y72.617
G1 F2100 E302.33829
G1 F3120 X177.190 Y100.117 E304.05327
G1 X141.691 Y100.117 E306.26708
G1 X141.691 Y72.617 E307.98206
G1 X177.190 Y72.617 E310.19587
G1 F2100 E309.79587
G0 F12000 X176.514 Y77.785
;TYPE:FILL
G1 F2100 E310.19587
G1 F3120 X170.798 Y81.085 E310.60748
G0 F12000 X170.922 Y81.339
G1 F3120 X170.922 Y73.292 E311.10931
G1 F2100 E310.70931
G0 F12000 X164.693 Y73.291
G1 F2100 E311.10931
G1 F3120 X162.833 Y74.365 E311.24326
G1 F2100 E310.84326
G0 F12000 X161.120 Y74.011
G1 F2100 E311.24326
G1 F3120 X161.120 Y73.292 E311.28809
G1 F2100 E310.88809
G0 F12000 X170.211 Y79.991
G1 F2100 E311.28809
G1 F3120 X176.515 Y83.630 E311.74203
G1 F2100 E311.34203
G0 F12000 X176.514 Y89.103
G1 F2100 E311.74203
G1 F3120 X170.386 Y92.641 E312.18331
G0 F12000 X170.873 Y91.692
G1 F3120 X176.514 Y94.949 E312.58952
G1 F2100 E312.18952
G0 F12000 X170.922 Y91.595
G1 F2100 E312.58952
G1 F3120 X170.922 Y99.442 E313.07888
G1 F2100 E312.67888
G0 F12000 X164.691 Y99.441
G1 F2100 E313.07888
G1 F3120 X163.064 Y98.502 E313.19603
G1 F2100 E312.79603
G0 F12000 X161.120 Y98.922
G1 F2100 E313.19603
G1 F3120 X161.120 Y99.442 E313.22846
G1 F2100 E312.82846
G0 F12000 X159.313 Y99.034
G1 F2100 E313.22846
G1 F3120 X158.607 Y99.442 E313.27931
G1 F2100 E312.87931
G0 F12000 X151.318 Y99.442
G1 F2100 E313.27931
G1 F3120 X151.318 Y96.059 E313.49029
G1 F2100 E313.09029
G0 F12000 X149.100 Y93.612
G1 F2100 E313.49029
G1 F3120 X142.365 Y97.500 E313.97526
G0 F12000 X142.365 Y97.869
G1 F3120 X145.087 Y99.441 E314.17129
G1 F2100 E313.77129
G0 F12000 X147.206 Y89.346
G1 F2100 E314.17129
G1 F3120 X142.364 Y86.551 E314.51995
G0 F12000 X142.365 Y86.182
G1 F3120 X147.263 Y83.354 E314.87266
G1 F2100 E314.47266
G0 F12000 X149.197 Y79.177
G1 F2100 E314.87266
G1 F3120 X142.364 Y75.232 E315.36470
G0 F12000 X142.365 Y74.864
G1 F3120 X145.089 Y73.291 E315.56087
G1 F2100 E315.16087
G0 F12000 X151.318 Y73.292
G1 F2100 E315.56087
G1 F3120 X151.318 Y76.877 E315.78444
G1 F2100 E315.38444
G0 F12000 X158.608 Y73.292
G1 F2100 E315.78444
G1 F3120 X159.658 Y73.898 E315.86004
;LAYER:4
M106 S63
G0 F12000 X159.348 Y74.074 Z1.400
;TYPE:WALL-INNER
G1 F3600 X159.007 Y74.074 E315.88131
G1 X158.459 Y74.112 E315.91556
G1 X157.624 Y74.207 E315.96797
G1 X156.748 Y74.369 E316.02353
G1 X155.920 Y74.584 E316.07688
G1 X155.099 Y74.858 E316.13085
G1 X154.316 Y75.183 E316.18372
G1 X154.004 Y75.321 E316.20500
G1 X153.533 Y75.572 E316.23828
G1 X152.773 Y76.020 E316.29330
G1 X152.069 Y76.504 E316.34658
G1 X151.392 Y77.042 E316.40050
G1 X150.766 Y77.615 E316.45343
G1 X150.520 Y77.853 E316.47477
G1 X149.941 Y78.497 E316.52878
G1 X149.603 Y78.930 E316.56304
G1 X149.116 Y79.613 E316.61535
G1 X148.925 Y79.896 E316.63664
G1 X148.658 Y80.358 E316.66992
G1 X148.251 Y81.140 E316.72490
G1 X147.917 Y81.909 E316.77718
G1 X147.788 Y82.226 E316.79852
G1 X147.624 Y82.733 E316.83176
G1 X147.521 Y83.048 E316.85242
G1 X147.311 Y83.889 E316.90648
G1 X147.216 Y84.431 E316.94080
G1 X147.104 Y85.279 E316.99414
G1 X147.053 Y86.126 E317.04706
G1 X147.041 Y86.466 E317.06827
G1 X147.058 Y87.001 E317.10165
G1 X147.070 Y87.333 E317.12237
G1 X147.128 Y87.880 E317.15668
G1 X147.252 Y88.710 E317.20901
G1 X147.311 Y89.045 E317.23022
G1 X147.520 Y89.884 E317.28415
G1 X147.685 Y90.393 E317.31751
G1 X147.988 Y91.204 E317.37151
G1 X148.113 Y91.512 E317.39223
G1 X148.353 Y92.005 E317.42643
G1 X148.754 Y92.744 E317.47886
G1 X149.409 Y93.756 E317.55404
G1 X149.747 Y94.189 E317.58830
G1 X150.292 Y94.827 E317.64062
G1 X150.916 Y95.464 E317.69623
G1 X151.557 Y96.030 E317.74956
G1 X152.242 Y96.557 E317.80346
G1 X152.950 Y97.025 E317.85639
G1 X153.710 Y97.456 E317.91087
G1 X154.506 Y97.836 E317.96588
G1 X155.302 Y98.149 E318.01922
G1 X156.127 Y98.410 E318.07318
G1 X156.969 Y98.611 E318.12717
G1 X157.805 Y98.751 E318.18003
G1 X158.143 Y98.799 E318.20132
G1 X158.692 Y98.837 E318.23564
G1 X159.531 Y98.860 E318.28798
G1 X159.872 Y98.860 E318.30925
G1 X160.420 Y98.822 E318.34350
G1 X161.255 Y98.727 E318.39591
G1 X162.131 Y98.565 E318.45147
G1 X162.959 Y98.351 E318.50480
G1 X163.779 Y98.077 E318.55872
G1 X164.579 Y97.746 E318.61271
G1 X165.339 Y97.367 E318.66567
G1 X166.106 Y96.916 E318.72116
G1 X166.811 Y96.431 E318.77452
G1 X167.489 Y95.892 E318.82854
G1 X168.126 Y95.307 E318.88248
G1 X168.722 Y94.681 E318.93638
G1 X169.273 Y94.013 E318.99038
G1 X169.764 Y93.321 E319.04329
G1 X170.222 Y92.577 E319.09778
G1 X170.629 Y91.795 E319.15276
G1 X170.963 Y91.026 E319.20504
G1 X171.092 Y90.709 E319.22638
G1 X171.256 Y90.202 E319.25961
G1 X171.359 Y89.885 E319.28040
G1 X171.569 Y89.045 E319.33440
G1 X171.664 Y88.503 E319.36871
G1 X171.776 Y87.656 E319.42200
G1 X171.828 Y86.809 E319.47492
G1 X171.840 Y86.467 E319.49626
G1 X171.810 Y85.602 E319.55023
G1 X171.752 Y85.055 E319.58454
G1 X171.628 Y84.226 E319.63681
G1 X171.569 Y83.889 E319.65815
G1 X171.360 Y83.050 E319.71207
G1 X171.190 Y82.526 E319.74642
G1 X170.896 Y81.739 E319.79882
G1 X170.767 Y81.423 E319.82010
G1 X170.527 Y80.930 E319.85429
G1 X170.126 Y80.191 E319.90673
G1 X169.649 Y79.440 E319.96221
G1 X169.139 Y78.753 E320.01557
G1 X168.588 Y78.107 E320.06852
G1 X168.360 Y77.853 E320.08981
G1 X167.964 Y77.471 E320.12412
G1 X167.323 Y76.905 E320.17745
G1 X166.650 Y76.388 E320.23037
G1 X166.374 Y76.187 E320.25166
G1 X165.640 Y75.728 E320.30565
G1 X165.170 Y75.478 E320.33885
G1 X164.373 Y75.098 E320.39391
G1 X163.578 Y74.785 E320.44720
G1 X162.753 Y74.524 E320.50116
G1 X161.911 Y74.323 E320.55514
G1 X161.075 Y74.183 E320.60801
G1 X160.736 Y74.135 E320.62936
G1 X160.187 Y74.097 E320.66368
G1 X159.348 Y74.074 E320.71602
G1 F2100 E320.31602
G0 F12000 X142.191 Y73.117
G1 F2100 E320.71602
G1 F3600 X176.690 Y73.117 E322.86747
G1 X176.690 Y99.617 E324.52008
G1 X142.191 Y99.617 E326.67154
G1 X142.191 Y73.117 E328.32415
G0 F12000 X141.691 Y72.617
;TYPE:WALL-OUTER
G1 F3600 X177.190 Y72.617 E330.53796
G1 X177.190 Y100.117 E332.25294
G1 X141.691 Y100.117 E334.46676
G1 X141.691 Y72.617 E336.18173
G1 F2100 E335.78173
G0 F12000 X150.004 Y79.229
G1 F2100 E336.18173
G1 F3600 X149.527 Y79.898 E336.23297
G1 X149.349 Y80.161 E336.25278
G1 X148.933 Y80.881 E336.30463
G1 X148.705 Y81.349 E336.33710
G1 X148.378 Y82.103 E336.38835
G1 X148.258 Y82.397 E336.40815
G1 X148.099 Y82.888 E336.44034
G1 X148.002 Y83.187 E336.45994
G1 X147.800 Y83.993 E336.51176
G1 X147.710 Y84.507 E336.54430
G1 X147.602 Y85.327 E336.59588
G1 X147.552 Y86.150 E336.64730
G1 X147.541 Y86.467 E336.66708
G1 X147.569 Y87.297 E336.71887
G1 X147.624 Y87.817 E336.75148
G1 X147.745 Y88.629 E336.80268
G1 X148.001 Y89.747 E336.87421
G1 X148.258 Y90.537 E336.92601
G1 X148.569 Y91.308 E336.97786
G1 X148.798 Y91.776 E337.01035
G1 X149.190 Y92.499 E337.06164
G1 X149.814 Y93.462 E337.13320
G1 X150.134 Y93.873 E337.16569
G1 X150.668 Y94.498 E337.21695
G1 X151.255 Y95.097 E337.26925
G1 X151.875 Y95.644 E337.32082
G1 X152.533 Y96.150 E337.37258
G1 X153.221 Y96.604 E337.42399
G1 X153.490 Y96.773 E337.44380
G1 X154.223 Y97.163 E337.49558
G1 X154.699 Y97.375 E337.52807
G1 X155.469 Y97.678 E337.57968
G1 X156.261 Y97.928 E337.63147
G1 X157.068 Y98.121 E337.68322
G1 X157.882 Y98.257 E337.73468
G1 X158.196 Y98.302 E337.75447
G1 X158.716 Y98.338 E337.78697
G1 X159.538 Y98.360 E337.83825
G1 X159.855 Y98.360 E337.85802
G1 X160.375 Y98.324 E337.89053
G1 X161.192 Y98.231 E337.94181
G1 X161.507 Y98.186 E337.96165
G1 X162.016 Y98.078 E337.99410
G1 X162.817 Y97.871 E338.04569
G1 X163.604 Y97.608 E338.09744
G1 X164.372 Y97.291 E338.14926
G1 X165.110 Y96.922 E338.20071
G1 X165.390 Y96.773 E338.22049
G1 X165.832 Y96.497 E338.25299
G1 X166.514 Y96.029 E338.30457
G1 X167.164 Y95.512 E338.35636
G1 X167.775 Y94.950 E338.40814
G1 X168.347 Y94.349 E338.45988
G1 X168.876 Y93.708 E338.51171
G1 X169.353 Y93.036 E338.56310
G1 X169.947 Y92.054 E338.63467
G1 X170.175 Y91.586 E338.66714
G1 X170.502 Y90.832 E338.71839
G1 X170.622 Y90.538 E338.73819
G1 X170.879 Y89.747 E338.79006
G1 X171.080 Y88.941 E338.84186
G1 X171.170 Y88.427 E338.87441
G1 X171.278 Y87.608 E338.92592
G1 X171.329 Y86.784 E338.97741
G1 X171.340 Y86.467 E338.99719
G1 X171.311 Y85.637 E339.04898
G1 X171.256 Y85.118 E339.08153
G1 X171.135 Y84.306 E339.13273
G1 X170.879 Y83.187 E339.20431
G1 X170.718 Y82.691 E339.23683
G1 X170.430 Y81.921 E339.28810
G1 X170.082 Y81.159 E339.34034
G1 X169.690 Y80.436 E339.39163
G1 X169.240 Y79.729 E339.44390
G1 X168.748 Y79.064 E339.49548
G1 X168.212 Y78.436 E339.54697
G1 X168.000 Y78.200 E339.56676
G1 X167.625 Y77.838 E339.59926
G1 X167.005 Y77.291 E339.65082
G1 X166.351 Y76.789 E339.70224
G1 X165.390 Y76.161 E339.77383
G1 X164.657 Y75.771 E339.82561
G1 X164.180 Y75.559 E339.85816
G1 X163.411 Y75.256 E339.90971
G1 X162.619 Y75.006 E339.96150
G1 X161.812 Y74.813 E340.01325
G1 X160.998 Y74.677 E340.06472
G1 X160.683 Y74.632 E340.08456
G1 X160.163 Y74.596 E340.11707
G1 X159.341 Y74.574 E340.16835
G1 X159.024 Y74.574 E340.18812
G1 X158.504 Y74.610 E340.22062
G1 X157.687 Y74.703 E340.27190
G1 X157.373 Y74.748 E340.29168
G1 X156.863 Y74.856 E340.32419
G1 X156.062 Y75.063 E340.37579
G1 X155.274 Y75.327 E340.42761
G1 X154.513 Y75.642 E340.47898
G1 X154.223 Y75.771 E340.49877
G1 X153.490 Y76.161 E340.55055
G1 X153.047 Y76.438 E340.58313
G1 X152.366 Y76.906 E340.63466
G1 X151.717 Y77.423 E340.68641
G1 X151.109 Y77.980 E340.73783
G1 X150.880 Y78.200 E340.75764
G1 X150.324 Y78.818 E340.80948
G1 X150.004 Y79.229 E340.84196
G0 F12000 X149.500 Y78.778
;TYPE:SKIN
G1 F3600 X149.500 Y73.292 E341.18408
G0 F12000 X149.000 Y73.292
G1 F3600 X149.000 Y79.475 E341.56967
G0 F12000 X148.500 Y80.285
G1 F3600 X148.500 Y73.292 E342.00577
G0 F12000 X148.000 Y73.292
G1 F3600 X148.000 Y81.280 E342.50393
G0 F12000 X147.500 Y82.546
G1 F3600 X147.500 Y73.292 E343.08103
G0 F12000 X147.000 Y73.292
G1 F3600 X147.000 Y84.731 E343.79440
G1 F2100 E343.39440
G0 F12000 X147.000 Y88.211
G1 F2100 E343.79440
G1 F3600 X147.000 Y99.442 E344.49480
G0 F12000 X146.500 Y99.442
G1 F3600 X146.500 Y73.292 E346.12558
G0 F12000 X146.000 Y73.292
G1 F3600 X146.000 Y99.442 E347.75637
G0 F12000 X145.500 Y99.442
G1 F3600 X145.500 Y73.292 E349.38715
G0 F12000 X145.000 Y73.292
G1 F3600 X145.000 Y99.442 E351.01794
G0 F12000 X144.500 Y99.442
G1 F3600 X144.500 Y73.292 E352.64873
G0 F12000 X144.000 Y73.292
G1 F3600 X144.000 Y99.442 E354.27951
G0 F12000 X143.500 Y99.442
G1 F3600 X143.500 Y73.292 E355.91030
G0 F12000 X143.000 Y73.292
G1 F3600 X143.000 Y99.442 E357.54108
G0 F12000 X142.500 Y99.442
G1 F3600 X142.500 Y73.292 E359.17187
G1 F2100 E358.77187
G0 F12000 X150.000 Y73.292
G1 F2100 E359.17187
G1 F3600 X150.000 Y78.170 E359.47608
G0 F12000 X150.500 Y77.629
G1 F3600 X150.500 Y73.292 E359.74654
G0 F12000 X151.000 Y73.292
G1 F3600 X151.000 Y77.165 E359.98807
G0 F12000 X151.500 Y76.734
G1 F3600 X151.500 Y73.292 E360.20273
G0 F12000 X152.000 Y73.292
G1 F3600 X152.000 Y76.340 E360.39281
G0 F12000 X152.500 Y75.996
G1 F3600 X152.500 Y73.292 E360.56144
G0 F12000 X153.000 Y73.292
G1 F3600 X153.000 Y75.684 E360.71061
G0 F12000 X153.500 Y75.392
G1 F3600 X153.500 Y73.292 E360.84157
G0 F12000 X154.000 Y73.292
G1 F3600 X154.000 Y75.132 E360.95632
G0 F12000 X154.500 Y74.918
G1 F3600 X154.500 Y73.292 E361.05772
G0 F12000 X155.000 Y73.292
G1 F3600 X155.000 Y74.710 E361.14615
G0 F12000 X155.500 Y74.540
G1 F3600 X155.500 Y73.292 E361.22398
G0 F12000 X156.000 Y73.292
G1 F3600 X156.000 Y74.383 E361.29202
G0 F12000 X156.500 Y74.254
G1 F3600 X156.750 Y73.292 E361.35202
G1 X157.250 Y74.099 E361.40518
G1 X157.750 Y73.292 E361.45255
G1 X158.250 Y73.962 E361.49592
G1 X158.750 Y73.292 E361.53596
G1 X159.250 Y73.901 E361.57390
G1 X159.750 Y73.292 E361.61203
G1 X160.250 Y73.929 E361.65092
G1 X160.750 Y73.292 E361.69152
G1 X161.250 Y74.036 E361.73535
G1 X161.750 Y73.292 E361.78432
G1 X162.250 Y74.224 E361.83867
G1 X162.500 Y73.292 E361.89884
G0 F12000 X163.000 Y73.292
G1 F3600 X163.000 Y74.419 E361.96913
G0 F12000 X163.500 Y74.577
G1 F3600 X163.500 Y73.292 E362.04926
G0 F12000 X164.000 Y73.292
G1 F3600 X164.000 Y74.763 E362.14100
G0 F12000 X164.500 Y74.965
G1 F3600 X164.500 Y73.292 E362.24533
G0 F12000 X165.000 Y73.292
G1 F3600 X165.000 Y75.203 E362.36451
G0 F12000 X165.500 Y75.455
G1 F3600 X165.500 Y73.292 E362.49940
G0 F12000 X166.000 Y73.292
G1 F3600 X166.000 Y75.747 E362.65250
G0 F12000 X166.500 Y76.062
G1 F3600 X166.500 Y73.292 E362.82524
G0 F12000 X167.000 Y73.292
G1 F3600 X167.000 Y76.436 E363.02131
G0 F12000 X167.500 Y76.827
G1 F3600 X167.500 Y73.292 E363.24176
G0 F12000 X168.000 Y73.292
G1 F3600 X168.000 Y77.268 E363.48972
G0 F12000 X168.500 Y77.746
G1 F3600 X168.500 Y73.292 E363.76748
G0 F12000 X169.000 Y73.292
G1 F3600 X169.000 Y78.320 E364.08104
G0 F12000 X169.500 Y78.945
G1 F3600 X169.500 Y73.292 E364.43358
G0 F12000 X170.000 Y73.292
G1 F3600 X170.000 Y79.665 E364.83102
G0 F12000 X170.500 Y80.513
G1 F3600 X170.500 Y73.292 E365.28134
G0 F12000 X171.000 Y73.292
G1 F3600 X171.000 Y81.529 E365.79502
G0 F12000 X171.500 Y82.915
G1 F3600 X171.500 Y73.292 E366.39514
G0 F12000 X172.000 Y73.292
G1 F3600 X172.000 Y86.028 E367.18939
G0 F12000 X172.000 Y86.864
G1 F3600 X172.000 Y99.442 E367.97379
G0 F12000 X171.500 Y99.442
G1 F3600 X171.500 Y90.016 E368.56162
G0 F12000 X171.000 Y91.379
G1 F3600 X171.000 Y99.442 E369.06445
G0 F12000 X170.500 Y99.442
G1 F3600 X170.500 Y92.421 E369.50230
G0 F12000 X170.000 Y93.271
G1 F3600 X170.000 Y99.442 E369.88714
G0 F12000 X169.500 Y99.442
G1 F3600 X169.500 Y93.995 E370.22683
G0 F12000 X169.000 Y94.618
G1 F3600 X169.000 Y99.442 E370.52767
G0 F12000 X168.500 Y99.442
G1 F3600 X168.500 Y95.167 E370.79427
G0 F12000 X168.000 Y95.659
G1 F3600 X168.000 Y99.442 E371.03019
G0 F12000 X167.500 Y99.442
G1 F3600 X167.500 Y96.106 E371.23823
G0 F12000 X167.000 Y96.503
G1 F3600 X167.000 Y99.442 E371.42151
G0 F12000 X166.500 Y99.442
G1 F3600 X166.500 Y96.857 E371.58272
G0 F12000 X166.000 Y97.180
G1 F3600 X166.000 Y99.442 E371.72378
G0 F12000 X165.500 Y99.442
G1 F3600 X165.500 Y97.474 E371.84651
G0 F12000 X165.000 Y97.731
G1 F3600 X165.000 Y99.442 E371.95322
G0 F12000 X164.500 Y99.442
G1 F3600 X164.500 Y97.968 E372.04514
G0 F12000 X164.000 Y98.175
G1 F3600 X164.000 Y99.442 E372.12415
G0 F12000 X163.500 Y99.442
G1 F3600 X163.500 Y98.354 E372.19200
G0 F12000 X163.000 Y98.520
G1 F3600 X162.750 Y99.442 E372.24943
G1 X162.250 Y98.707 E372.29888
G1 X161.750 Y99.442 E372.34102
G1 X161.250 Y98.894 E372.37747
G1 X160.750 Y99.442 E372.40930
G1 X160.250 Y99.007 E372.43757
G1 X160.000 Y99.442 E372.46886
G1 F2100 E372.06886
G0 F12000 X172.500 Y99.442
G1 F2100 E372.46886
G1 F3600 X172.500 Y73.292 E374.09964
G0 F12000 X173.000 Y73.292
G1 F3600 X173.000 Y99.442 E375.73043
G0 F12000 X173.500 Y99.442
G1 F3600 X173.500 Y73.292 E377.36122
G0 F12000 X174.000 Y73.292
G1 F3600 X174.000 Y99.442 E378.99200
G0 F12000 X174.500 Y99.442
G1 F3600 X174.500 Y73.292 E380.62279
G0 F12000 X175.000 Y73.292
G1 F3600 X175.000 Y99.442 E382.25357
G0 F12000 X175.500 Y99.442
G1 F3600 X175.500 Y73.292 E383.88436
G0 F12000 X176.000 Y73.292
G1 F3600 X176.000 Y99.442 E385.51515
G0 F12000 X176.500 Y99.442
G1 F3600 X176.500 Y73.292 E387.14593
G1 F2100 E386.74593
G0 F12000 X159.500 Y99.035
G1 F2100 E387.14593
G1 F3600 X159.250 Y99.442 E387.17131
G1 X158.750 Y99.010 E387.19752
G1 X158.250 Y99.442 E387.22505
G1 X157.750 Y98.917 E387.25534
G1 X157.250 Y99.442 E387.29042
G1 X156.750 Y98.736 E387.33078
G1 X156.250 Y99.442 E387.37836
G1 X156.000 Y98.553 E387.43595
G0 F12000 X155.500 Y98.395
G1 F3600 X155.500 Y99.442 E387.50125
G0 F12000 X155.000 Y99.442
G1 F3600 X155.000 Y98.219 E387.57752
G0 F12000 X154.500 Y98.022
G1 F3600 X154.500 Y99.442 E387.66607
G0 F12000 X154.000 Y99.442
G1 F3600 X154.000 Y97.789 E387.76916
G0 F12000 X153.500 Y97.539
G1 F3600 X153.500 Y99.442 E387.88784
G0 F12000 X153.000 Y99.442
G1 F3600 X153.000 Y97.255 E388.02422
G0 F12000 X152.500 Y96.938
G1 F3600 X152.500 Y99.442 E388.18038
G0 F12000 X152.000 Y99.442
G1 F3600 X152.000 Y96.592 E388.35811
G0 F12000 X151.500 Y96.208
G1 F3600 X151.500 Y99.442 E388.55979
G0 F12000 X151.000 Y99.442
G1 F3600 X151.000 Y95.771 E388.78873
G0 F12000 X150.500 Y95.289
G1 F3600 X150.500 Y99.442 E389.04772
G0 F12000 X150.000 Y99.442
G1 F3600 X150.000 Y94.755 E389.34001
G0 F12000 X149.500 Y94.158
G1 F3600 X149.500 Y99.442 E389.66954
G0 F12000 X149.000 Y99.442
G1 F3600 X149.000 Y93.446 E390.04347
G0 F12000 X148.500 Y92.643
G1 F3600 X148.500 Y99.442 E390.46747
G0 F12000 X148.000 Y99.442
G1 F3600 X148.000 Y91.680 E390.95153
G0 F12000 X147.500 Y90.391
G1 F3600 X147.500 Y99.442 E391.51598
;LAYER:5
M106 S79
G1 F2100 E391.11598
G0 F12000 X151.002 Y95.547 Z1.700
;TYPE:WALL-INNER
G1 F2100 E391.51598
G1 F3600 X151.655 Y96.114 E391.56991
G1 X152.331 Y96.621 E391.62260
G1 X153.079 Y97.106 E391.67820
G1 X153.832 Y97.521 E391.73182
G1 X154.597 Y97.876 E391.78441
G1 X154.793 Y97.965 E391.79784
G1 X155.609 Y98.261 E391.85197
G1 X156.239 Y98.441 E391.89283
G1 X156.439 Y98.499 E391.90582
G1 X157.082 Y98.635 E391.94680
G1 X157.956 Y98.773 E392.00198
G1 X158.812 Y98.846 E392.05556
G1 X159.657 Y98.860 E392.10826
G1 X159.872 Y98.860 E392.12167
G1 X160.546 Y98.813 E392.16381
G1 X161.399 Y98.707 E392.21741
G1 X162.231 Y98.545 E392.27027
G1 X163.090 Y98.313 E392.32576
G1 X163.884 Y98.039 E392.37814
G1 X164.086 Y97.965 E392.39156
G1 X164.703 Y97.690 E392.43368
G1 X165.468 Y97.298 E392.48729
G1 X166.208 Y96.852 E392.54117
G1 X166.899 Y96.367 E392.59382
G1 X167.592 Y95.805 E392.64946
G1 X168.220 Y95.218 E392.70307
G1 X168.808 Y94.583 E392.75704
G1 X169.352 Y93.911 E392.81096
G1 X169.846 Y93.200 E392.86495
G1 X170.291 Y92.459 E392.91885
G1 X170.682 Y91.687 E392.97282
G1 X171.019 Y90.890 E393.02678
G1 X171.292 Y90.091 E393.07944
G1 X171.523 Y89.229 E393.13509
G1 X171.685 Y88.385 E393.18869
G1 X171.786 Y87.549 E393.24120
G1 X171.810 Y87.334 E393.25470
G1 X171.833 Y86.676 E393.29575
G1 X171.841 Y86.468 E393.30874
G1 X171.817 Y85.811 E393.34974
G1 X171.810 Y85.602 E393.36278
G1 X171.742 Y84.950 E393.40366
G1 X171.719 Y84.740 E393.41683
G1 X171.602 Y84.076 E393.45888
G1 X171.408 Y83.239 E393.51246
G1 X171.159 Y82.430 E393.56525
G1 X170.839 Y81.600 E393.62072
G1 X170.475 Y80.821 E393.67434
G1 X170.054 Y80.065 E393.72831
G1 X169.582 Y79.340 E393.78226
G1 X169.059 Y78.651 E393.83620
G1 X168.505 Y78.014 E393.88885
G1 X167.737 Y77.252 E393.95632
G1 X167.220 Y76.818 E393.99842
G1 X166.548 Y76.313 E394.05084
G1 X165.802 Y75.828 E394.10633
G1 X165.066 Y75.422 E394.15875
G1 X164.875 Y75.321 E394.17222
G1 X164.258 Y75.048 E394.21430
G1 X163.475 Y74.748 E394.26659
G1 X163.272 Y74.673 E394.28008
G1 X162.640 Y74.493 E394.32107
G1 X162.440 Y74.435 E394.33405
G1 X161.797 Y74.299 E394.37504
G1 X160.923 Y74.161 E394.43022
G1 X160.067 Y74.088 E394.48379
G1 X159.222 Y74.074 E394.53650
G1 X159.007 Y74.074 E394.54991
G1 X158.333 Y74.121 E394.59204
G1 X157.481 Y74.227 E394.64558
G1 X156.650 Y74.389 E394.69838
G1 X155.809 Y74.615 E394.75269
G1 X154.794 Y74.970 E394.81975
G1 X154.194 Y75.236 E394.86068
G1 X153.407 Y75.639 E394.91582
G1 X152.671 Y76.083 E394.96942
G1 X151.979 Y76.569 E395.02216
G1 X151.805 Y76.696 E395.03559
G1 X151.288 Y77.130 E395.07769
G1 X150.676 Y77.703 E395.12997
G1 X150.521 Y77.852 E395.14338
G1 X149.941 Y78.497 E395.19747
G1 X149.525 Y79.030 E395.23964
G1 X149.034 Y79.734 E395.29317
G1 X148.589 Y80.476 E395.34712
G1 X148.198 Y81.248 E395.40109
G1 X147.861 Y82.045 E395.45505
G1 X147.588 Y82.844 E395.50771
G1 X147.357 Y83.705 E395.56330
G1 X147.195 Y84.549 E395.61690
G1 X147.094 Y85.387 E395.66954
G1 X147.070 Y85.602 E395.68303
G1 X147.048 Y86.259 E395.72402
G1 X147.041 Y86.465 E395.73688
G1 X147.062 Y87.124 E395.77799
G1 X147.070 Y87.333 E395.79104
G1 X147.138 Y87.985 E395.83192
G1 X147.161 Y88.195 E395.84509
G1 X147.278 Y88.859 E395.88714
G1 X147.472 Y89.695 E395.94066
G1 X147.721 Y90.503 E395.99339
G1 X148.041 Y91.335 E396.04898
G1 X148.405 Y92.114 E396.10260
G1 X148.827 Y92.870 E396.15660
G1 X149.299 Y93.595 E396.21055
G1 X149.820 Y94.284 E396.26442
G1 X150.389 Y94.937 E396.31843
G1 X151.002 Y95.547 E396.37236
G1 F2100 E395.97236
G0 F12000 X142.191 Y99.617
G1 F2100 E396.37236
G1 F3600 X142.191 Y73.117 E398.02497
G1 X176.690 Y73.117 E400.17643
G1 X176.690 Y99.617 E401.82904
G1 X142.191 Y99.617 E403.98049
G0 F12000 X141.691 Y100.117
;TYPE:WALL-OUTER
G1 F3600 X141.691 Y72.617 E405.69547
G1 X177.190 Y72.617 E407.90928
G1 X177.190 Y100.117 E409.62426
G1 X141.691 Y100.117 E411.83807
G1 F2100 E411.43807
G0 F12000 X150.209 Y93.969
G1 F2100 E411.83807
G1 F3600 X150.754 Y94.595 E411.88983
G1 X151.343 Y95.180 E411.94160
G1 X151.970 Y95.725 E411.99341
G1 X152.628 Y96.219 E412.04473
G1 X152.785 Y96.333 E412.05682
G1 X153.332 Y96.675 E412.09706
G1 X154.058 Y97.075 E412.14875
G1 X154.804 Y97.421 E412.20003
G1 X154.981 Y97.501 E412.21214
G1 X155.763 Y97.785 E412.26403
G1 X156.561 Y98.014 E412.31580
G1 X157.185 Y98.146 E412.35558
G1 X157.373 Y98.186 E412.36757
G1 X158.012 Y98.276 E412.40781
G1 X158.837 Y98.347 E412.45945
G1 X159.661 Y98.360 E412.51084
G1 X159.855 Y98.360 E412.52294
G1 X160.498 Y98.315 E412.56314
G1 X161.320 Y98.213 E412.61479
G1 X162.130 Y98.055 E412.66626
G1 X162.319 Y98.014 E412.67832
G1 X162.939 Y97.836 E412.71855
G1 X163.716 Y97.568 E412.76980
G1 X164.487 Y97.239 E412.82208
G1 X165.225 Y96.861 E412.87379
G1 X165.935 Y96.433 E412.92549
G1 X166.608 Y95.960 E412.97679
G1 X167.260 Y95.430 E413.02919
G1 X167.865 Y94.865 E413.08081
G1 X168.430 Y94.256 E413.13262
G1 X168.952 Y93.610 E413.18441
G1 X169.426 Y92.929 E413.23616
G1 X169.853 Y92.217 E413.28793
G1 X170.228 Y91.476 E413.33972
G1 X170.552 Y90.711 E413.39153
G1 X170.818 Y89.932 E413.44287
G1 X171.034 Y89.121 E413.49521
G1 X171.191 Y88.308 E413.54684
G1 X171.289 Y87.492 E413.59810
G1 X171.311 Y87.298 E413.61027
G1 X171.340 Y86.467 E413.66213
G1 X171.311 Y85.638 E413.71386
G1 X171.245 Y85.003 E413.75367
G1 X171.224 Y84.811 E413.76572
G1 X171.112 Y84.176 E413.80593
G1 X170.925 Y83.369 E413.85759
G1 X170.682 Y82.581 E413.90902
G1 X170.380 Y81.799 E413.96129
G1 X170.030 Y81.049 E414.01291
G1 X169.625 Y80.324 E414.06470
G1 X169.173 Y79.628 E414.11645
G1 X168.671 Y78.966 E414.16826
G1 X168.130 Y78.345 E414.21963
G1 X167.402 Y77.624 E414.28352
G1 X166.909 Y77.209 E414.32371
G1 X166.251 Y76.716 E414.37498
G1 X166.094 Y76.602 E414.38708
G1 X165.548 Y76.259 E414.42730
G1 X164.828 Y75.862 E414.47857
G1 X164.067 Y75.510 E414.53086
G1 X163.300 Y75.216 E414.58209
G1 X162.318 Y74.920 E414.64605
G1 X161.694 Y74.788 E414.68582
G1 X161.507 Y74.748 E414.69775
G1 X160.867 Y74.658 E414.73805
G1 X160.042 Y74.587 E414.78969
G1 X159.218 Y74.574 E414.84109
G1 X159.024 Y74.574 E414.85318
G1 X158.381 Y74.619 E414.89338
G1 X157.560 Y74.721 E414.94498
G1 X156.751 Y74.879 E414.99638
G1 X156.560 Y74.920 E415.00856
G1 X155.763 Y75.149 E415.06028
G1 X154.981 Y75.434 E415.11218
G1 X154.398 Y75.693 E415.15197
G1 X153.654 Y76.074 E415.20409
G1 X152.944 Y76.502 E415.25579
G1 X152.270 Y76.976 E415.30718
G1 X152.114 Y77.090 E415.31923
G1 X151.620 Y77.505 E415.35946
G1 X151.020 Y78.066 E415.41069
G1 X150.324 Y78.818 E415.47459
G1 X149.928 Y79.327 E415.51481
G1 X149.454 Y80.006 E415.56645
G1 X149.027 Y80.718 E415.61823
G1 X148.652 Y81.459 E415.67002
G1 X148.328 Y82.224 E415.72183
G1 X148.062 Y83.003 E415.77316
G1 X147.846 Y83.813 E415.82544
G1 X147.689 Y84.626 E415.87708
G1 X147.591 Y85.444 E415.92846
G1 X147.569 Y85.637 E415.94057
G1 X147.548 Y86.274 E415.98032
G1 X147.541 Y86.466 E415.99230
G1 X147.562 Y87.106 E416.03223
G1 X147.569 Y87.298 E416.04421
G1 X147.635 Y87.932 E416.08396
G1 X147.656 Y88.124 E416.09601
G1 X147.768 Y88.759 E416.13622
G1 X147.955 Y89.565 E416.18782
G1 X148.198 Y90.352 E416.23919
G1 X148.258 Y90.538 E416.25137
G1 X148.500 Y91.136 E416.29161
G1 X148.850 Y91.886 E416.34322
G1 X149.255 Y92.611 E416.39501
G1 X149.708 Y93.307 E416.44680
G1 X150.209 Y93.969 E416.49857
G0 F12000 X149.777 Y94.500
;TYPE:SKIN
G1 F3600 X142.365 Y94.500 E416.96080
G0 F12000 X142.365 Y95.000
G1 F3600 X150.212 Y95.000 E417.45016
G0 F12000 X150.707 Y95.500
G1 F3600 X142.365 Y95.500 E417.97039
G0 F12000 X142.365 Y96.000
G1 F3600 X151.258 Y96.000 E418.52499
G0 F12000 X151.879 Y96.500
G1 F3600 X142.365 Y96.500 E419.11831
G0 F12000 X142.365 Y97.000
G1 F3600 X152.595 Y97.000 E419.75628
G0 F12000 X153.433 Y97.500
G1 F3600 X142.365 Y97.500 E420.44651
G0 F12000 X142.365 Y98.000
G1 F3600 X154.454 Y98.000 E421.20041
G0 F12000 X155.812 Y98.500
G1 F3600 X142.365 Y98.500 E422.03900
G0 F12000 X142.365 Y99.000
G1 F3600 X158.572 Y99.000 E423.04972
G1 F2100 E422.64972
G0 F12000 X149.386 Y94.000
G1 F2100 E423.04972
G1 F3600 X142.365 Y94.000 E423.48757
G0 F12000 X142.365 Y93.500
G1 F3600 X149.028 Y93.500 E423.90309
G0 F12000 X148.703 Y93.000
G1 F3600 X142.365 Y93.000 E424.29834
G0 F12000 X142.365 Y92.500
G1 F3600 X148.420 Y92.500 E424.67595
G0 F12000 X148.158 Y92.000
G1 F3600 X142.365 Y92.000 E425.03722
G0 F12000 X142.365 Y91.500
G1 F3600 X147.925 Y91.500 E425.38395
G0 F12000 X147.725 Y91.000
G1 F3600 X142.365 Y91.000 E425.71822
G0 F12000 X142.365 Y90.500
G1 F3600 X147.537 Y90.500 E426.04076
G0 F12000 X147.383 Y90.000
G1 F3600 X142.365 Y90.000 E426.35369
G0 F12000 X142.365 Y89.500
G1 F3600 X147.247 Y89.500 E426.65815
G0 F12000 X147.131 Y89.000
G1 F3600 X142.365 Y89.000 E426.95537
G0 F12000 X142.365 Y88.500
G1 F3600 X147.037 Y88.500 E427.24673
G0 F12000 X146.964 Y88.000
G1 F3600 X142.365 Y88.000 E427.53354
G0 F12000 X142.365 Y87.500
G1 F3600 X146.911 Y87.500 E427.81704
G0 F12000 X146.883 Y87.000
G1 F3600 X142.365 Y87.000 E428.09879
G0 F12000 X142.365 Y86.500
G1 F3600 X146.867 Y86.500 E428.37955
G0 F12000 X146.880 Y86.000
G1 F3600 X142.365 Y86.000 E428.66112
G0 F12000 X142.365 Y85.500
G1 F3600 X146.904 Y85.500 E428.94418
G0 F12000 X146.963 Y85.000
G1 F3600 X142.365 Y85.000 E429.23093
G0 F12000 X142.365 Y84.500
G1 F3600 X147.025 Y84.500 E429.52154
G0 F12000 X147.121 Y84.000
G1 F3600 X142.365 Y84.000 E429.81813
G0 F12000 X142.365 Y83.500
G1 F3600 X147.228 Y83.500 E430.12140
G0 F12000 X147.363 Y83.000
G1 F3600 X142.365 Y83.000 E430.43309
G0 F12000 X142.365 Y82.500
G1 F3600 X147.519 Y82.500 E430.75451
